; generated by Slic3r 1.1.7 on 2015-04-04 at 17:07:38

; perimeters extrusion width = 0.40mm
; infill extrusion width = 0.67mm
; solid infill extrusion width = 0.50mm
; top infill extrusion width = 0.30mm

G21 ; set units to millimeters
M107
M190 S70 ; wait for bed temperature to be reached
M104 S240 ; set temperature
G28 ; home all axes
M109 S240 ; wait for temperature to be reached
G90 ; use absolute coordinates
G92 E0
M82 ; use absolute distances for extrusion
M204 S500
G1 F1800.000 E-1.00000
G1 Z0.250 F12000.000
G92 E0
G1 X99.010 Y48.908 F12000.000
G1 Z0.200 F12000.000
G1 E1.00000 F1800.000
G1 X99.703 Y47.607 E1.01738 F600.000
G1 X99.875 Y47.336 E1.02115
G1 X100.726 Y46.131 E1.03854
G1 X100.930 Y45.884 E1.04231
G1 X101.925 Y44.795 E1.05970
G1 X103.281 Y43.621 E1.08084
G1 X104.776 Y42.624 E1.10201
G1 X105.057 Y42.470 E1.10578
G1 X106.382 Y41.825 E1.12315
G1 X108.076 Y41.232 E1.14431
G1 X108.387 Y41.152 E1.14808
G1 X109.832 Y40.856 E1.16548
G1 X111.582 Y40.703 E1.18617
G1 X137.739 Y40.596 E1.49442
G1 X139.532 Y40.668 E1.51556
G1 X139.850 Y40.708 E1.51934 F600.000
G1 X141.304 Y40.965 E1.53674
G1 X143.023 Y41.481 E1.55789
G1 X144.663 Y42.209 E1.57903
G1 X146.200 Y43.136 E1.60019
G1 X146.459 Y43.325 E1.60397
G1 X147.609 Y44.250 E1.62135
G1 X147.842 Y44.469 E1.62513
G1 X148.866 Y45.530 E1.64250
G1 X149.953 Y46.958 E1.66366
G1 X150.125 Y47.229 E1.66743
G1 X150.853 Y48.511 E1.68481
G1 X151.551 Y50.165 E1.70597
G1 X152.037 Y51.893 E1.72712
G1 X152.284 Y53.436 E1.74553
G1 X154.586 Y79.865 E2.05816
G1 X154.720 Y140.217 E2.76937
G1 X154.720 Y149.217 E2.87543
G1 X154.609 Y150.638 E2.89223
G1 X154.586 Y150.787 E2.89400
G1 X153.696 Y153.525 E2.92793
G1 X153.635 Y153.644 E2.92951
G1 X151.942 Y155.975 E2.96346
G1 X151.841 Y156.075 E2.96513
G1 X149.521 Y157.758 E2.99891
G1 X149.403 Y157.819 E3.00048
G1 X146.664 Y158.709 E3.03441
G1 X145.093 Y158.843 E3.05299
G1 X131.033 Y158.839 E3.21868
G1 X103.469 Y157.984 E3.54366
G1 X103.335 Y157.963 E3.54526
G1 X100.599 Y157.073 E3.57916
G1 X100.480 Y157.013 E3.58074
G1 X98.151 Y155.321 E3.61466
G1 X98.056 Y155.226 E3.61624
G1 X96.364 Y152.898 E3.65016
G1 X96.304 Y152.779 E3.65173
G1 X95.415 Y150.042 E3.68564
G1 X95.280 Y148.471 E3.70423
G1 X95.280 Y139.450 E3.81053
G1 X95.450 Y79.183 E4.52074
G1 X97.843 Y52.630 E4.83492
G1 X97.904 Y52.315 E4.83869
G1 X98.251 Y50.882 E4.85607
G1 X98.874 Y49.198 E4.87723
G1 X98.985 Y48.963 E4.88029
G1 X99.372 Y49.079 F12000.000
G1 X100.041 Y47.821 E4.89708 F600.000
G1 X100.212 Y47.551 E4.90085
G1 X101.034 Y46.386 E4.91765
G1 X101.238 Y46.139 E4.92142
G1 X102.199 Y45.087 E4.93822
G1 X103.516 Y43.944 E4.95877
G1 X104.969 Y42.975 E4.97934
G1 X105.249 Y42.821 E4.98312
G1 X106.529 Y42.196 E4.99989
G1 X108.176 Y41.619 E5.02046
G1 X108.486 Y41.539 E5.02424
G1 X109.883 Y41.252 E5.04104
G1 X111.584 Y41.103 E5.06116
G1 X137.739 Y40.996 E5.36939
G1 X139.482 Y41.065 E5.38994
G1 X139.800 Y41.105 E5.39372 F600.000
G1 X141.204 Y41.352 E5.41052
G1 X142.876 Y41.853 E5.43108
G1 X144.470 Y42.559 E5.45163
G1 X145.965 Y43.460 E5.47220
G1 X146.224 Y43.648 E5.47598
G1 X147.335 Y44.541 E5.49277
G1 X147.568 Y44.760 E5.49654
G1 X148.558 Y45.785 E5.51333
G1 X149.616 Y47.172 E5.53389
G1 X149.787 Y47.443 E5.53767
G1 X150.491 Y48.682 E5.55445
G1 X151.171 Y50.289 E5.57502
G1 X151.644 Y51.968 E5.59558
G1 X151.885 Y53.471 E5.61352
G1 X154.186 Y79.866 E5.92574
G1 X154.320 Y140.217 E6.63694
G1 X154.320 Y149.217 E6.74300
G1 X154.214 Y150.577 E6.75907
G1 X154.191 Y150.724 E6.76083
G1 X153.340 Y153.344 E6.79329
G1 X153.279 Y153.463 E6.79486
G1 X151.659 Y155.692 E6.82734
G1 X151.559 Y155.792 E6.82901
G1 X149.340 Y157.402 E6.86131
G1 X149.221 Y157.463 E6.86288
G1 X146.602 Y158.314 E6.89534
G1 X145.093 Y158.443 E6.91318
G1 X131.045 Y158.440 E7.07874
G1 X103.532 Y157.589 E7.40311
G1 X103.398 Y157.568 E7.40471
G1 X100.780 Y156.717 E7.43714
G1 X100.661 Y156.656 E7.43871
G1 X98.434 Y155.038 E7.47116
G1 X98.339 Y154.943 E7.47274
G1 X96.721 Y152.716 E7.50518
G1 X96.660 Y152.597 E7.50676
G1 X95.810 Y149.979 E7.53919
G1 X95.680 Y148.471 E7.55704
G1 X95.680 Y139.451 E7.66333
G1 X95.848 Y79.218 E8.37314
G1 X98.236 Y52.705 E8.68684
G1 X98.296 Y52.390 E8.69062
G1 X98.631 Y51.005 E8.70741
G1 X99.236 Y49.369 E8.72797
G1 X99.347 Y49.133 E8.73104
G1 X99.734 Y49.249 F12000.000
G1 X100.379 Y48.035 E8.74723 F600.000
G1 X100.550 Y47.765 E8.75100
G1 X101.342 Y46.641 E8.76721
G1 X101.546 Y46.394 E8.77098
G1 X102.473 Y45.378 E8.78718
G1 X103.752 Y44.268 E8.80714
G1 X105.161 Y43.326 E8.82713
G1 X105.442 Y43.171 E8.83090
G1 X106.676 Y42.568 E8.84709
G1 X108.275 Y42.006 E8.86706
G1 X108.585 Y41.927 E8.87083
G1 X109.933 Y41.649 E8.88704
G1 X111.586 Y41.503 E8.90660
G1 X137.739 Y41.396 E9.21481
G1 X139.432 Y41.462 E9.23476
G1 X139.750 Y41.502 E9.23854 F600.000
G1 X141.105 Y41.740 E9.25475
G1 X142.728 Y42.225 E9.27472
G1 X144.277 Y42.910 E9.29468
G1 X145.730 Y43.784 E9.31466
G1 X145.989 Y43.972 E9.31844
G1 X147.061 Y44.833 E9.33463
G1 X147.295 Y45.052 E9.33841
G1 X148.250 Y46.040 E9.35460
G1 X149.278 Y47.387 E9.37457
G1 X149.450 Y47.657 E9.37835
G1 X150.129 Y48.852 E9.39454
G1 X150.791 Y50.412 E9.41452
G1 X151.251 Y52.043 E9.43449
G1 X151.487 Y53.507 E9.45195
G1 X153.786 Y79.867 E9.76377
G1 X153.920 Y140.217 E10.47496
G1 X153.920 Y149.217 E10.58102
G1 X153.819 Y150.515 E10.59636
G1 X153.796 Y150.662 E10.59811
G1 X152.983 Y153.162 E10.62909
G1 X152.923 Y153.281 E10.63067
G1 X151.376 Y155.409 E10.66166
G1 X151.276 Y155.509 E10.66333
G1 X149.158 Y157.046 E10.69417
G1 X149.039 Y157.106 E10.69574
G1 X146.539 Y157.919 E10.72672
G1 X145.093 Y158.043 E10.74382
G1 X131.056 Y158.040 E10.90924
G1 X103.594 Y157.194 E11.23301
G1 X103.460 Y157.172 E11.23461
G1 X100.962 Y156.361 E11.26557
G1 X100.843 Y156.300 E11.26714
G1 X98.716 Y154.755 E11.29812
G1 X98.622 Y154.661 E11.29969
G1 X97.077 Y152.534 E11.33066
G1 X97.017 Y152.416 E11.33223
G1 X96.205 Y149.917 E11.36320
G1 X96.080 Y148.471 E11.38030
G1 X96.080 Y139.452 E11.48658
G1 X96.247 Y79.253 E12.19598
G1 X98.629 Y52.780 E12.50922
G1 X98.689 Y52.465 E12.51299
G1 X99.012 Y51.129 E12.52919
G1 X99.598 Y49.539 E12.54916
G1 X99.709 Y49.303 E12.55223
G1 F1800.000 E11.55223
G1 Z0.250 F12000.000
G92 E0
G1 X114.367 Y80.567 F12000.000
G1 Z0.200 F12000.000
G1 E1.00000 F1800.000
G1 X118.267 Y80.567 E1.04596 F600.000
G1 X118.267 Y88.419 E1.13850
G1 X116.505 Y88.419 E1.15925
G1 X116.589 Y88.161 E1.16246
G1 X116.700 Y87.581 E1.16941
G1 X116.737 Y86.993 E1.17635
G1 X116.705 Y86.493 E1.18226
G1 X116.737 Y85.993 E1.18816
G1 X116.705 Y85.493 E1.19407
G1 X116.737 Y84.993 E1.19997
G1 X116.700 Y84.404 E1.20692
G1 X116.589 Y83.825 E1.21387
G1 X116.407 Y83.264 E1.22082
G1 X116.156 Y82.730 E1.22777
G1 X115.840 Y82.232 E1.23472
G1 X115.464 Y81.778 E1.24167
G1 X115.034 Y81.374 E1.24862
G1 X114.557 Y81.028 E1.25557
G1 X114.222 Y80.844 E1.26007
G1 X114.040 Y80.743 E1.26252
G1 X113.492 Y80.526 E1.26947
G1 X112.920 Y80.380 E1.27642
G1 X112.335 Y80.306 E1.28337
G1 X111.745 Y80.306 E1.29032
G1 X111.160 Y80.380 E1.29727
G1 X110.589 Y80.526 E1.30422
G1 X110.177 Y80.689 E1.30944
G1 X110.041 Y80.743 E1.31117
G1 X109.524 Y81.028 E1.31812
G1 X109.047 Y81.374 E1.32507
G1 X108.617 Y81.778 E1.33202
G1 X108.241 Y82.232 E1.33897
G1 X107.925 Y82.730 E1.34592
G1 X107.862 Y82.863 E1.34766
G1 X107.674 Y83.264 E1.35287
G1 X107.491 Y83.825 E1.35982
G1 X107.381 Y84.404 E1.36677
G1 X107.344 Y84.993 E1.37372
G1 X107.375 Y85.493 E1.37963
G1 X107.344 Y85.993 E1.38553
G1 X107.375 Y86.493 E1.39144
G1 X107.344 Y86.993 E1.39734
G1 X107.381 Y87.581 E1.40429
G1 X107.491 Y88.161 E1.41124
G1 X107.575 Y88.419 E1.41444
G1 X105.614 Y88.419 E1.43755
G1 X105.614 Y80.567 E1.53009
G1 X109.514 Y80.567 E1.57605
G1 X109.514 Y76.567 E1.62319
G1 X114.367 Y76.567 E1.68037
G1 X114.367 Y80.507 E1.72680
G1 X114.767 Y80.167 F12000.000
G1 X118.667 Y80.167 E1.77276 F600.000
G1 X118.667 Y88.819 E1.87473
G1 X115.919 Y88.819 E1.90711
G1 X116.034 Y88.574 E1.91030
G1 X116.201 Y88.061 E1.91666
G1 X116.302 Y87.531 E1.92301
G1 X116.336 Y86.993 E1.92937
G1 X116.304 Y86.493 E1.93527
G1 X116.336 Y85.993 E1.94118
G1 X116.304 Y85.493 E1.94708
G1 X116.336 Y84.993 E1.95299
G1 X116.302 Y84.455 E1.95934
G1 X116.201 Y83.925 E1.96570
G1 X116.034 Y83.412 E1.97206
G1 X115.805 Y82.923 E1.97841
G1 X115.516 Y82.468 E1.98477
G1 X115.172 Y82.052 E1.99113
G1 X114.778 Y81.683 E1.99748
G1 X114.630 Y81.575 E1.99964
G1 X114.342 Y81.366 E2.00384
G1 X113.869 Y81.106 E2.01020
G1 X113.368 Y80.908 E2.01656
G1 X112.845 Y80.773 E2.02291
G1 X112.310 Y80.706 E2.02927
G1 X111.771 Y80.706 E2.03563
G1 X111.235 Y80.773 E2.04198
G1 X110.713 Y80.908 E2.04834
G1 X110.211 Y81.106 E2.05470
G1 X109.739 Y81.366 E2.06105
G1 X109.302 Y81.683 E2.06741
G1 X108.909 Y82.052 E2.07377
G1 X108.565 Y82.468 E2.08013
G1 X108.276 Y82.923 E2.08648
G1 X108.046 Y83.412 E2.09284
G1 X107.880 Y83.925 E2.09920
G1 X107.779 Y84.455 E2.10555
G1 X107.745 Y84.993 E2.11191
G1 X107.776 Y85.493 E2.11781
G1 X107.745 Y85.993 E2.12372
G1 X107.776 Y86.493 E2.12962
G1 X107.745 Y86.993 E2.13553
G1 X107.779 Y87.531 E2.14188
G1 X107.880 Y88.061 E2.14824
G1 X108.046 Y88.574 E2.15460
G1 X108.162 Y88.819 E2.15779
G1 X105.214 Y88.819 E2.19252
G1 X105.214 Y80.167 E2.29449
G1 X109.114 Y80.167 E2.34045
G1 X109.114 Y76.167 E2.38759
G1 X114.767 Y76.167 E2.45420
G1 X114.767 Y80.107 E2.50063
G1 X115.167 Y79.767 F12000.000
G1 X118.825 Y79.767 E2.54374 F600.000
G1 X118.972 Y79.812 E2.54555
G1 X119.053 Y79.924 E2.54718
G1 X119.067 Y80.009 E2.54819
G1 X119.067 Y88.977 E2.65388
G1 X119.053 Y89.062 E2.65490
G1 X118.972 Y89.174 E2.65653
G1 X118.825 Y89.219 E2.65834
G1 X115.231 Y89.219 E2.70069
G1 X115.453 Y88.869 E2.70557
G1 X115.662 Y88.427 E2.71133
G1 X115.813 Y87.961 E2.71710
G1 X115.904 Y87.481 E2.72286
G1 X115.935 Y86.993 E2.72863
G1 X115.904 Y86.493 E2.73453
G1 X115.935 Y85.993 E2.74043
G1 X115.904 Y85.493 E2.74634
G1 X115.935 Y84.993 E2.75224
G1 X115.886 Y84.410 E2.75914
G1 X115.813 Y84.024 E2.76376
G1 X115.662 Y83.559 E2.76953
G1 X115.453 Y83.117 E2.77529
G1 X115.191 Y82.704 E2.78105
G1 X114.879 Y82.327 E2.78682
G1 X114.523 Y81.992 E2.79258
G1 X114.395 Y81.899 E2.79444
G1 X114.127 Y81.704 E2.79834
G1 X113.699 Y81.469 E2.80411
G1 X113.244 Y81.289 E2.80987
G1 X112.770 Y81.167 E2.81564
G1 X112.285 Y81.106 E2.82140
G1 X111.796 Y81.106 E2.82716
G1 X111.217 Y81.191 E2.83406
G1 X110.837 Y81.289 E2.83868
G1 X110.382 Y81.469 E2.84445
G1 X109.953 Y81.704 E2.85021
G1 X109.558 Y81.992 E2.85598
G1 X109.201 Y82.327 E2.86174
G1 X109.100 Y82.448 E2.86360
G1 X108.889 Y82.704 E2.86750
G1 X108.627 Y83.117 E2.87327
G1 X108.419 Y83.559 E2.87903
G1 X108.268 Y84.024 E2.88480
G1 X108.176 Y84.505 E2.89056
G1 X108.145 Y84.993 E2.89632
G1 X108.177 Y85.493 E2.90223
G1 X108.145 Y85.993 E2.90813
G1 X108.177 Y86.493 E2.91403
G1 X108.145 Y86.993 E2.91994
G1 X108.176 Y87.481 E2.92570
G1 X108.268 Y87.961 E2.93147
G1 X108.419 Y88.427 E2.93723
G1 X108.627 Y88.869 E2.94299
G1 X108.849 Y89.219 E2.94788
G1 X105.056 Y89.219 E2.99258
G1 X104.971 Y89.206 E2.99359
G1 X104.859 Y89.124 E2.99522
G1 X104.814 Y88.977 E2.99704
G1 X104.814 Y80.009 E3.10273
G1 X104.827 Y79.924 E3.10374
G1 X104.909 Y79.812 E3.10537
G1 X105.056 Y79.767 E3.10719
G1 X108.714 Y79.767 E3.15029
G1 X108.714 Y76.009 E3.19458
G1 X108.727 Y75.924 E3.19559
G1 X108.809 Y75.812 E3.19722
G1 X108.956 Y75.767 E3.19904
G1 X114.925 Y75.767 E3.26937
G1 X115.072 Y75.812 E3.27119
G1 X115.153 Y75.924 E3.27282
G1 X115.167 Y76.009 E3.27383
G1 X115.167 Y79.707 E3.31741
G1 X115.167 Y80.167 F12000.000
G1 X117.905 Y80.888 F12000.000
G1 X117.945 Y80.928 E3.31821 F600.000
G1 X117.945 Y81.606 E3.32777
G1 X117.227 Y80.888 E3.34210
G1 X116.548 Y80.888 E3.35167
G1 X117.945 Y82.285 E3.37952
G1 X117.945 Y82.964 E3.38909
G1 X115.870 Y80.888 E3.43047
G1 X115.191 Y80.888 E3.44004
G1 X117.945 Y83.642 E3.49495
G1 X117.945 Y84.321 E3.50452
G1 X116.650 Y83.025 E3.53035
G1 X116.950 Y84.005 E3.54480
G1 X117.945 Y84.999 E3.56463
G1 X117.945 Y85.678 E3.57420
G1 X117.045 Y84.778 E3.59214
G1 X117.030 Y85.442 E3.60151
G1 X117.945 Y86.356 E3.61975
G1 X117.945 Y87.035 E3.62931
G1 X117.049 Y86.139 E3.64717
G1 X117.047 Y86.816 E3.65671
G1 X117.945 Y87.714 E3.67461
G1 X117.651 Y88.098 E3.68144
G1 X117.028 Y87.475 E3.69385
G1 X116.935 Y88.061 E3.70221
G1 X116.972 Y88.098 E3.70295
G1 F1800.000 E2.70295
G1 Z0.250 F12000.000
G92 E0
G1 X109.835 Y80.430 F12000.000
G1 Z0.200 F12000.000
G1 E1.00000 F1800.000
G1 X109.871 Y80.465 E1.00071 F600.000
G1 X110.373 Y80.266 E1.00832
G1 X109.835 Y79.729 E1.01904
G1 X109.835 Y79.028 E1.02892
G1 X110.918 Y80.110 E1.05051
G1 X111.519 Y80.010 E1.05910
G1 X109.835 Y78.327 E1.09268
G1 X109.835 Y77.625 E1.10256
G1 X112.194 Y79.984 E1.14959
G1 X112.973 Y80.062 E1.16063
G1 X109.837 Y76.926 E1.22316
G1 X110.500 Y76.888 E1.23252
G1 X113.990 Y80.378 E1.30211
G1 X114.045 Y79.732 E1.31125
G1 X111.201 Y76.888 E1.36796
G1 X111.902 Y76.888 E1.37784
G1 X114.045 Y79.031 E1.42057
G1 X114.045 Y78.330 E1.43046
G1 X112.603 Y76.888 E1.45921
G1 X113.304 Y76.888 E1.46909
G1 X114.045 Y77.629 E1.48387
G1 X114.045 Y76.928 E1.49375
G1 X114.005 Y76.888 E1.49455
G1 F1800.000 E0.49455
G1 Z0.250 F12000.000
G92 E0
G1 X108.970 Y80.888 F12000.000
G1 Z0.200 F12000.000
G1 E1.00000 F1800.000
G1 X109.021 Y80.939 E1.00102 F600.000
G1 X108.680 Y81.278 E1.00780
G1 X108.290 Y80.888 E1.01558
G1 X107.609 Y80.888 E1.02517
G1 X108.335 Y81.614 E1.03964
G1 X108.027 Y81.986 E1.04646
G1 X106.929 Y80.888 E1.06835
G1 X106.249 Y80.888 E1.07794
G1 X107.757 Y82.396 E1.10801
G1 X107.519 Y82.838 E1.11509
G1 X105.935 Y81.255 E1.14666
G1 X105.935 Y81.935 E1.15625
G1 X107.318 Y83.318 E1.18383
G1 X107.161 Y83.841 E1.19153
G1 X105.935 Y82.615 E1.21597
G1 X105.935 Y83.296 E1.22556
G1 X107.058 Y84.418 E1.24794
G1 X107.027 Y85.067 E1.25710
G1 X105.935 Y83.976 E1.27886
G1 X105.935 Y84.656 E1.28845
G1 X107.037 Y85.758 E1.31041
G1 X107.051 Y86.452 E1.32020
G1 X105.935 Y85.337 E1.34244
G1 X105.935 Y86.017 E1.35203
G1 X107.029 Y87.111 E1.37385
G1 X107.109 Y87.871 E1.38462
G1 X105.935 Y86.697 E1.40802
G1 X105.935 Y87.378 E1.41761
G1 X106.656 Y88.098 E1.43197
G1 X105.975 Y88.098 E1.44156
G1 X105.935 Y88.058 E1.44236
G1 F1800.000 E0.44236
G1 Z0.250 F12000.000
G92 E0
G1 X112.550 Y59.038 F12000.000
G1 Z0.200 F12000.000
G1 E1.00000 F1800.000
G1 X112.198 Y59.083 E1.00419 F600.000
G1 X111.683 Y59.083 E1.01025
G1 X111.172 Y59.018 E1.01632
G1 X110.674 Y58.890 E1.02238
G1 X110.195 Y58.701 E1.02845
G1 X109.744 Y58.453 E1.03451
G1 X109.328 Y58.150 E1.04058
G1 X108.953 Y57.798 E1.04664
G1 X108.625 Y57.402 E1.05271
G1 X108.349 Y56.967 E1.05877
G1 X108.240 Y56.734 E1.06180
G1 X108.130 Y56.501 E1.06484
G1 X107.971 Y56.012 E1.07090
G1 X107.875 Y55.507 E1.07696
G1 X107.842 Y54.993 E1.08303
G1 X107.875 Y54.479 E1.08909
G1 X107.971 Y53.974 E1.09516
G1 X108.130 Y53.484 E1.10122
G1 X108.240 Y53.252 E1.10425
G1 X108.349 Y53.019 E1.10729
G1 X108.625 Y52.584 E1.11335
G1 X108.953 Y52.188 E1.11942
G1 X109.328 Y51.835 E1.12548
G1 X109.744 Y51.533 E1.13155
G1 X110.195 Y51.285 E1.13761
G1 X110.674 Y51.095 E1.14368
G1 X111.172 Y50.967 E1.14974
G1 X111.683 Y50.903 E1.15580
G1 X112.198 Y50.903 E1.16187
G1 X112.453 Y50.935 E1.16490
G1 X112.708 Y50.967 E1.16793 F600.000
G1 X113.207 Y51.095 E1.17400
G1 X113.685 Y51.285 E1.18006
G1 X114.136 Y51.533 E1.18613
G1 X114.552 Y51.835 E1.19219
G1 X114.928 Y52.188 E1.19826
G1 X115.256 Y52.584 E1.20432
G1 X115.531 Y53.019 E1.21039
G1 X115.751 Y53.484 E1.21645
G1 X115.910 Y53.974 E1.22252
G1 X116.006 Y54.479 E1.22858
G1 X116.038 Y54.993 E1.23464
G1 X116.006 Y55.507 E1.24071
G1 X115.910 Y56.012 E1.24677
G1 X115.751 Y56.501 E1.25284
G1 X115.531 Y56.967 E1.25890
G1 X115.256 Y57.402 E1.26497
G1 X114.928 Y57.798 E1.27103
G1 X114.552 Y58.150 E1.27710
G1 X114.136 Y58.453 E1.28316
G1 X113.685 Y58.701 E1.28923
G1 X113.207 Y58.890 E1.29529
G1 X112.610 Y59.031 E1.30252
G1 X112.600 Y59.435 F12000.000
G1 X112.223 Y59.483 E1.30700 F600.000
G1 X111.658 Y59.483 E1.31366
G1 X111.097 Y59.412 E1.32032
G1 X110.550 Y59.272 E1.32697
G1 X110.025 Y59.064 E1.33363
G1 X109.530 Y58.791 E1.34029
G1 X109.073 Y58.459 E1.34695
G1 X108.661 Y58.073 E1.35361
G1 X108.301 Y57.637 E1.36026
G1 X107.998 Y57.160 E1.36692
