; generated by Slic3r 1.1.7 on 2015-04-04 at 13:26:38

; perimeters extrusion width = 0.40mm
; infill extrusion width = 0.67mm
; solid infill extrusion width = 0.50mm
; top infill extrusion width = 0.30mm

G21 ; set units to millimeters
M107
M190 S70 ; wait for bed temperature to be reached
M104 S240 ; set temperature
G28 ; home all axes
M109 S240 ; wait for temperature to be reached
G90 ; use absolute coordinates
G92 E0
M82 ; use absolute distances for extrusion
M204 S500
G1 F1800.000 E-1.00000
G1 Z0.250 F12000.000
G92 E0
G1 X93.663 Y93.670 F12000.000
G1 Z0.200 F12000.000
G1 E1.00000 F1800.000
G1 X155.214 Y32.137 E2.08944 F600.000
G1 X156.345 Y31.176 E2.10802
G1 X156.604 Y30.988 E2.11202
G1 X157.834 Y30.183 E2.13043
G1 X158.115 Y30.029 E2.13444
G1 X159.449 Y29.379 E2.15301
G1 X159.747 Y29.262 E2.15702
G1 X161.125 Y28.793 E2.17524
G1 X161.435 Y28.713 E2.17925
G1 X162.896 Y28.413 E2.19791
G1 X163.214 Y28.373 E2.20193
G1 X164.680 Y28.261 E2.22033
G1 X166.468 Y28.333 E2.24273
G1 X166.786 Y28.373 E2.24675 F600.000
G1 X168.255 Y28.633 E2.26542
G1 X168.565 Y28.713 E2.26943
G1 X169.955 Y29.144 E2.28765
G1 X170.253 Y29.262 E2.29165
G1 X171.603 Y29.874 E2.31021
G1 X171.884 Y30.029 E2.31423
G1 X173.137 Y30.800 E2.33264
G1 X173.396 Y30.988 E2.33665
G1 X174.552 Y31.918 E2.35522
G1 X175.805 Y33.194 E2.37761
G1 X176.896 Y34.627 E2.40015
G1 X177.067 Y34.897 E2.40416
G1 X177.793 Y36.176 E2.42256
G1 X178.491 Y37.830 E2.44503
G1 X178.590 Y38.134 E2.44904
G1 X178.977 Y39.559 E2.46752
G1 X179.037 Y39.874 E2.47153
G1 X179.242 Y41.337 E2.49003
G1 X179.298 Y42.365 E2.50291
G1 X181.526 Y152.551 E3.88245
G1 X181.431 Y162.870 E4.01162
G1 X181.394 Y163.108 E4.01463
G1 X180.490 Y165.884 E4.05118
G1 X180.429 Y166.003 E4.05285
G1 X178.764 Y168.293 E4.08829
G1 X178.620 Y168.437 E4.09085
G1 X176.315 Y170.100 E4.12642
G1 X176.196 Y170.160 E4.12810
G1 X173.474 Y171.043 E4.16391
G1 X171.900 Y171.177 E4.18369
G1 X78.100 Y171.177 E5.35783
G1 X76.529 Y171.043 E5.37756
G1 X73.790 Y170.153 E5.41361
G1 X73.672 Y170.093 E5.41528
G1 X71.355 Y168.413 E5.45110
G1 X71.252 Y168.309 E5.45293
G1 X69.558 Y165.979 E5.48899
G1 X69.497 Y165.860 E5.49066
G1 X68.608 Y163.122 E5.52670
G1 X68.474 Y161.551 E5.54643
G1 X68.499 Y151.872 E5.66758
G1 X70.903 Y120.188 E6.06533
G1 X70.963 Y119.874 E6.06934
G1 X71.310 Y118.440 E6.08781
G1 X71.934 Y116.757 E6.11027
G1 X72.070 Y116.467 E6.11429
G1 X72.763 Y115.165 E6.13275
G1 X73.785 Y113.689 E6.15522
G1 X74.777 Y112.555 E6.17408
G1 X93.620 Y93.712 E6.50764
G1 X93.946 Y93.953 F12000.000
G1 X155.488 Y32.429 E7.59693 F600.000
G1 X156.579 Y31.500 E7.61487
G1 X156.839 Y31.311 E7.61888
G1 X158.027 Y30.534 E7.63666
G1 X158.308 Y30.379 E7.64067
G1 X159.596 Y29.751 E7.65861
G1 X161.225 Y29.180 E7.68021
G1 X161.535 Y29.100 E7.68422
G1 X162.946 Y28.810 E7.70225
G1 X163.264 Y28.770 E7.70627
G1 X164.680 Y28.661 E7.72404
G1 X166.418 Y28.730 E7.74582
G1 X166.736 Y28.770 E7.74983 F600.000
G1 X168.155 Y29.020 E7.76786
G1 X169.808 Y29.516 E7.78947
G1 X170.106 Y29.634 E7.79348
G1 X171.411 Y30.225 E7.81141
G1 X171.692 Y30.379 E7.81542
G1 X172.902 Y31.123 E7.83321
G1 X173.161 Y31.312 E7.83721
G1 X174.278 Y32.209 E7.85516
G1 X175.497 Y33.449 E7.87692
G1 X176.558 Y34.841 E7.89882
G1 X176.729 Y35.112 E7.90283
G1 X177.431 Y36.347 E7.92061
G1 X178.111 Y37.953 E7.94245
G1 X178.210 Y38.258 E7.94646
G1 X178.584 Y39.634 E7.96431
G1 X178.644 Y39.949 E7.96832
G1 X178.843 Y41.362 E7.98619
G1 X178.898 Y42.373 E7.99886
G1 X181.126 Y152.551 E9.37830
G1 X181.035 Y162.812 E9.50675
G1 X180.999 Y163.046 E9.50970
G1 X180.134 Y165.701 E9.54466
G1 X180.073 Y165.820 E9.54633
G1 X178.481 Y168.011 E9.58023
G1 X178.338 Y168.153 E9.58275
G1 X176.134 Y169.743 E9.61678
G1 X176.015 Y169.803 E9.61845
G1 X173.411 Y170.648 E9.65271
G1 X171.900 Y170.777 E9.67170
G1 X78.100 Y170.777 E10.84584
G1 X76.591 Y170.648 E10.86479
G1 X73.972 Y169.797 E10.89927
G1 X73.853 Y169.736 E10.90094
G1 X71.637 Y168.129 E10.93520
G1 X71.534 Y168.026 E10.93702
G1 X69.914 Y165.797 E10.97152
G1 X69.854 Y165.678 E10.97319
G1 X69.003 Y163.059 E11.00766
G1 X68.874 Y161.551 E11.02660
G1 X68.898 Y151.902 E11.14739
G1 X71.296 Y120.263 E11.54456
G1 X71.356 Y119.949 E11.54857
G1 X71.691 Y118.563 E11.56641
G1 X72.295 Y116.927 E11.58825
G1 X72.432 Y116.637 E11.59226
G1 X73.101 Y115.379 E11.61009
G1 X74.094 Y113.944 E11.63194
G1 X75.060 Y112.837 E11.65032
G1 X93.903 Y93.995 E11.98389
G1 X94.228 Y94.236 F12000.000
G1 X155.762 Y32.720 E13.07302 F600.000
G1 X156.814 Y31.823 E13.09033
G1 X158.220 Y30.884 E13.11148
G1 X158.501 Y30.730 E13.11550
G1 X159.743 Y30.123 E13.13280
G1 X161.325 Y29.568 E13.15379
G1 X161.635 Y29.488 E13.15780
G1 X162.996 Y29.207 E13.17519
G1 X163.314 Y29.167 E13.17920
G1 X164.680 Y29.061 E13.19636
G1 X166.368 Y29.127 E13.21750
G1 X166.686 Y29.167 E13.22152 F600.000
G1 X168.055 Y29.408 E13.23891
G1 X169.661 Y29.888 E13.25990
G1 X169.959 Y30.006 E13.26391
G1 X171.218 Y30.575 E13.28120
G1 X172.667 Y31.447 E13.30237
G1 X172.926 Y31.635 E13.30638
G1 X174.004 Y32.501 E13.32369
G1 X175.189 Y33.704 E13.34483
G1 X176.220 Y35.055 E13.36610
G1 X177.069 Y36.517 E13.38726
G1 X177.730 Y38.077 E13.40847
G1 X177.829 Y38.382 E13.41248
G1 X178.191 Y39.709 E13.42970
G1 X178.251 Y40.023 E13.43371
G1 X178.443 Y41.387 E13.45095
G1 X178.498 Y42.381 E13.46341
G1 X180.726 Y152.551 E14.84274
G1 X180.639 Y162.755 E14.97047
G1 X180.604 Y162.984 E14.97337
G1 X179.779 Y165.519 E15.00674
G1 X179.718 Y165.638 E15.00841
G1 X178.197 Y167.728 E15.04077
G1 X178.057 Y167.869 E15.04326
G1 X175.953 Y169.386 E15.07573
G1 X175.834 Y169.447 E15.07741
G1 X173.348 Y170.253 E15.11011
G1 X171.900 Y170.377 E15.12831
G1 X78.100 Y170.377 E16.30245
G1 X76.654 Y170.253 E16.32061
G1 X74.154 Y169.441 E16.35352
G1 X74.035 Y169.380 E16.35519
G1 X71.920 Y167.846 E16.38790
G1 X71.817 Y167.743 E16.38972
G1 X70.271 Y165.615 E16.42264
G1 X70.210 Y165.497 E16.42431
G1 X69.398 Y162.996 E16.45722
G1 X69.274 Y161.551 E16.47538
G1 X69.296 Y151.931 E16.59579
G1 X71.689 Y120.338 E16.99239
G1 X71.749 Y120.024 E16.99640
G1 X72.071 Y118.687 E17.01361
G1 X72.657 Y117.097 E17.03482
G1 X72.794 Y116.807 E17.03883
G1 X73.438 Y115.593 E17.05604
G1 X74.402 Y114.199 E17.07725
G1 X75.342 Y113.120 E17.09517
G1 X94.186 Y94.278 E17.42873
G1 F1800.000 E16.42873
G1 Z0.250 F12000.000
G92 E0
G1 X171.326 Y160.977 F12000.000
G1 Z0.200 F12000.000
G1 E1.00000 F1800.000
G1 X169.718 Y160.977 E1.02014 F600.000
G1 X169.790 Y160.755 E1.02306
G1 X169.904 Y160.157 E1.03068
G1 X169.943 Y159.551 E1.03828
G1 X169.910 Y159.051 E1.04456
G1 X169.943 Y158.551 E1.05083
G1 X169.910 Y158.051 E1.05710
G1 X169.943 Y157.551 E1.06337
G1 X169.904 Y156.945 E1.07097
G1 X169.790 Y156.347 E1.07860
G1 X169.603 Y155.771 E1.08618
G1 X169.378 Y155.292 E1.09280
G1 X169.017 Y154.704 E1.10143
G1 X168.630 Y154.238 E1.10902
G1 X168.186 Y153.820 E1.11665
G1 X167.696 Y153.463 E1.12424
G1 X167.517 Y153.365 E1.12679
G1 X167.579 Y153.125 E1.12990
G1 X171.326 Y153.125 E1.17681
G1 X171.326 Y160.917 E1.27435
G1 F1800.000 E0.27435
G1 Z0.250 F12000.000
G92 E0
G1 X162.574 Y153.125 F12000.000
G1 Z0.200 F12000.000
G1 E1.00000 F1800.000
G1 X162.574 Y149.125 E1.05007 F600.000
G1 X167.426 Y149.125 E1.11081
G1 X167.426 Y153.315 E1.16326
G1 X167.160 Y153.169 E1.16705
G1 X166.596 Y152.946 E1.17464
G1 X166.007 Y152.795 E1.18225
G1 X165.404 Y152.719 E1.18987
G1 X164.796 Y152.719 E1.19748
G1 X164.192 Y152.795 E1.20509
G1 X163.603 Y152.946 E1.21270
G1 X162.966 Y153.209 E1.22133
G1 X162.504 Y153.463 E1.22794
G1 X162.013 Y153.820 E1.23553
G1 X161.570 Y154.238 E1.24316
G1 X161.183 Y154.704 E1.25075
G1 X160.899 Y155.150 E1.25736
G1 X160.597 Y155.771 E1.26600
G1 X160.410 Y156.347 E1.27358
G1 X160.296 Y156.945 E1.28120
G1 X160.257 Y157.551 E1.28881
G1 X160.289 Y158.051 E1.29508
G1 X160.257 Y158.551 E1.30135
G1 X160.289 Y159.051 E1.30762
G1 X160.257 Y159.551 E1.31389
G1 X160.296 Y160.157 E1.32150
G1 X160.410 Y160.755 E1.32912
G1 X160.482 Y160.977 E1.33204
G1 X158.674 Y160.977 E1.35468
G1 X158.674 Y153.125 E1.45298
G1 X162.514 Y153.125 E1.50104
G1 X162.174 Y152.725 F12000.000
G1 X162.174 Y148.725 E1.55111 F600.000
G1 X167.826 Y148.725 E1.62187
G1 X167.826 Y152.725 E1.67194
G1 X171.726 Y152.725 E1.72076
G1 X171.726 Y161.377 E1.82907
G1 X169.168 Y161.377 E1.86108
G1 X169.402 Y160.656 E1.87058
G1 X169.506 Y160.107 E1.87757
G1 X169.542 Y159.551 E1.88454
G1 X169.510 Y159.051 E1.89081
G1 X169.542 Y158.551 E1.89709
G1 X169.510 Y158.051 E1.90336
G1 X169.542 Y157.551 E1.90963
G1 X169.506 Y156.995 E1.91661
G1 X169.402 Y156.447 E1.92359
G1 X169.230 Y155.917 E1.93056
G1 X168.992 Y155.412 E1.93755
G1 X168.693 Y154.940 E1.94454
G1 X168.338 Y154.511 E1.95151
G1 X167.841 Y154.063 E1.95989
G1 X167.480 Y153.802 E1.96546
G1 X166.990 Y153.532 E1.97247
G1 X166.473 Y153.327 E1.97943
G1 X165.932 Y153.188 E1.98642
G1 X165.379 Y153.119 E1.99340
G1 X164.821 Y153.119 E2.00038
G1 X164.268 Y153.188 E2.00736
G1 X163.727 Y153.327 E2.01435
G1 X163.158 Y153.560 E2.02204
G1 X162.719 Y153.802 E2.02832
G1 X162.269 Y154.129 E2.03529
G1 X161.862 Y154.511 E2.04227
G1 X161.507 Y154.940 E2.04924
G1 X161.208 Y155.412 E2.05623
G1 X160.970 Y155.917 E2.06323
G1 X160.798 Y156.447 E2.07019
G1 X160.694 Y156.995 E2.07718
G1 X160.658 Y157.551 E2.08416
G1 X160.690 Y158.051 E2.09043
G1 X160.658 Y158.551 E2.09670
G1 X160.690 Y159.051 E2.10297
G1 X160.658 Y159.551 E2.10924
G1 X160.694 Y160.107 E2.11622
G1 X160.798 Y160.656 E2.12321
G1 X161.031 Y161.377 E2.13270
G1 X158.274 Y161.377 E2.16723
G1 X158.274 Y152.725 E2.27553
G1 X162.114 Y152.725 E2.32360
G1 X161.774 Y152.325 F12000.000
G1 X161.774 Y148.566 E2.37065 F600.000
G1 X161.787 Y148.482 E2.37172
G1 X161.868 Y148.370 E2.37345
G1 X162.016 Y148.325 E2.37538
G1 X167.984 Y148.325 E2.45009
G1 X168.132 Y148.370 E2.45202
G1 X168.213 Y148.482 E2.45375
G1 X168.226 Y148.566 E2.45482
G1 X168.226 Y152.325 E2.50187
G1 X171.884 Y152.325 E2.54766
G1 X172.032 Y152.370 E2.54959
G1 X172.113 Y152.482 E2.55132
G1 X172.126 Y152.566 E2.55239
G1 X172.126 Y161.536 E2.66466
G1 X172.113 Y161.620 E2.66573
G1 X172.032 Y161.732 E2.66746
G1 X171.884 Y161.777 E2.66940
G1 X168.463 Y161.777 E2.71221
G1 X168.641 Y161.498 E2.71636
G1 X168.857 Y161.038 E2.72271
G1 X169.013 Y160.556 E2.72906
G1 X169.109 Y160.057 E2.73541
G1 X169.141 Y159.551 E2.74176
G1 X169.109 Y159.051 E2.74804
G1 X169.141 Y158.551 E2.75431
G1 X169.109 Y158.051 E2.76058
G1 X169.141 Y157.551 E2.76685
G1 X169.109 Y157.045 E2.77320
G1 X169.013 Y156.546 E2.77955
G1 X168.857 Y156.064 E2.78590
G1 X168.641 Y155.605 E2.79225
G1 X168.369 Y155.176 E2.79861
G1 X168.045 Y154.785 E2.80496
G1 X167.606 Y154.387 E2.81238
G1 X167.265 Y154.140 E2.81765
G1 X166.820 Y153.895 E2.82401
G1 X166.349 Y153.708 E2.83036
G1 X165.857 Y153.582 E2.83671
G1 X165.354 Y153.519 E2.84306
G1 X164.813 Y153.523 E2.84983
G1 X164.343 Y153.582 E2.85576
G1 X163.851 Y153.708 E2.86212
G1 X163.380 Y153.895 E2.86846
G1 X162.935 Y154.140 E2.87482
G1 X162.461 Y154.497 E2.88224
G1 X162.155 Y154.785 E2.88751
G1 X161.831 Y155.176 E2.89387
G1 X161.559 Y155.605 E2.90022
G1 X161.343 Y156.064 E2.90657
G1 X161.186 Y156.546 E2.91292
G1 X161.091 Y157.045 E2.91927
G1 X161.059 Y157.551 E2.92562
G1 X161.091 Y158.051 E2.93190
G1 X161.059 Y158.551 E2.93817
G1 X161.091 Y159.051 E2.94444
G1 X161.059 Y159.551 E2.95071
G1 X161.091 Y160.057 E2.95706
G1 X161.186 Y160.556 E2.96341
G1 X161.343 Y161.038 E2.96976
G1 X161.559 Y161.498 E2.97612
G1 X161.736 Y161.777 E2.98026
G1 X158.116 Y161.777 E3.02558
G1 X157.968 Y161.732 E3.02751
G1 X157.887 Y161.620 E3.02924
G1 X157.874 Y161.535 E3.03032
G1 X157.874 Y152.567 E3.14258
G1 X157.887 Y152.482 E3.14366
G1 X157.968 Y152.370 E3.14539
G1 X158.116 Y152.325 E3.14732
G1 X161.714 Y152.325 E3.19236
G1 X162.174 Y152.325 F12000.000
G1 X162.895 Y152.841 F12000.000
G1 X162.930 Y152.876 E3.19311 F600.000
G1 X163.417 Y152.675 E3.20099
G1 X162.895 Y152.153 E3.21204
G1 X162.895 Y151.466 E3.22234
G1 X163.953 Y152.524 E3.24476
G1 X164.543 Y152.427 E3.25371
G1 X162.895 Y150.778 E3.28863
G1 X162.895 Y150.090 E3.29893
G1 X165.202 Y152.397 E3.34778
G1 X165.957 Y152.464 E3.35913
G1 X162.939 Y149.446 E3.42305
G1 X163.626 Y149.446 E3.43335
G1 X166.901 Y152.721 E3.50271
G1 X167.105 Y152.237 E3.51057
G1 X164.314 Y149.446 E3.56967
G1 X165.002 Y149.446 E3.57997
G1 X167.105 Y151.549 E3.62451
G1 X167.105 Y150.862 E3.63481
G1 X165.689 Y149.446 E3.66479
G1 X166.377 Y149.446 E3.67509
G1 X167.105 Y150.174 E3.69050
G1 X167.105 Y149.486 E3.70080
G1 X167.065 Y149.446 E3.70164
G1 X168.784 Y153.446 F12000.000
G1 X171.005 Y155.667 E3.74867 F600.000
G1 X171.005 Y154.940 E3.75955
G1 X169.511 Y153.446 E3.79118
G1 X170.238 Y153.446 E3.80207
G1 X171.005 Y154.213 E3.81831
G1 X171.005 Y153.486 E3.82919
G1 X170.965 Y153.446 E3.83004
G1 X169.519 Y154.908 F12000.000
G1 X171.005 Y156.393 E3.86150 F600.000
G1 X171.005 Y157.120 E3.87239
G1 X170.078 Y156.193 E3.89202
G1 X170.234 Y157.076 E3.90546
G1 X171.005 Y157.847 E3.92177
G1 X171.005 Y158.574 E3.93266
G1 X170.248 Y157.817 E3.94869
G1 X170.264 Y158.560 E3.95983
G1 X171.005 Y159.301 E3.97551
G1 X171.005 Y160.027 E3.98639
G1 X170.247 Y159.269 E4.00245
G1 X170.237 Y159.986 E4.01319
G1 X170.907 Y160.656 E4.02738
G1 X170.180 Y160.656 E4.03826
G1 X170.143 Y160.619 E4.03905
G1 F1800.000 E3.03905
G1 Z0.250 F12000.000
G92 E0
G1 X161.782 Y153.446 F12000.000
G1 Z0.200 F12000.000
G1 E1.00000 F1800.000
G1 X161.833 Y153.497 E1.00108 F600.000
G1 X161.493 Y153.868 E1.00862
G1 X161.071 Y153.446 E1.01756
G1 X160.360 Y153.446 E1.02821
G1 X161.152 Y154.238 E1.04499
G1 X160.843 Y154.640 E1.05258
G1 X159.648 Y153.446 E1.07788
G1 X158.995 Y153.504 E1.08770
G1 X160.574 Y155.084 E1.12115
G1 X160.341 Y155.562 E1.12912
G1 X158.995 Y154.215 E1.15763
G1 X158.995 Y154.926 E1.16828
G1 X160.156 Y156.088 E1.19288
G1 X160.022 Y156.665 E1.20175
G1 X158.995 Y155.638 E1.22351
G1 X158.995 Y156.349 E1.23416
G1 X159.951 Y157.305 E1.25440
G1 X159.966 Y158.031 E1.26528
G1 X158.995 Y157.060 E1.28585
G1 X158.995 Y157.771 E1.29650
G1 X159.946 Y158.722 E1.31664
G1 X159.943 Y159.430 E1.32724
G1 X158.995 Y158.482 E1.34731
G1 X158.995 Y159.194 E1.35796
G1 X159.975 Y160.174 E1.37872
G1 X159.746 Y160.656 E1.38671
G1 X158.995 Y159.905 E1.40262
G1 X158.995 Y160.616 E1.41327
G1 X159.035 Y160.656 E1.41412
G1 F1800.000 E0.41412
G1 Z0.250 F12000.000
G92 E0
G1 X151.326 Y153.125 F12000.000
G1 Z0.200 F12000.000
G1 E1.00000 F1800.000
G1 X151.326 Y160.977 E1.09830 F600.000
G1 X149.718 Y160.977 E1.11843
G1 X149.790 Y160.755 E1.12135
G1 X149.904 Y160.158 E1.12896
G1 X149.942 Y159.551 E1.13657
G1 X149.911 Y159.051 E1.14285
G1 X149.942 Y158.551 E1.14912
G1 X149.911 Y158.051 E1.15539
G1 X149.942 Y157.551 E1.16166
G1 X149.904 Y156.944 E1.16927
G1 X149.790 Y156.347 E1.17688
G1 X149.602 Y155.768 E1.18450
G1 X149.343 Y155.218 E1.19210
G1 X149.017 Y154.705 E1.19972
G1 X148.629 Y154.236 E1.20733
G1 X148.186 Y153.820 E1.21494
G1 X147.695 Y153.463 E1.22255
G1 X147.517 Y153.365 E1.22509
G1 X147.579 Y153.125 E1.22819
G1 X151.266 Y153.125 E1.27435
G1 F1800.000 E0.27435
G1 Z0.250 F12000.000
G92 E0
G1 X142.574 Y153.125 F12000.000
G1 Z0.200 F12000.000
G1 E1.00000 F1800.000
G1 X142.574 Y149.125 E1.05007 F600.000
G1 X147.426 Y149.125 E1.11081
G1 X147.426 Y153.315 E1.16327
G1 X147.162 Y153.170 E1.16705
G1 X146.596 Y152.946 E1.17466
G1 X146.007 Y152.795 E1.18227
G1 X145.404 Y152.719 E1.18988
G1 X144.796 Y152.719 E1.19749
G1 X144.192 Y152.795 E1.20511
G1 X143.604 Y152.946 E1.21272
G1 X143.477 Y152.996 E1.21443
G1 X143.038 Y153.170 E1.22033
G1 X142.505 Y153.463 E1.22794
G1 X142.013 Y153.820 E1.23555
G1 X141.570 Y154.236 E1.24316
G1 X141.182 Y154.705 E1.25078
G1 X140.857 Y155.218 E1.25839
G1 X140.598 Y155.768 E1.26599
G1 X140.452 Y156.217 E1.27190
G1 X140.410 Y156.347 E1.27361
G1 X140.296 Y156.944 E1.28122
G1 X140.258 Y157.551 E1.28883
G1 X140.289 Y158.051 E1.29511
G1 X140.258 Y158.551 E1.30138
G1 X140.289 Y159.051 E1.30765
G1 X140.258 Y159.551 E1.31392
G1 X140.296 Y160.158 E1.32153
G1 X140.410 Y160.755 E1.32914
G1 X140.482 Y160.977 E1.33207
G1 X138.674 Y160.977 E1.35470
G1 X138.674 Y153.125 E1.45300
G1 X142.514 Y153.125 E1.50106
G1 X142.174 Y152.725 F12000.000
G1 X142.174 Y148.725 E1.55113 F600.000
