; generated by Slic3r 1.1.7 on 2015-04-04 at 15:00:36

; perimeters extrusion width = 0.40mm
; infill extrusion width = 0.67mm
; solid infill extrusion width = 0.50mm
; top infill extrusion width = 0.30mm

G21 ; set units to millimeters
M107
M190 S70 ; wait for bed temperature to be reached
M104 S240 ; set temperature
G28 ; home all axes
M109 S240 ; wait for temperature to be reached
G90 ; use absolute coordinates
G92 E0
M82 ; use absolute distances for extrusion
M204 S500
G1 F1800.000 E-1.00000
G1 Z0.250 F12000.000
G92 E0
G1 X112.763 Y70.165 F12000.000
G1 Z0.200 F12000.000
G1 E1.00000 F1800.000
G1 X112.934 Y69.894 E1.00386 F600.000
G1 X113.785 Y68.689 E1.02162
G1 X113.989 Y68.442 E1.02548
G1 X114.985 Y67.353 E1.04325
G1 X116.341 Y66.179 E1.06486
G1 X116.600 Y65.991 E1.06871
G1 X117.836 Y65.183 E1.08649
G1 X119.441 Y64.383 E1.10810
G1 X119.739 Y64.265 E1.11195
G1 X121.136 Y63.790 E1.12972
G1 X122.892 Y63.414 E1.15135
G1 X123.210 Y63.374 E1.15521
G1 X124.680 Y63.261 E1.17296
G1 X126.472 Y63.334 E1.19456
G1 X126.790 Y63.374 E1.19842 F600.000
G1 X128.244 Y63.631 E1.21620
G1 X129.963 Y64.147 E1.23782
G1 X130.261 Y64.265 E1.24168
G1 X131.603 Y64.874 E1.25943
G1 X133.141 Y65.802 E1.28105
G1 X133.400 Y65.991 E1.28491
G1 X134.549 Y66.915 E1.30268
G1 X135.806 Y68.195 E1.32428
G1 X136.894 Y69.624 E1.34591
G1 X137.065 Y69.894 E1.34976
G1 X137.794 Y71.177 E1.36753
G1 X138.492 Y72.831 E1.38915
G1 X138.591 Y73.136 E1.39300
G1 X138.977 Y74.559 E1.41077
G1 X139.037 Y74.874 E1.41462
G1 X139.242 Y76.334 E1.43239
G1 X141.526 Y117.551 E1.92952
G1 X141.526 Y126.551 E2.03791
G1 X141.392 Y128.121 E2.05688
G1 X140.503 Y130.860 E2.09156
G1 X140.442 Y130.979 E2.09317
G1 X138.748 Y133.309 E2.12786
G1 X138.640 Y133.418 E2.12971
G1 X136.329 Y135.092 E2.16407
G1 X136.210 Y135.153 E2.16569
G1 X133.471 Y136.043 E2.20037
G1 X131.900 Y136.177 E2.21936
G1 X118.100 Y136.177 E2.38555
G1 X116.529 Y136.043 E2.40454
G1 X113.792 Y135.154 E2.43920
G1 X113.671 Y135.092 E2.44084
G1 X111.352 Y133.409 E2.47534
G1 X111.249 Y133.307 E2.47709
G1 X109.558 Y130.978 E2.51175
G1 X109.497 Y130.860 E2.51335
G1 X108.608 Y128.123 E2.54801
G1 X108.474 Y126.551 E2.56700
G1 X108.488 Y117.040 E2.68155
G1 X110.718 Y76.973 E3.16481
G1 X110.903 Y75.188 E3.18643
G1 X111.311 Y73.440 E3.20804
G1 X111.934 Y71.756 E3.22966
G1 X112.735 Y70.218 E3.25055
G1 X113.101 Y70.379 F12000.000
G1 X113.272 Y70.109 E3.25441 F600.000
G1 X114.093 Y68.944 E3.27157
G1 X114.298 Y68.697 E3.27543
G1 X115.258 Y67.645 E3.29259
G1 X116.576 Y66.503 E3.31359
G1 X116.835 Y66.314 E3.31745
G1 X118.028 Y65.533 E3.33462
G1 X119.589 Y64.755 E3.35562
G1 X119.887 Y64.637 E3.35948
G1 X121.235 Y64.177 E3.37664
G1 X122.942 Y63.811 E3.39766
G1 X123.260 Y63.771 E3.40152
G1 X124.680 Y63.661 E3.41867
G1 X126.422 Y63.730 E3.43967
G1 X126.740 Y63.771 E3.44353 F600.000
G1 X128.144 Y64.018 E3.46070
G1 X129.816 Y64.519 E3.48171
G1 X130.114 Y64.637 E3.48557
G1 X131.410 Y65.225 E3.50272
G1 X132.905 Y66.126 E3.52374
G1 X133.165 Y66.314 E3.52760
G1 X134.275 Y67.207 E3.54476
G1 X135.498 Y68.450 E3.56576
G1 X136.556 Y69.838 E3.58678
G1 X136.728 Y70.109 E3.59064
G1 X137.432 Y71.347 E3.60779
G1 X138.111 Y72.954 E3.62881
G1 X138.210 Y73.259 E3.63267
G1 X138.584 Y74.634 E3.64982
G1 X138.644 Y74.948 E3.65368
G1 X138.842 Y76.360 E3.67084
G1 X141.126 Y117.551 E4.16767
G1 X141.126 Y126.551 E4.27605
G1 X140.997 Y128.058 E4.29427
G1 X140.146 Y130.678 E4.32745
G1 X140.086 Y130.797 E4.32905
G1 X138.466 Y133.026 E4.36224
G1 X138.358 Y133.134 E4.36408
G1 X136.148 Y134.736 E4.39695
G1 X136.028 Y134.797 E4.39856
G1 X133.408 Y135.648 E4.43174
G1 X131.900 Y135.777 E4.44997
G1 X118.100 Y135.777 E4.61616
G1 X116.724 Y135.669 E4.63278
G1 X116.592 Y135.648 E4.63439
G1 X113.973 Y134.797 E4.66755
G1 X113.852 Y134.736 E4.66919
G1 X111.635 Y133.126 E4.70219
G1 X111.532 Y133.024 E4.70393
G1 X109.914 Y130.797 E4.73708
G1 X109.854 Y130.678 E4.73869
G1 X109.003 Y128.060 E4.77184
G1 X108.874 Y126.551 E4.79008
G1 X108.887 Y117.062 E4.90435
G1 X111.117 Y76.998 E5.38758
G1 X111.296 Y75.263 E5.40859
G1 X111.691 Y73.563 E5.42960
G1 X112.296 Y71.927 E5.45062
G1 X113.073 Y70.432 E5.47090
G1 X113.438 Y70.594 F12000.000
G1 X113.610 Y70.323 E5.47476 F600.000
G1 X114.402 Y69.199 E5.49132
G1 X114.606 Y68.952 E5.49517
G1 X115.532 Y67.936 E5.51173
G1 X116.811 Y66.826 E5.53213
G1 X117.070 Y66.638 E5.53599
G1 X118.221 Y65.884 E5.55255
G1 X119.736 Y65.127 E5.57295
G1 X120.034 Y65.009 E5.57681
G1 X121.335 Y64.565 E5.59336
G1 X122.992 Y64.208 E5.61378
G1 X123.310 Y64.167 E5.61764
G1 X124.680 Y64.061 E5.63418
G1 X126.372 Y64.127 E5.65458
G1 X126.690 Y64.167 E5.65844 F600.000
G1 X128.045 Y64.405 E5.67500
G1 X129.668 Y64.891 E5.69541
G1 X129.966 Y65.009 E5.69927
G1 X131.218 Y65.575 E5.71581
G1 X132.670 Y66.449 E5.73623
G1 X132.930 Y66.638 E5.74009
G1 X134.001 Y67.498 E5.75664
G1 X135.190 Y68.705 E5.77704
G1 X136.218 Y70.052 E5.79745
G1 X136.390 Y70.323 E5.80131
G1 X137.070 Y71.518 E5.81786
G1 X137.731 Y73.078 E5.83827
G1 X137.830 Y73.383 E5.84213
G1 X138.191 Y74.709 E5.85868
G1 X138.251 Y75.023 E5.86254
G1 X138.443 Y76.385 E5.87910
G1 X140.726 Y117.551 E6.37562
G1 X140.726 Y126.551 E6.48401
G1 X140.602 Y127.996 E6.50147
G1 X139.790 Y130.497 E6.53314
G1 X139.729 Y130.616 E6.53474
G1 X138.183 Y132.743 E6.56642
G1 X138.075 Y132.850 E6.56825
G1 X135.966 Y134.379 E6.59962
G1 X135.846 Y134.440 E6.60124
G1 X133.346 Y135.253 E6.63290
G1 X131.900 Y135.377 E6.65038
G1 X118.100 Y135.377 E6.81657
G1 X116.786 Y135.274 E6.83244
G1 X116.654 Y135.253 E6.83405
G1 X114.155 Y134.441 E6.86570
G1 X114.034 Y134.379 E6.86733
G1 X111.917 Y132.843 E6.89883
G1 X111.815 Y132.741 E6.90057
G1 X110.271 Y130.615 E6.93222
G1 X110.210 Y130.496 E6.93382
G1 X109.398 Y127.997 E6.96547
G1 X109.274 Y126.551 E6.98295
G1 X109.287 Y117.084 E7.09696
G1 X111.517 Y77.024 E7.58015
G1 X111.689 Y75.338 E7.60056
G1 X112.071 Y73.687 E7.62096
G1 X112.658 Y72.097 E7.64137
G1 X113.411 Y70.647 E7.66105
G1 F1800.000 E6.66105
G1 Z0.250 F12000.000
G92 E0
G1 X131.326 Y125.977 F12000.000
G1 Z0.200 F12000.000
G1 E1.00000 F1800.000
G1 X129.718 Y125.977 E1.01937 F600.000
G1 X129.790 Y125.755 E1.02218
G1 X129.904 Y125.158 E1.02951
G1 X129.942 Y124.551 E1.03683
G1 X129.911 Y124.051 E1.04286
G1 X129.942 Y123.551 E1.04889
G1 X129.911 Y123.051 E1.05493
G1 X129.942 Y122.551 E1.06096
G1 X129.904 Y121.944 E1.06828
G1 X129.790 Y121.347 E1.07561
G1 X129.602 Y120.768 E1.08293
G1 X129.343 Y120.219 E1.09025
G1 X129.017 Y119.705 E1.09758
G1 X128.630 Y119.236 E1.10490
G1 X128.187 Y118.820 E1.11222
G1 X127.695 Y118.463 E1.11955
G1 X127.517 Y118.365 E1.12198
G1 X127.579 Y118.125 E1.12497
G1 X131.326 Y118.125 E1.17010
G1 X131.326 Y125.917 E1.26395
G1 F1800.000 E0.26395
G1 Z0.250 F12000.000
G92 E0
G1 X122.574 Y118.125 F12000.000
G1 Z0.200 F12000.000
G1 E1.00000 F1800.000
G1 X122.574 Y114.125 E1.04817 F600.000
G1 X127.426 Y114.125 E1.10661
G1 X127.426 Y118.315 E1.15708
G1 X127.162 Y118.170 E1.16071
G1 X126.596 Y117.946 E1.16804
G1 X126.007 Y117.795 E1.17536
G1 X125.404 Y117.718 E1.18268
G1 X124.796 Y117.718 E1.19001
G1 X124.193 Y117.795 E1.19733
G1 X123.604 Y117.946 E1.20465
G1 X123.038 Y118.170 E1.21197
G1 X122.505 Y118.463 E1.21930
G1 X122.013 Y118.820 E1.22662
G1 X121.570 Y119.236 E1.23394
G1 X121.183 Y119.705 E1.24127
G1 X120.857 Y120.218 E1.24859
G1 X120.598 Y120.769 E1.25591
G1 X120.410 Y121.347 E1.26324
G1 X120.296 Y121.944 E1.27056
G1 X120.258 Y122.551 E1.27788
G1 X120.289 Y123.051 E1.28392
G1 X120.258 Y123.551 E1.28995
G1 X120.289 Y124.051 E1.29598
G1 X120.258 Y124.551 E1.30202
G1 X120.296 Y125.158 E1.30934
G1 X120.410 Y125.755 E1.31666
G1 X120.482 Y125.977 E1.31947
G1 X118.674 Y125.977 E1.34125
G1 X118.674 Y118.125 E1.43582
G1 X122.514 Y118.125 E1.48207
G1 X122.174 Y117.725 F12000.000
G1 X122.174 Y113.725 E1.53024 F600.000
G1 X127.826 Y113.725 E1.59831
G1 X127.826 Y117.725 E1.64648
G1 X131.726 Y117.725 E1.69345
G1 X131.726 Y126.377 E1.79765
G1 X129.167 Y126.377 E1.82847
G1 X129.402 Y125.656 E1.83761
G1 X129.506 Y125.108 E1.84433
G1 X129.541 Y124.551 E1.85105
G1 X129.503 Y123.936 E1.85847
G1 X129.517 Y123.936 E1.85865
G1 X129.541 Y123.551 E1.86329
G1 X129.503 Y122.936 E1.87071
G1 X129.517 Y122.936 E1.87089
G1 X129.541 Y122.551 E1.87553
G1 X129.506 Y121.995 E1.88224
G1 X129.402 Y121.447 E1.88896
G1 X129.229 Y120.916 E1.89568
G1 X128.992 Y120.412 E1.90240
G1 X128.693 Y119.941 E1.90911
G1 X128.338 Y119.511 E1.91583
G1 X127.931 Y119.129 E1.92255
G1 X127.480 Y118.801 E1.92926
G1 X126.991 Y118.532 E1.93598
G1 X126.472 Y118.327 E1.94270
G1 X125.932 Y118.188 E1.94942
G1 X125.379 Y118.118 E1.95613
G1 X124.821 Y118.118 E1.96285
G1 X124.160 Y118.216 E1.97090
G1 X123.728 Y118.327 E1.97627
G1 X123.209 Y118.532 E1.98299
G1 X122.720 Y118.801 E1.98971
G1 X122.269 Y119.129 E1.99643
G1 X121.862 Y119.511 E2.00314
G1 X121.507 Y119.941 E2.00986
G1 X121.208 Y120.411 E2.01658
G1 X120.970 Y120.916 E2.02329
G1 X120.798 Y121.447 E2.03001
G1 X120.694 Y121.994 E2.03673
G1 X120.659 Y122.551 E2.04344
G1 X120.690 Y123.051 E2.04948
G1 X120.659 Y123.551 E2.05551
G1 X120.690 Y124.051 E2.06154
G1 X120.659 Y124.551 E2.06758
G1 X120.694 Y125.108 E2.07430
G1 X120.798 Y125.656 E2.08101
G1 X121.033 Y126.377 E2.09015
G1 X118.274 Y126.377 E2.12338
G1 X118.274 Y117.725 E2.22758
G1 X122.114 Y117.725 E2.27382
G1 X121.774 Y117.325 F12000.000
G1 X121.774 Y113.567 E2.31908 F600.000
G1 X121.787 Y113.482 E2.32012
G1 X121.868 Y113.370 E2.32178
G1 X122.016 Y113.325 E2.32364
G1 X127.984 Y113.325 E2.39552
G1 X128.132 Y113.370 E2.39737
G1 X128.213 Y113.482 E2.39904
G1 X128.226 Y113.567 E2.40007
G1 X128.226 Y117.325 E2.44533
G1 X131.884 Y117.325 E2.48938
G1 X132.032 Y117.370 E2.49124
G1 X132.113 Y117.482 E2.49290
G1 X132.126 Y117.567 E2.49394
G1 X132.126 Y126.535 E2.60195
G1 X132.081 Y126.683 E2.60380
G1 X131.969 Y126.764 E2.60547
G1 X131.884 Y126.777 E2.60650
G1 X128.463 Y126.777 E2.64770
G1 X128.641 Y126.498 E2.65169
G1 X128.857 Y126.039 E2.65780
G1 X129.014 Y125.556 E2.66391
G1 X129.109 Y125.057 E2.67002
G1 X129.141 Y124.551 E2.67613
G1 X129.109 Y124.051 E2.68217
G1 X129.141 Y123.551 E2.68820
G1 X129.109 Y123.051 E2.69423
G1 X129.141 Y122.551 E2.70027
G1 X129.109 Y122.045 E2.70638
G1 X129.014 Y121.546 E2.71249
G1 X128.857 Y121.064 E2.71860
G1 X128.641 Y120.605 E2.72471
G1 X128.369 Y120.176 E2.73082
G1 X128.045 Y119.785 E2.73693
G1 X127.676 Y119.438 E2.74304
G1 X127.265 Y119.140 E2.74915
G1 X126.820 Y118.895 E2.75526
G1 X126.349 Y118.708 E2.76138
G1 X125.857 Y118.582 E2.76749
G1 X125.354 Y118.518 E2.77360
G1 X124.846 Y118.518 E2.77971
G1 X124.259 Y118.604 E2.78685
G1 X123.851 Y118.708 E2.79192
G1 X123.380 Y118.895 E2.79803
G1 X122.935 Y119.140 E2.80414
G1 X122.524 Y119.438 E2.81025
G1 X122.133 Y119.811 E2.81676
G1 X121.831 Y120.176 E2.82247
G1 X121.559 Y120.605 E2.82858
G1 X121.343 Y121.064 E2.83470
G1 X121.186 Y121.546 E2.84081
G1 X121.091 Y122.045 E2.84692
G1 X121.059 Y122.551 E2.85303
G1 X121.091 Y123.051 E2.85906
G1 X121.059 Y123.551 E2.86509
G1 X121.091 Y124.051 E2.87113
G1 X121.059 Y124.551 E2.87716
G1 X121.091 Y125.058 E2.88327
G1 X121.186 Y125.556 E2.88938
G1 X121.343 Y126.039 E2.89549
G1 X121.559 Y126.498 E2.90160
G1 X121.737 Y126.777 E2.90559
G1 X118.116 Y126.777 E2.94920
G1 X117.968 Y126.732 E2.95106
G1 X117.887 Y126.620 E2.95272
G1 X117.874 Y126.535 E2.95376
G1 X117.874 Y117.567 E3.06177
G1 X117.887 Y117.482 E3.06280
G1 X117.968 Y117.370 E3.06447
G1 X118.116 Y117.325 E3.06632
G1 X121.714 Y117.325 E3.10965
G1 X122.174 Y117.325 F12000.000
G1 F1800.000 E2.10965
G1 Z0.250 F12000.000
G92 E0
G1 X128.785 Y118.446 F12000.000
G1 Z0.200 F12000.000
G1 E1.00000 F1800.000
G1 X131.005 Y120.666 E1.04524 F600.000
G1 X131.005 Y119.940 E1.05571
G1 X129.511 Y118.446 E1.08614
G1 X130.238 Y118.446 E1.09661
G1 X131.005 Y119.213 E1.11224
G1 X131.005 Y118.486 E1.12271
G1 X130.965 Y118.446 E1.12352
G1 X129.539 Y119.928 F12000.000
G1 X131.005 Y121.393 E1.15339 F600.000
G1 X131.005 Y122.120 E1.16386
G1 X130.078 Y121.193 E1.18274
G1 X130.234 Y122.076 E1.19567
G1 X131.005 Y122.847 E1.21137
G1 X131.005 Y123.574 E1.22184
G1 X130.247 Y122.816 E1.23727
G1 X130.264 Y123.559 E1.24798
G1 X131.005 Y124.300 E1.26308
G1 X131.005 Y125.027 E1.27355
G1 X130.246 Y124.269 E1.28901
G1 X130.237 Y124.986 E1.29934
G1 X130.907 Y125.656 E1.31300
G1 X130.180 Y125.656 E1.32347
G1 X130.143 Y125.619 E1.32423
G1 F1800.000 E0.32423
G1 Z0.250 F12000.000
G92 E0
G1 X122.895 Y117.831 F12000.000
G1 Z0.200 F12000.000
G1 E1.00000 F1800.000
G1 X122.930 Y117.867 E1.00072 F600.000
G1 X123.422 Y117.672 E1.00835
G1 X122.895 Y117.145 E1.01909
G1 X122.895 Y116.458 E1.02899
G1 X123.960 Y117.523 E1.05069
G1 X124.550 Y117.426 E1.05930
G1 X122.895 Y115.771 E1.09301
G1 X122.895 Y115.084 E1.10291
G1 X125.208 Y117.397 E1.15004
G1 X125.963 Y117.465 E1.16096
G1 X122.944 Y114.446 E1.22247
G1 X123.631 Y114.446 E1.23237
G1 X126.909 Y117.724 E1.29915
G1 X127.105 Y117.233 E1.30676
G1 X124.318 Y114.446 E1.36356
G1 X125.004 Y114.446 E1.37345
G1 X127.105 Y116.547 E1.41625
G1 X127.105 Y115.860 E1.42615
G1 X125.691 Y114.446 E1.45495
G1 X126.378 Y114.446 E1.46485
G1 X127.105 Y115.173 E1.47966
G1 X127.105 Y114.486 E1.48955
G1 X127.065 Y114.446 E1.49037
G1 F1800.000 E0.49037
G1 Z0.250 F12000.000
G92 E0
G1 X121.782 Y118.446 F12000.000
G1 Z0.200 F12000.000
G1 E1.00000 F1800.000
G1 X121.833 Y118.497 E1.00104 F600.000
G1 X121.493 Y118.868 E1.00829
G1 X121.071 Y118.446 E1.01689
G1 X120.360 Y118.446 E1.02714
G1 X121.152 Y119.238 E1.04327
G1 X120.843 Y119.640 E1.05058
G1 X119.649 Y118.446 E1.07492
G1 X118.995 Y118.504 E1.08437
G1 X120.568 Y120.077 E1.11642
G1 X120.341 Y120.561 E1.12412
G1 X118.995 Y119.215 E1.15154
G1 X118.995 Y119.926 E1.16179
G1 X120.156 Y121.088 E1.18545
G1 X120.022 Y121.665 E1.19398
G1 X118.995 Y120.637 E1.21491
G1 X118.995 Y121.349 E1.22516
G1 X119.951 Y122.305 E1.24464
G1 X119.966 Y123.031 E1.25510
G1 X118.995 Y122.060 E1.27489
G1 X118.995 Y122.771 E1.28513
G1 X119.947 Y123.723 E1.30452
G1 X119.943 Y124.431 E1.31472
G1 X118.995 Y123.482 E1.33405
G1 X118.995 Y124.194 E1.34429
G1 X119.975 Y125.174 E1.36426
G1 X119.746 Y125.656 E1.37195
G1 X118.995 Y124.905 E1.38726
G1 X118.995 Y125.616 E1.39751
G1 X119.035 Y125.656 E1.39832
G1 F1800.000 E0.39832
G1 Z0.250 F12000.000
G92 E0
G1 X124.743 Y81.641 F12000.000
G1 Z0.200 F12000.000
G1 E1.00000 F1800.000
G1 X124.232 Y81.577 E1.00620 F600.000
G1 X123.734 Y81.449 E1.01239
G1 X123.255 Y81.259 E1.01859
G1 X122.804 Y81.011 E1.02479
G1 X122.388 Y80.709 E1.03099
G1 X122.013 Y80.356 E1.03719
G1 X121.685 Y79.960 E1.04338
G1 X121.409 Y79.525 E1.04958
G1 X121.190 Y79.060 E1.05578
G1 X121.031 Y78.570 E1.06198
G1 X120.934 Y78.065 E1.06817
G1 X120.902 Y77.551 E1.07437
G1 X120.934 Y77.037 E1.08057
G1 X121.031 Y76.532 E1.08677
G1 X121.190 Y76.043 E1.09296
G1 X121.409 Y75.577 E1.09916
G1 X121.685 Y75.142 E1.10536
G1 X122.013 Y74.746 E1.11156
G1 X122.388 Y74.394 E1.11776
G1 X122.804 Y74.091 E1.12395
G1 X123.255 Y73.843 E1.13015
G1 X123.734 Y73.654 E1.13635
G1 X124.232 Y73.526 E1.14255
G1 X124.743 Y73.461 E1.14874
G1 X125.257 Y73.461 E1.15494
G1 X125.513 Y73.493 E1.15804
G1 X125.768 Y73.526 E1.16114 F600.000
G1 X126.266 Y73.654 E1.16734
G1 X126.745 Y73.843 E1.17353
G1 X127.196 Y74.091 E1.17973
G1 X127.612 Y74.394 E1.18593
G1 X127.987 Y74.746 E1.19213
G1 X128.315 Y75.142 E1.19833
G1 X128.591 Y75.577 E1.20452
G1 X128.810 Y76.043 E1.21072
G1 X128.969 Y76.532 E1.21692
G1 X129.066 Y77.037 E1.22312
G1 X129.098 Y77.551 E1.22931
G1 X129.066 Y78.065 E1.23551
G1 X128.969 Y78.570 E1.24171
G1 X128.810 Y79.060 E1.24791
G1 X128.591 Y79.525 E1.25410
G1 X128.315 Y79.960 E1.26030
G1 X127.987 Y80.356 E1.26650
G1 X127.612 Y80.709 E1.27270
G1 X127.196 Y81.011 E1.27890
G1 X126.745 Y81.259 E1.28509
G1 X126.266 Y81.449 E1.29129
G1 X125.768 Y81.577 E1.29749
G1 X125.257 Y81.641 E1.30369
G1 X124.803 Y81.641 E1.30916
G1 X124.743 Y82.041 F12000.000
G1 X124.157 Y81.970 E1.31627 F600.000
G1 X123.610 Y81.830 E1.32307
G1 X123.084 Y81.622 E1.32987
G1 X122.589 Y81.350 E1.33668
G1 X122.132 Y81.017 E1.34348
G1 X121.720 Y80.631 E1.35028
G1 X121.360 Y80.195 E1.35709
G1 X121.058 Y79.718 E1.36389
G1 X120.817 Y79.207 E1.37070
G1 X120.643 Y78.670 E1.37750
