; generated by Slic3r 1.1.7 on 2015-04-04 at 16:25:39

; perimeters extrusion width = 0.40mm
; infill extrusion width = 0.67mm
; solid infill extrusion width = 0.50mm
; top infill extrusion width = 0.30mm

G21 ; set units to millimeters
M107
M190 S70 ; wait for bed temperature to be reached
M104 S240 ; set temperature
G28 ; home all axes
M109 S240 ; wait for temperature to be reached
G90 ; use absolute coordinates
G92 E0
M82 ; use absolute distances for extrusion
M204 S500
G1 F1800.000 E-1.00000
G1 Z0.250 F12000.000
G92 E0
G1 X109.537 Y74.049 F12000.000
G1 Z0.200 F12000.000
G1 E1.00000 F1800.000
G1 X111.224 Y71.729 E1.03403 F600.000
G1 X111.325 Y71.628 E1.03572
G1 X113.647 Y69.939 E1.06979
G1 X113.782 Y69.870 E1.07160
G1 X116.521 Y68.980 E1.10576
G1 X118.100 Y68.845 E1.12457
G1 X131.900 Y68.845 E1.28831
G1 X133.338 Y68.958 E1.30543
G1 X133.479 Y68.980 E1.30712 F600.000
G1 X136.219 Y69.871 E1.34130
G1 X136.353 Y69.939 E1.34309
G1 X138.673 Y71.626 E1.37712
G1 X138.774 Y71.727 E1.37881
G1 X140.461 Y74.047 E1.41285
G1 X140.529 Y74.180 E1.41463
G1 X141.420 Y76.921 E1.44883
G1 X141.555 Y78.500 E1.46762
G1 X141.555 Y121.500 E1.97782
G1 X141.442 Y122.938 E1.99493
G1 X141.420 Y123.079 E1.99662
G1 X140.530 Y125.818 E2.03079
G1 X140.460 Y125.956 E2.03264
G1 X138.777 Y128.270 E2.06657
G1 X138.671 Y128.376 E2.06836
G1 X136.351 Y130.063 E2.10239
G1 X136.219 Y130.130 E2.10415
G1 X133.480 Y131.020 E2.13832
G1 X131.900 Y131.155 E2.15713
G1 X118.100 Y131.155 E2.32087
G1 X116.520 Y131.020 E2.33968
G1 X113.783 Y130.131 E2.37383
G1 X113.653 Y130.065 E2.37556
G1 X111.327 Y128.374 E2.40968
G1 X111.226 Y128.273 E2.41137
G1 X109.536 Y125.948 E2.44548
G1 X109.470 Y125.818 E2.44721
G1 X108.580 Y123.080 E2.48136
G1 X108.445 Y121.500 E2.50018
G1 X108.445 Y78.500 E3.01037
G1 X108.580 Y76.920 E3.02919
G1 X109.470 Y74.181 E3.06336
G1 X109.510 Y74.103 E3.06440
G1 X109.894 Y74.231 F12000.000
G1 X111.507 Y72.012 E3.09695 F600.000
G1 X111.608 Y71.911 E3.09864
G1 X113.829 Y70.295 E3.13123
G1 X113.964 Y70.226 E3.13303
G1 X116.583 Y69.375 E3.16571
G1 X118.100 Y69.245 E3.18378
G1 X131.900 Y69.245 E3.34751
G1 X133.276 Y69.353 E3.36389
G1 X133.417 Y69.375 E3.36558 F600.000
G1 X136.038 Y70.227 E3.39828
G1 X136.171 Y70.295 E3.40006
G1 X138.390 Y71.909 E3.43261
G1 X138.491 Y72.010 E3.43430
G1 X140.105 Y74.229 E3.46686
G1 X140.173 Y74.362 E3.46863
G1 X141.025 Y76.984 E3.50134
G1 X141.155 Y78.500 E3.51940
G1 X141.155 Y121.500 E4.02959
G1 X141.047 Y122.875 E4.04596
G1 X141.025 Y123.016 E4.04765
G1 X140.174 Y125.636 E4.08034
G1 X140.104 Y125.774 E4.08218
G1 X138.494 Y127.987 E4.11464
G1 X138.388 Y128.093 E4.11642
G1 X136.169 Y129.706 E4.14897
G1 X136.037 Y129.773 E4.15073
G1 X133.417 Y130.625 E4.18341
G1 X131.900 Y130.755 E4.20148
G1 X118.100 Y130.755 E4.36522
G1 X116.583 Y130.625 E4.38328
G1 X113.964 Y129.774 E4.41595
G1 X113.835 Y129.708 E4.41767
G1 X111.610 Y128.091 E4.45031
G1 X111.509 Y127.990 E4.45200
G1 X109.892 Y125.766 E4.48462
G1 X109.826 Y125.636 E4.48636
G1 X108.975 Y123.018 E4.51902
G1 X108.845 Y121.500 E4.53710
G1 X108.845 Y78.500 E5.04729
G1 X108.975 Y76.983 E5.06536
G1 X109.827 Y74.362 E5.09805
G1 X109.866 Y74.285 E5.09908
G1 X110.250 Y74.413 F12000.000
G1 X111.790 Y72.295 E5.13016 F600.000
G1 X111.890 Y72.194 E5.13185
G1 X114.010 Y70.651 E5.16296
G1 X114.145 Y70.583 E5.16475
G1 X116.646 Y69.770 E5.19595
G1 X118.100 Y69.645 E5.21326
G1 X131.900 Y69.645 E5.37700
G1 X133.213 Y69.748 E5.39263
G1 X133.354 Y69.770 E5.39432 F600.000
G1 X135.856 Y70.583 E5.42554
G1 X135.989 Y70.651 E5.42731
G1 X138.107 Y72.192 E5.45839
G1 X138.208 Y72.293 E5.46008
G1 X139.749 Y74.411 E5.49115
G1 X139.817 Y74.544 E5.49292
G1 X140.630 Y77.046 E5.52415
G1 X140.755 Y78.500 E5.54146
G1 X140.755 Y121.500 E6.05165
G1 X140.652 Y122.813 E6.06727
G1 X140.630 Y122.954 E6.06897
G1 X139.817 Y125.455 E6.10017
G1 X139.747 Y125.592 E6.10200
G1 X138.211 Y127.704 E6.13298
G1 X138.105 Y127.810 E6.13476
G1 X135.987 Y129.350 E6.16584
G1 X135.855 Y129.417 E6.16759
G1 X133.355 Y130.230 E6.19879
G1 X131.900 Y130.355 E6.21611
G1 X118.100 Y130.355 E6.37985
G1 X116.645 Y130.230 E6.39717
G1 X114.146 Y129.418 E6.42835
G1 X114.017 Y129.352 E6.43007
G1 X111.892 Y127.808 E6.46123
G1 X111.792 Y127.707 E6.46292
G1 X110.249 Y125.584 E6.49406
G1 X110.182 Y125.454 E6.49579
G1 X109.370 Y122.955 E6.52697
G1 X109.245 Y121.500 E6.54430
G1 X109.245 Y78.500 E7.05449
G1 X109.370 Y77.045 E7.07182
G1 X110.183 Y74.544 E7.10302
G1 X110.223 Y74.467 E7.10405
G1 F1800.000 E6.10405
G1 Z0.250 F12000.000
G92 E0
G1 X127.455 Y113.045 F12000.000
G1 Z0.200 F12000.000
G1 E1.00000 F1800.000
G1 X131.355 Y113.045 E1.04627 F600.000
G1 X131.355 Y120.955 E1.14014
G1 X129.567 Y120.955 E1.16136
G1 X129.659 Y120.671 E1.16491
G1 X129.770 Y120.090 E1.17193
G1 X129.807 Y119.500 E1.17894
G1 X129.776 Y119.000 E1.18488
G1 X129.807 Y118.500 E1.19083
G1 X129.776 Y118.000 E1.19677
G1 X129.807 Y117.500 E1.20272
G1 X129.770 Y116.910 E1.20973
G1 X129.659 Y116.329 E1.21674
G1 X129.477 Y115.767 E1.22376
G1 X129.225 Y115.232 E1.23077
G1 X128.908 Y114.733 E1.23778
G1 X128.531 Y114.278 E1.24480
G1 X128.100 Y113.873 E1.25181
G1 X127.622 Y113.526 E1.25883
G1 X127.104 Y113.241 E1.26584
G1 X126.555 Y113.023 E1.27285
G1 X125.982 Y112.876 E1.27987
G1 X125.396 Y112.802 E1.28688
G1 X124.804 Y112.802 E1.29389
G1 X124.218 Y112.876 E1.30091
G1 X123.645 Y113.023 E1.30792
G1 X123.096 Y113.241 E1.31493
G1 X122.578 Y113.526 E1.32195
G1 X122.100 Y113.873 E1.32896
G1 X121.669 Y114.278 E1.33598
G1 X121.292 Y114.733 E1.34299
G1 X120.975 Y115.232 E1.35000
G1 X120.805 Y115.593 E1.35474
G1 X120.723 Y115.767 E1.35702
G1 X120.541 Y116.329 E1.36403
G1 X120.430 Y116.910 E1.37104
G1 X120.393 Y117.500 E1.37806
G1 X120.424 Y118.000 E1.38400
G1 X120.393 Y118.500 E1.38995
G1 X120.424 Y119.000 E1.39589
G1 X120.393 Y119.500 E1.40183
G1 X120.430 Y120.090 E1.40885
G1 X120.541 Y120.671 E1.41586
G1 X120.633 Y120.955 E1.41942
G1 X118.645 Y120.955 E1.44301
G1 X118.645 Y113.045 E1.53687
G1 X122.545 Y113.045 E1.58315
G1 X122.545 Y109.045 E1.63061
G1 X127.455 Y109.045 E1.68888
G1 X127.455 Y112.985 E1.73562
G1 X127.855 Y112.645 F12000.000
G1 X131.755 Y112.645 E1.78190 F600.000
G1 X131.755 Y121.355 E1.88525
G1 X128.977 Y121.355 E1.91822
G1 X129.104 Y121.085 E1.92176
G1 X129.271 Y120.571 E1.92818
G1 X129.372 Y120.040 E1.93460
G1 X129.406 Y119.500 E1.94101
G1 X129.375 Y119.000 E1.94696
G1 X129.406 Y118.500 E1.95290
G1 X129.375 Y118.000 E1.95885
G1 X129.406 Y117.500 E1.96479
G1 X129.372 Y116.960 E1.97120
G1 X129.271 Y116.429 E1.97762
G1 X129.104 Y115.915 E1.98404
G1 X128.874 Y115.425 E1.99045
G1 X128.512 Y114.882 E1.99820
G1 X128.239 Y114.552 E2.00328
G1 X127.845 Y114.182 E2.00970
G1 X127.407 Y113.864 E2.01611
G1 X126.934 Y113.604 E2.02253
G1 X126.431 Y113.404 E2.02894
G1 X125.907 Y113.270 E2.03536
G1 X125.370 Y113.202 E2.04178
G1 X124.830 Y113.202 E2.04819
G1 X124.293 Y113.270 E2.05461
G1 X123.931 Y113.363 E2.05905
G1 X123.769 Y113.404 E2.06103
G1 X123.266 Y113.604 E2.06744
G1 X122.793 Y113.864 E2.07386
G1 X122.355 Y114.182 E2.08028
G1 X121.961 Y114.552 E2.08669
G1 X121.616 Y114.969 E2.09311
G1 X121.326 Y115.425 E2.09953
G1 X121.096 Y115.915 E2.10594
G1 X120.929 Y116.429 E2.11236
G1 X120.828 Y116.960 E2.11878
G1 X120.794 Y117.500 E2.12519
G1 X120.825 Y118.000 E2.13114
G1 X120.794 Y118.500 E2.13708
G1 X120.825 Y119.000 E2.14302
G1 X120.794 Y119.500 E2.14897
G1 X120.828 Y120.040 E2.15539
G1 X120.929 Y120.571 E2.16180
G1 X121.096 Y121.085 E2.16822
G1 X121.223 Y121.355 E2.17176
G1 X118.245 Y121.355 E2.20710
G1 X118.245 Y112.645 E2.31046
G1 X122.145 Y112.645 E2.35673
G1 X122.145 Y108.645 E2.40419
G1 X127.855 Y108.645 E2.47195
G1 X127.855 Y112.585 E2.51870
G1 X128.255 Y112.245 F12000.000
G1 X131.884 Y112.245 E2.56175 F600.000
G1 X131.978 Y112.259 E2.56288
G1 X132.049 Y112.295 E2.56382
G1 X132.141 Y112.422 E2.56568
G1 X132.155 Y112.516 E2.56680
G1 X132.155 Y121.484 E2.67321
G1 X132.141 Y121.578 E2.67434
G1 X132.049 Y121.705 E2.67620
G1 X131.978 Y121.741 E2.67714
G1 X131.884 Y121.755 E2.67827
G1 X128.285 Y121.755 E2.72097
G1 X128.522 Y121.381 E2.72622
G1 X128.731 Y120.938 E2.73204
G1 X128.883 Y120.471 E2.73786
G1 X128.975 Y119.989 E2.74368
G1 X129.005 Y119.500 E2.74950
G1 X128.974 Y119.000 E2.75544
G1 X129.005 Y118.500 E2.76139
G1 X128.974 Y118.000 E2.76733
G1 X129.005 Y117.500 E2.77328
G1 X128.958 Y116.925 E2.78013
G1 X128.883 Y116.529 E2.78491
G1 X128.731 Y116.062 E2.79073
G1 X128.522 Y115.619 E2.79655
G1 X128.260 Y115.204 E2.80237
G1 X127.947 Y114.826 E2.80819
G1 X127.589 Y114.491 E2.81401
G1 X127.193 Y114.202 E2.81982
G1 X126.763 Y113.966 E2.82564
G1 X126.307 Y113.786 E2.83146
G1 X125.832 Y113.664 E2.83728
G1 X125.345 Y113.602 E2.84310
G1 X124.855 Y113.602 E2.84892
G1 X124.368 Y113.664 E2.85474
G1 X124.030 Y113.750 E2.85888
G1 X123.893 Y113.786 E2.86056
G1 X123.437 Y113.966 E2.86638
G1 X123.007 Y114.202 E2.87220
G1 X122.611 Y114.491 E2.87802
G1 X122.253 Y114.826 E2.88384
G1 X121.940 Y115.204 E2.88966
G1 X121.678 Y115.619 E2.89547
G1 X121.469 Y116.062 E2.90129
G1 X121.317 Y116.529 E2.90711
G1 X121.225 Y117.011 E2.91293
G1 X121.194 Y117.500 E2.91875
G1 X121.226 Y118.000 E2.92470
G1 X121.194 Y118.500 E2.93064
G1 X121.226 Y119.000 E2.93658
G1 X121.194 Y119.500 E2.94253
G1 X121.225 Y119.990 E2.94835
G1 X121.317 Y120.471 E2.95417
G1 X121.469 Y120.938 E2.95999
G1 X121.678 Y121.382 E2.96581
G1 X121.915 Y121.755 E2.97106
G1 X118.116 Y121.755 E3.01614
G1 X118.022 Y121.741 E3.01727
G1 X117.951 Y121.705 E3.01820
G1 X117.859 Y121.578 E3.02006
G1 X117.845 Y121.484 E3.02119
G1 X117.845 Y112.516 E3.12760
G1 X117.859 Y112.422 E3.12873
G1 X117.951 Y112.295 E3.13058
G1 X118.022 Y112.259 E3.13152
G1 X118.116 Y112.245 E3.13265
G1 X121.745 Y112.245 E3.17570
G1 X121.745 Y108.516 E3.21995
G1 X121.759 Y108.422 E3.22107
G1 X121.851 Y108.295 E3.22293
G1 X121.922 Y108.259 E3.22387
G1 X122.016 Y108.245 E3.22500
G1 X127.984 Y108.245 E3.29581
G1 X128.078 Y108.259 E3.29694
G1 X128.149 Y108.295 E3.29788
G1 X128.241 Y108.422 E3.29974
G1 X128.255 Y108.516 E3.30086
G1 X128.255 Y112.185 E3.34439
G1 X128.255 Y112.645 F12000.000
G1 X130.994 Y113.366 F12000.000
G1 X131.034 Y113.406 E3.34520 F600.000
G1 X131.034 Y114.091 E3.35493
G1 X130.309 Y113.366 E3.36949
G1 X129.623 Y113.366 E3.37922
G1 X131.034 Y114.777 E3.40754
G1 X131.034 Y115.462 E3.41727
G1 X128.938 Y113.366 E3.45935
G1 X128.252 Y113.366 E3.46908
G1 X131.034 Y116.148 E3.52491
G1 X131.034 Y116.833 E3.53464
G1 X129.710 Y115.509 E3.56122
G1 X130.020 Y116.504 E3.57601
G1 X131.034 Y117.518 E3.59637
G1 X131.034 Y118.204 E3.60610
G1 X130.116 Y117.285 E3.62454
G1 X130.100 Y117.955 E3.63406
G1 X131.034 Y118.889 E3.65280
G1 X131.034 Y119.575 E3.66253
G1 X130.119 Y118.659 E3.68090
G1 X130.119 Y119.345 E3.69063
G1 X131.034 Y120.260 E3.70900
G1 X130.723 Y120.634 E3.71591
G1 X130.097 Y120.008 E3.72847
G1 X130.000 Y120.597 E3.73694
G1 X130.037 Y120.634 E3.73768
G1 F1800.000 E2.73768
G1 Z0.250 F12000.000
G92 E0
G1 X122.866 Y112.937 F12000.000
G1 Z0.200 F12000.000
G1 E1.00000 F1800.000
G1 X122.901 Y112.972 E1.00071 F600.000
G1 X123.409 Y112.771 E1.00847
G1 X122.866 Y112.228 E1.01937
G1 X122.866 Y111.519 E1.02944
G1 X123.958 Y112.611 E1.05136
G1 X124.565 Y112.509 E1.06009
G1 X122.866 Y110.810 E1.09420
G1 X122.866 Y110.101 E1.10426
G1 X125.246 Y112.481 E1.15204
G1 X126.033 Y112.559 E1.16326
G1 X122.873 Y109.399 E1.22670
G1 X123.549 Y109.366 E1.23630
G1 X127.061 Y112.878 E1.30681
G1 X127.134 Y112.242 E1.31591
G1 X124.258 Y109.366 E1.37364
G1 X124.967 Y109.366 E1.38371
G1 X127.134 Y111.533 E1.42721
G1 X127.134 Y110.824 E1.43727
G1 X125.676 Y109.366 E1.46654
G1 X126.385 Y109.366 E1.47660
G1 X127.134 Y110.115 E1.49164
G1 X127.134 Y109.406 E1.50170
G1 X127.094 Y109.366 E1.50251
G1 F1800.000 E0.50251
G1 Z0.250 F12000.000
G92 E0
G1 X122.052 Y113.366 F12000.000
G1 Z0.200 F12000.000
G1 E1.00000 F1800.000
G1 X122.103 Y113.417 E1.00103 F600.000
G1 X121.755 Y113.756 E1.00793
G1 X121.364 Y113.366 E1.01577
G1 X120.677 Y113.366 E1.02553
G1 X121.404 Y114.093 E1.04013
G1 X121.093 Y114.470 E1.04706
G1 X119.989 Y113.366 E1.06922
G1 X119.301 Y113.366 E1.07898
G1 X120.817 Y114.882 E1.10941
G1 X120.575 Y115.327 E1.11661
G1 X118.966 Y113.718 E1.14892
G1 X118.966 Y114.406 E1.15868
G1 X120.371 Y115.811 E1.18689
G1 X120.212 Y116.339 E1.19472
G1 X118.966 Y115.093 E1.21973
G1 X118.966 Y115.781 E1.22949
G1 X120.107 Y116.922 E1.25240
G1 X120.076 Y117.578 E1.26173
G1 X118.966 Y116.468 E1.28401
G1 X118.966 Y117.156 E1.29377
G1 X120.085 Y118.275 E1.31623
G1 X120.101 Y118.979 E1.32622
G1 X118.966 Y117.844 E1.34901
G1 X118.966 Y118.531 E1.35877
G1 X120.080 Y119.645 E1.38114
G1 X120.166 Y120.419 E1.39218
G1 X118.966 Y119.219 E1.41626
G1 X118.966 Y119.907 E1.42602
G1 X119.693 Y120.634 E1.44063
G1 X119.006 Y120.634 E1.45039
G1 X118.966 Y120.594 E1.45119
G1 F1800.000 E0.45119
G1 Z0.250 F12000.000
G92 E0
G1 X124.927 Y100.227 F12000.000
G1 Z0.200 F12000.000
G1 E1.00000 F1800.000
G1 X124.809 Y100.286 E1.00156 F600.000
G1 X124.700 Y100.314 E1.00289
G1 X124.591 Y100.286 E1.00423
G1 X124.473 Y100.227 E1.00579
G1 X124.346 Y100.034 E1.00853
G1 X124.346 Y99.766 E1.01171
G1 X124.473 Y99.573 E1.01446
G1 X124.591 Y99.514 E1.01602
G1 X124.700 Y99.486 E1.01735
G1 X124.809 Y99.514 E1.01868
G1 X124.927 Y99.573 E1.02024
G1 X125.054 Y99.766 E1.02299
G1 X125.054 Y100.034 E1.02617
G1 X124.960 Y100.177 E1.02820
G1 X125.106 Y100.585 F12000.000
G1 X124.949 Y100.663 E1.03028 F600.000
G1 X124.700 Y100.726 E1.03333
G1 X124.451 Y100.663 E1.03638
G1 X124.198 Y100.537 E1.03973
G1 X123.946 Y100.154 E1.04516
G1 X123.946 Y99.646 E1.05119
G1 X124.168 Y99.310 E1.05596
G1 X124.168 Y99.279 E1.05634
G1 X124.451 Y99.137 E1.06010
G1 X124.700 Y99.074 E1.06314
G1 X124.949 Y99.137 E1.06619
G1 X125.202 Y99.263 E1.06954 F600.000
G1 X125.454 Y99.646 E1.07498
G1 X125.454 Y100.154 E1.08101
G1 X125.202 Y100.537 E1.08645
G1 X125.159 Y100.558 E1.08701
G1 X125.151 Y99.334 F12000.000
G1 F1800.000 E0.08701
G1 Z0.250 F12000.000
G92 E0
G1 X127.455 Y86.955 F12000.000
G1 Z0.200 F12000.000
G1 E1.00000 F1800.000
G1 X127.455 Y90.955 E1.04746 F600.000
G1 X122.545 Y90.955 E1.10573
G1 X122.545 Y86.955 E1.15319
G1 X118.645 Y86.955 E1.19946
G1 X118.645 Y79.045 E1.29332
G1 X120.633 Y79.045 E1.31692
G1 X120.541 Y79.329 E1.32047
G1 X120.430 Y79.910 E1.32749
G1 X120.393 Y80.500 E1.33450
G1 X120.424 Y81.000 E1.34045
G1 X120.393 Y81.500 E1.34639
G1 X120.424 Y82.000 E1.35233
G1 X120.393 Y82.500 E1.35828
G1 X120.430 Y83.090 E1.36529
G1 X120.541 Y83.671 E1.37230
G1 X120.723 Y84.233 E1.37932
G1 X120.975 Y84.768 E1.38633
G1 X121.292 Y85.267 E1.39334
G1 X121.669 Y85.722 E1.40036
G1 X121.809 Y85.854 E1.40264
G1 X122.100 Y86.127 E1.40737
G1 X122.578 Y86.474 E1.41439
G1 X123.096 Y86.759 E1.42140
G1 X123.645 Y86.977 E1.42841
G1 X124.218 Y87.124 E1.43543
G1 X124.805 Y87.198 E1.44244
G1 X125.395 Y87.198 E1.44945
G1 X125.982 Y87.124 E1.45647
G1 X126.555 Y86.977 E1.46348
G1 X127.104 Y86.759 E1.47049
G1 X127.622 Y86.474 E1.47751
G1 X128.100 Y86.127 E1.48452
G1 X128.531 Y85.722 E1.49154
G1 X128.908 Y85.267 E1.49855
G1 X129.225 Y84.768 E1.50557
G1 X129.477 Y84.233 E1.51258
G1 X129.659 Y83.671 E1.51959
G1 X129.770 Y83.090 E1.52661
G1 X129.807 Y82.500 E1.53362
G1 X129.776 Y82.000 E1.53956
G1 X129.807 Y81.500 E1.54551
G1 X129.776 Y81.000 E1.55145
G1 X129.807 Y80.500 E1.55740
G1 X129.770 Y79.910 E1.56441
G1 X129.659 Y79.330 E1.57142
G1 X129.567 Y79.045 E1.57498
G1 X131.355 Y79.045 E1.59620
G1 X131.355 Y86.955 E1.69006
G1 X127.515 Y86.955 E1.73562
G1 X127.855 Y87.355 F12000.000
G1 X127.855 Y91.355 E1.78308 F600.000
G1 X122.145 Y91.355 E1.85084
G1 X122.145 Y87.355 E1.89830
G1 X118.245 Y87.355 E1.94458
G1 X118.245 Y78.645 E2.04793
G1 X121.223 Y78.645 E2.08327
G1 X121.096 Y78.915 E2.08682
G1 X120.929 Y79.429 E2.09323
G1 X120.828 Y79.960 E2.09965
G1 X120.794 Y80.500 E2.10607
G1 X120.825 Y81.000 E2.11201
G1 X120.794 Y81.500 E2.11795
G1 X120.825 Y82.000 E2.12390
G1 X120.794 Y82.500 E2.12984
G1 X120.828 Y83.040 E2.13626
G1 X120.929 Y83.571 E2.14268
G1 X121.096 Y84.085 E2.14909
G1 X121.387 Y84.670 E2.15683
G1 X121.616 Y85.031 E2.16192
G1 X121.961 Y85.448 E2.16833
G1 X122.355 Y85.818 E2.17475
