; generated by Slic3r 1.1.7 on 2015-04-03 at 09:40:25

; perimeters extrusion width = 0.40mm
; infill extrusion width = 0.67mm
; solid infill extrusion width = 0.50mm
; top infill extrusion width = 0.30mm

G21 ; set units to millimeters
M107
M190 S70 ; wait for bed temperature to be reached
M104 S240 ; set temperature
G28 ; home all axes
M109 S240 ; wait for temperature to be reached
G90 ; use absolute coordinates
G92 E0
M82 ; use absolute distances for extrusion
M204 S500
G1 F1800.000 E-1.00000
G1 Z0.250 F12000.000
G92 E0
G1 X109.868 Y74.223 F12000.000
G1 Z0.200 F12000.000
G1 E1.00000 F1800.000
G1 X111.488 Y71.994 E1.02366 F600.000
G1 X111.589 Y71.892 E1.02489
G1 X113.825 Y70.268 E1.04861
G1 X113.952 Y70.203 E1.04984
G1 X116.579 Y69.349 E1.07355
G1 X118.100 Y69.218 E1.08666
G1 X131.900 Y69.218 E1.20513
G1 X133.279 Y69.327 E1.21701
G1 X133.423 Y69.350 E1.21826 F600.000
G1 X136.049 Y70.203 E1.24196
G1 X136.177 Y70.269 E1.24320
G1 X138.408 Y71.890 E1.26688
G1 X138.510 Y71.992 E1.26811
G1 X140.131 Y74.223 E1.29179
G1 X140.197 Y74.351 E1.29302
G1 X141.051 Y76.979 E1.31674
G1 X141.182 Y78.500 E1.32985
G1 X141.182 Y121.500 E1.69901
G1 X141.073 Y122.879 E1.71088
G1 X141.050 Y123.023 E1.71213
G1 X140.197 Y125.648 E1.73583
G1 X140.132 Y125.776 E1.73706
G1 X138.511 Y128.007 E1.76074
G1 X138.406 Y128.112 E1.76201
G1 X136.176 Y129.732 E1.78567
G1 X136.048 Y129.797 E1.78691
G1 X133.425 Y130.650 E1.81058
G1 X131.900 Y130.782 E1.82373
G1 X118.100 Y130.782 E1.94220
G1 X116.578 Y130.651 E1.95531
G1 X113.953 Y129.798 E1.97901
G1 X113.825 Y129.732 E1.98024
G1 X111.591 Y128.110 E2.00395
G1 X111.490 Y128.008 E2.00518
G1 X109.868 Y125.775 E2.02887
G1 X109.803 Y125.647 E2.03011
G1 X108.950 Y123.022 E2.05380
G1 X108.818 Y121.500 E2.06692
G1 X108.818 Y78.500 E2.43607
G1 X108.950 Y76.978 E2.44919
G1 X109.803 Y74.351 E2.47290
G1 X109.841 Y74.277 E2.47362
G1 X110.113 Y74.348 F12000.000
G1 X111.682 Y72.188 E2.49654 F600.000
G1 X111.783 Y72.086 E2.49777
G1 X113.949 Y70.512 E2.52076
G1 X114.077 Y70.447 E2.52199
G1 X116.621 Y69.620 E2.54496
G1 X118.100 Y69.493 E2.55770
G1 X131.900 Y69.493 E2.67617
G1 X133.237 Y69.598 E2.68768
G1 X133.380 Y69.621 E2.68893 F600.000
G1 X135.924 Y70.448 E2.71190
G1 X136.052 Y70.513 E2.71313
G1 X138.214 Y72.084 E2.73607
G1 X138.316 Y72.186 E2.73730
G1 X139.887 Y74.348 E2.76025
G1 X139.952 Y74.475 E2.76148
G1 X140.780 Y77.021 E2.78446
G1 X140.907 Y78.500 E2.79720
G1 X140.907 Y121.500 E3.16636
G1 X140.802 Y122.836 E3.17787
G1 X140.779 Y122.980 E3.17911
G1 X139.953 Y125.523 E3.20207
G1 X139.888 Y125.651 E3.20331
G1 X138.317 Y127.813 E3.22625
G1 X138.212 Y127.918 E3.22752
G1 X136.052 Y129.487 E3.25045
G1 X135.924 Y129.552 E3.25168
G1 X133.382 Y130.379 E3.27462
G1 X131.900 Y130.507 E3.28739
G1 X118.100 Y130.507 E3.40587
G1 X116.621 Y130.380 E3.41861
G1 X114.078 Y129.553 E3.44157
G1 X113.950 Y129.488 E3.44280
G1 X111.785 Y127.916 E3.46577
G1 X111.684 Y127.814 E3.46700
G1 X110.112 Y125.651 E3.48996
G1 X110.047 Y125.523 E3.49119
G1 X109.220 Y122.979 E3.51415
G1 X109.093 Y121.500 E3.52690
G1 X109.093 Y78.500 E3.89605
G1 X109.220 Y77.021 E3.90880
G1 X110.048 Y74.476 E3.93177
G1 X110.086 Y74.401 E3.93249
G1 X110.357 Y74.473 F12000.000
G1 X111.876 Y72.382 E3.95467 F600.000
G1 X111.978 Y72.280 E3.95591
G1 X114.074 Y70.757 E3.97815
G1 X114.202 Y70.692 E3.97939
G1 X116.664 Y69.891 E4.00162
G1 X118.100 Y69.767 E4.01399
G1 X131.900 Y69.767 E4.13246
G1 X133.194 Y69.869 E4.14360
G1 X133.337 Y69.892 E4.14485 F600.000
G1 X135.800 Y70.692 E4.16708
G1 X135.928 Y70.757 E4.16831
G1 X138.020 Y72.278 E4.19052
G1 X138.122 Y72.380 E4.19175
G1 X139.643 Y74.472 E4.21396
G1 X139.708 Y74.600 E4.21519
G1 X140.509 Y77.064 E4.23744
G1 X140.633 Y78.500 E4.24981
G1 X140.633 Y121.500 E4.61896
G1 X140.531 Y122.793 E4.63010
G1 X140.508 Y122.937 E4.63135
G1 X139.708 Y125.399 E4.65357
G1 X139.643 Y125.526 E4.65480
G1 X138.123 Y127.619 E4.67701
G1 X138.018 Y127.724 E4.67828
G1 X135.927 Y129.243 E4.70047
G1 X135.799 Y129.308 E4.70170
G1 X133.339 Y130.108 E4.72391
G1 X131.900 Y130.233 E4.73631
G1 X118.100 Y130.233 E4.85479
G1 X116.664 Y130.109 E4.86716
G1 X114.202 Y129.309 E4.88938
G1 X114.074 Y129.244 E4.89061
G1 X111.979 Y127.722 E4.91284
G1 X111.878 Y127.620 E4.91408
G1 X110.357 Y125.526 E4.93630
G1 X110.291 Y125.398 E4.93753
G1 X109.491 Y122.936 E4.95975
G1 X109.367 Y121.500 E4.97213
G1 X109.367 Y78.500 E5.34128
G1 X109.491 Y77.064 E5.35366
G1 X110.292 Y74.600 E5.37590
G1 X110.330 Y74.526 E5.37661
G1 F1800.000 E4.37661
G1 Z0.250 F12000.000
G92 E0
G1 X128.290 Y112.710 F12000.000
G1 Z0.200 F12000.000
G1 E1.00000 F1800.000
G1 X131.690 Y112.710 E1.02919 F600.000
G1 X131.690 Y121.290 E1.10285
G1 X129.318 Y121.290 E1.12320
G1 X129.300 Y121.000 E1.12570
G1 X129.332 Y120.500 E1.13000
G1 X129.300 Y120.000 E1.13430
G1 X129.332 Y119.500 E1.13860
G1 X129.300 Y119.000 E1.14290
G1 X129.332 Y118.500 E1.14720
G1 X129.298 Y117.970 E1.15177
G1 X129.199 Y117.448 E1.15633
G1 X129.035 Y116.942 E1.16089
G1 X128.808 Y116.461 E1.16545
G1 X128.524 Y116.013 E1.17002
G1 X128.185 Y115.603 E1.17458
G1 X127.797 Y115.239 E1.17914
G1 X127.367 Y114.927 E1.18370
G1 X126.902 Y114.671 E1.18826
G1 X126.408 Y114.475 E1.19283
G1 X125.893 Y114.343 E1.19739
G1 X125.366 Y114.277 E1.20195
G1 X124.834 Y114.277 E1.20651
G1 X124.307 Y114.343 E1.21108
G1 X123.792 Y114.475 E1.21564
G1 X123.298 Y114.671 E1.22020
G1 X122.833 Y114.927 E1.22476
G1 X122.403 Y115.239 E1.22932
G1 X122.015 Y115.603 E1.23389
G1 X121.676 Y116.013 E1.23845
G1 X121.392 Y116.461 E1.24301
G1 X121.165 Y116.942 E1.24757
G1 X121.001 Y117.448 E1.25214
G1 X120.902 Y117.970 E1.25670
G1 X120.868 Y118.500 E1.26126
G1 X120.900 Y119.000 E1.26556
G1 X120.868 Y119.500 E1.26986
G1 X120.900 Y120.000 E1.27416
G1 X120.868 Y120.500 E1.27846
G1 X120.900 Y121.000 E1.28277
G1 X120.881 Y121.290 E1.28526
G1 X118.310 Y121.290 E1.30733
G1 X118.310 Y112.710 E1.38099
G1 X122.710 Y112.710 E1.41877
G1 X122.710 Y108.710 E1.45311
G1 X128.290 Y108.710 E1.50101
G1 X128.290 Y112.650 E1.53483
G1 X128.564 Y112.436 F12000.000
G1 X131.964 Y112.436 E1.56402 F600.000
G1 X131.964 Y121.564 E1.64239
G1 X129.061 Y121.564 E1.66732
G1 X129.025 Y121.000 E1.67217
G1 X129.057 Y120.500 E1.67647
G1 X129.025 Y120.000 E1.68077
G1 X129.057 Y119.500 E1.68507
G1 X129.025 Y119.000 E1.68937
G1 X129.057 Y118.500 E1.69367
G1 X129.026 Y118.004 E1.69794
G1 X128.933 Y117.516 E1.70221
G1 X128.779 Y117.043 E1.70647
G1 X128.567 Y116.594 E1.71074
G1 X128.301 Y116.174 E1.71500
G1 X127.984 Y115.791 E1.71927
G1 X127.622 Y115.451 E1.72354
G1 X127.220 Y115.159 E1.72780
G1 X126.785 Y114.920 E1.73207
G1 X126.323 Y114.737 E1.73633
G1 X125.841 Y114.613 E1.74060
G1 X125.348 Y114.551 E1.74487
G1 X124.852 Y114.551 E1.74913
G1 X124.359 Y114.613 E1.75340
G1 X123.877 Y114.737 E1.75766
G1 X123.415 Y114.920 E1.76193
G1 X123.121 Y115.081 E1.76481
G1 X122.980 Y115.159 E1.76619
G1 X122.578 Y115.451 E1.77046
G1 X122.216 Y115.791 E1.77473
G1 X121.899 Y116.174 E1.77899
G1 X121.633 Y116.594 E1.78326
G1 X121.421 Y117.043 E1.78752
G1 X121.371 Y117.197 E1.78891
G1 X121.267 Y117.516 E1.79179
G1 X121.174 Y118.004 E1.79606
G1 X121.143 Y118.500 E1.80032
G1 X121.175 Y119.000 E1.80462
G1 X121.143 Y119.500 E1.80892
G1 X121.175 Y120.000 E1.81323
G1 X121.143 Y120.500 E1.81753
G1 X121.175 Y121.000 E1.82183
G1 X121.139 Y121.564 E1.82668
G1 X118.036 Y121.564 E1.85332
G1 X118.036 Y112.436 E1.93169
G1 X122.436 Y112.436 E1.96946
G1 X122.436 Y108.436 E2.00380
G1 X128.564 Y108.436 E2.05642
G1 X128.564 Y112.376 E2.09024
G1 X128.839 Y112.161 F12000.000
G1 X131.891 Y112.161 E2.11644 F600.000
G1 X132.004 Y112.179 E2.11743
G1 X132.098 Y112.227 E2.11834
G1 X132.173 Y112.302 E2.11924
G1 X132.221 Y112.396 E2.12015
G1 X132.239 Y112.509 E2.12113
G1 X132.239 Y121.491 E2.19824
G1 X132.221 Y121.604 E2.19922
G1 X132.173 Y121.698 E2.20013
G1 X132.098 Y121.773 E2.20104
G1 X132.004 Y121.821 E2.20194
G1 X131.891 Y121.839 E2.20293
G1 X128.761 Y121.839 E2.22980
G1 X128.782 Y121.500 E2.23271
G1 X128.746 Y121.000 E2.23701
G1 X128.782 Y120.500 E2.24132
G1 X128.746 Y120.000 E2.24562
G1 X128.782 Y119.500 E2.24993
G1 X128.746 Y119.000 E2.25423
G1 X128.782 Y118.500 E2.25853
G1 X128.753 Y118.039 E2.26250
G1 X128.666 Y117.584 E2.26647
G1 X128.523 Y117.145 E2.27044
G1 X128.327 Y116.726 E2.27441
G1 X128.079 Y116.336 E2.27838
G1 X127.784 Y115.980 E2.28235
G1 X127.447 Y115.663 E2.28632
G1 X127.073 Y115.391 E2.29029
G1 X126.668 Y115.168 E2.29426
G1 X126.238 Y114.998 E2.29823
G1 X125.790 Y114.883 E2.30220
G1 X125.331 Y114.825 E2.30617
G1 X124.869 Y114.825 E2.31014
G1 X124.410 Y114.883 E2.31411
G1 X123.962 Y114.998 E2.31808
G1 X123.532 Y115.168 E2.32205
G1 X123.253 Y115.322 E2.32478
G1 X123.127 Y115.391 E2.32602
G1 X122.753 Y115.663 E2.32999
G1 X122.416 Y115.980 E2.33396
G1 X122.121 Y116.336 E2.33793
G1 X121.873 Y116.726 E2.34189
G1 X121.677 Y117.145 E2.34586
G1 X121.632 Y117.281 E2.34710
G1 X121.534 Y117.584 E2.34983
G1 X121.447 Y118.039 E2.35380
G1 X121.418 Y118.500 E2.35777
G1 X121.454 Y119.000 E2.36208
G1 X121.418 Y119.500 E2.36638
G1 X121.454 Y120.000 E2.37068
G1 X121.418 Y120.500 E2.37499
G1 X121.454 Y121.000 E2.37929
G1 X121.418 Y121.500 E2.38360
G1 X121.439 Y121.839 E2.38651
G1 X118.109 Y121.839 E2.41510
G1 X117.996 Y121.821 E2.41608
G1 X117.902 Y121.773 E2.41699
G1 X117.827 Y121.698 E2.41789
G1 X117.779 Y121.604 E2.41880
G1 X117.761 Y121.491 E2.41979
G1 X117.761 Y112.509 E2.49689
G1 X117.779 Y112.396 E2.49788
G1 X117.827 Y112.302 E2.49878
G1 X117.902 Y112.227 E2.49969
G1 X117.996 Y112.179 E2.50059
G1 X118.109 Y112.161 E2.50158
G1 X122.161 Y112.161 E2.53637
G1 X122.161 Y108.509 E2.56772
G1 X122.179 Y108.396 E2.56871
G1 X122.227 Y108.302 E2.56961
G1 X122.302 Y108.227 E2.57052
G1 X122.396 Y108.179 E2.57142
G1 X122.509 Y108.161 E2.57241
G1 X128.491 Y108.161 E2.62376
G1 X128.604 Y108.179 E2.62475
G1 X128.698 Y108.227 E2.62565
G1 X128.773 Y108.302 E2.62656
G1 X128.821 Y108.396 E2.62746
G1 X128.839 Y108.509 E2.62845
G1 X128.839 Y112.101 E2.65929
G1 X128.839 Y112.561 F12000.000
G1 X127.213 Y114.638 F12000.000
G1 X122.889 Y110.314 E2.71179 F600.000
G1 X122.889 Y110.703 E2.71512
G1 X126.510 Y114.324 E2.75908
G1 X125.978 Y114.180 E2.76381
G1 X122.889 Y111.091 E2.80132
G1 X122.889 Y111.480 E2.80465
G1 X125.526 Y114.117 E2.83667
G1 X125.118 Y114.098 E2.84017
G1 X122.889 Y111.868 E2.86723
G1 X122.889 Y112.257 E2.87057
G1 X124.740 Y114.108 E2.89304
G1 X124.395 Y114.152 E2.89603
G1 X122.889 Y112.646 E2.91432
G1 X122.744 Y112.889 E2.91675
G1 X124.073 Y114.219 E2.93289
G1 X123.764 Y114.298 E2.93563
G1 X122.355 Y112.889 E2.95274
G1 X121.966 Y112.889 E2.95608
G1 X123.483 Y114.406 E2.97449
G1 X123.206 Y114.518 E2.97705
G1 X121.578 Y112.889 E2.99682
G1 X121.189 Y112.889 E3.00016
G1 X122.955 Y114.655 E3.02160
G1 X122.708 Y114.797 E3.02405
G1 X120.800 Y112.889 E3.04721
G1 X120.412 Y112.889 E3.05055
G1 X122.483 Y114.960 E3.07569
G1 X122.261 Y115.127 E3.07807
G1 X120.023 Y112.889 E3.10525
G1 X119.634 Y112.889 E3.10858
G1 X122.061 Y115.315 E3.13804
G1 X121.863 Y115.506 E3.14040
G1 X119.246 Y112.889 E3.17218
G1 X118.857 Y112.889 E3.17551
G1 X121.687 Y115.719 E3.20987
G1 X121.514 Y115.935 E3.21225
G1 X118.499 Y112.919 E3.24886
G1 X118.489 Y113.298 E3.25211
G1 X121.363 Y116.172 E3.28701
G1 X121.216 Y116.414 E3.28943
G1 X118.489 Y113.687 E3.32255
G1 X118.489 Y114.075 E3.32588
G1 X121.092 Y116.678 E3.35748
G1 X120.975 Y116.950 E3.36002
G1 X118.489 Y114.464 E3.39020
G1 X118.489 Y114.853 E3.39354
G1 X120.880 Y117.243 E3.42256
G1 X120.799 Y117.552 E3.42530
G1 X118.489 Y115.241 E3.45335
G1 X118.489 Y115.630 E3.45669
G1 X120.737 Y117.878 E3.48398
G1 X120.706 Y118.235 E3.48706
G1 X118.489 Y116.019 E3.51397
G1 X118.489 Y116.407 E3.51731
G1 X120.696 Y118.615 E3.54411
G1 X120.719 Y119.026 E3.54764
G1 X118.489 Y116.796 E3.57472
G1 X118.489 Y117.185 E3.57805
G1 X120.696 Y119.391 E3.60485
G1 X120.707 Y119.792 E3.60828
G1 X118.489 Y117.573 E3.63522
G1 X118.489 Y117.962 E3.63855
G1 X120.709 Y120.182 E3.66551
G1 X120.692 Y120.554 E3.66870
G1 X118.489 Y118.351 E3.69546
G1 X118.489 Y118.739 E3.69879
G1 X120.719 Y120.969 E3.72586
G1 X120.472 Y121.111 E3.72830
G1 X118.489 Y119.128 E3.75238
G1 X118.489 Y119.516 E3.75572
G1 X120.084 Y121.111 E3.77508
G1 X119.695 Y121.111 E3.77842
G1 X118.489 Y119.905 E3.79306
G1 X118.489 Y120.294 E3.79639
G1 X119.306 Y121.111 E3.80632
G1 X118.918 Y121.111 E3.80965
G1 X118.489 Y120.682 E3.81486
G1 X118.489 Y121.071 E3.81819
G1 X118.529 Y121.111 E3.81868
G1 F1800.000 E2.81868
G1 Z0.250 F12000.000
G92 E0
G1 X129.492 Y120.803 F12000.000
G1 Z0.200 F12000.000
G1 E1.00000 F1800.000
G1 X129.800 Y121.111 E1.00374 F600.000
G1 X130.188 Y121.111 E1.00707
G1 X129.506 Y120.429 E1.01535
G1 X129.480 Y120.014 E1.01892
G1 X130.577 Y121.111 E1.03223
G1 X130.966 Y121.111 E1.03557
G1 X129.502 Y119.647 E1.05334
G1 X129.495 Y119.252 E1.05673
G1 X131.354 Y121.111 E1.07930
G1 X131.511 Y120.879 E1.08171
G1 X129.488 Y118.857 E1.10626
G1 X129.510 Y118.490 E1.10942
G1 X131.511 Y120.491 E1.13371
G1 X131.511 Y120.102 E1.13704
G1 X129.484 Y118.075 E1.16165
G1 X129.413 Y117.615 E1.16565
G1 X131.511 Y119.713 E1.19112
G1 X131.511 Y119.325 E1.19446
G1 X129.268 Y117.081 E1.22169
G1 X128.979 Y116.404 F12000.000
G1 X131.511 Y118.936 E1.25243 F600.000
G1 X131.511 Y118.547 E1.25577
G1 X122.889 Y109.925 E1.36045
G1 X122.889 Y109.537 E1.36379
G1 X131.511 Y118.159 E1.46847
G1 X131.511 Y117.770 E1.47180
G1 X122.889 Y109.148 E1.57649
G1 X123.019 Y108.889 E1.57897
G1 X131.511 Y117.381 E1.68208
G1 X131.511 Y116.993 E1.68541
G1 X123.407 Y108.889 E1.78380
G1 X123.796 Y108.889 E1.78714
G1 X131.511 Y116.604 E1.88081
G1 X131.511 Y113.106 F12000.000
G1 X131.294 Y112.889 E1.88345 F600.000
G1 X130.905 Y112.889 E1.88678
G1 X131.511 Y113.495 E1.89414
G1 X131.511 Y113.884 E1.89748
G1 X130.516 Y112.889 E1.90955
G1 X130.128 Y112.889 E1.91289
G1 X131.511 Y114.272 E1.92968
G1 X131.511 Y114.661 E1.93302
G1 X129.739 Y112.889 E1.95453
G1 X129.351 Y112.889 E1.95787
G1 X131.511 Y115.049 E1.98410
G1 X131.511 Y115.438 E1.98743
G1 X128.962 Y112.889 E2.01838
G1 X128.573 Y112.889 E2.02172
G1 X131.511 Y115.827 E2.05739
G1 X131.511 Y116.215 E2.06072
G1 X124.185 Y108.889 E2.14967
G1 X124.573 Y108.889 E2.15301
G1 X128.111 Y112.427 E2.19596
G1 X128.111 Y112.038 E2.19930
G1 X124.962 Y108.889 E2.23753
G1 X125.351 Y108.889 E2.24087
G1 X128.111 Y111.650 E2.27439
G1 X128.111 Y111.261 E2.27772
G1 X125.739 Y108.889 E2.30652
G1 X126.128 Y108.889 E2.30986
G1 X128.111 Y110.872 E2.33393
G1 X128.111 Y110.484 E2.33727
G1 X126.516 Y108.889 E2.35663
G1 X126.905 Y108.889 E2.35997
G1 X128.111 Y110.095 E2.37461
G1 X128.111 Y109.706 E2.37794
G1 X127.294 Y108.889 E2.38787
G1 X127.682 Y108.889 E2.39120
G1 X128.111 Y109.318 E2.39641
G1 X128.111 Y108.929 E2.39974
G1 X128.071 Y108.889 E2.40023
G1 F1800.000 E1.40023
G1 Z0.250 F12000.000
G92 E0
G1 X128.290 Y87.290 F12000.000
G1 Z0.200 F12000.000
G1 E1.00000 F1800.000
G1 X128.290 Y91.290 E1.03434 F600.000
G1 X122.710 Y91.290 E1.08224
G1 X122.710 Y87.290 E1.11658
G1 X118.310 Y87.290 E1.15436
G1 X118.310 Y78.710 E1.22801
G1 X120.881 Y78.710 E1.25009
G1 X120.900 Y79.000 E1.25258
G1 X120.868 Y79.500 E1.25688
G1 X120.900 Y80.000 E1.26119
G1 X120.868 Y80.500 E1.26549
G1 X120.900 Y81.000 E1.26979
G1 X120.868 Y81.500 E1.27409
G1 X120.902 Y82.030 E1.27865
G1 X121.001 Y82.552 E1.28321
G1 X121.110 Y82.888 E1.28624
G1 X121.165 Y83.058 E1.28778
G1 X121.392 Y83.539 E1.29234
G1 X121.676 Y83.987 E1.29690
G1 X122.015 Y84.397 E1.30146
G1 X122.403 Y84.761 E1.30602
G1 X122.833 Y85.073 E1.31059
G1 X123.298 Y85.329 E1.31515
G1 X123.792 Y85.525 E1.31971
G1 X124.307 Y85.657 E1.32427
G1 X124.834 Y85.723 E1.32884
G1 X125.366 Y85.723 E1.33340
G1 X125.893 Y85.657 E1.33796
G1 X126.408 Y85.525 E1.34252
G1 X126.902 Y85.329 E1.34709
G1 X127.367 Y85.073 E1.35165
G1 X127.797 Y84.761 E1.35621
G1 X128.185 Y84.397 E1.36077
G1 X128.523 Y83.987 E1.36533
G1 X128.808 Y83.539 E1.36990
G1 X129.035 Y83.058 E1.37446
G1 X129.199 Y82.552 E1.37902
G1 X129.298 Y82.030 E1.38358
G1 X129.332 Y81.500 E1.38815
G1 X129.300 Y81.000 E1.39245
G1 X129.332 Y80.500 E1.39675
G1 X129.300 Y80.000 E1.40105
G1 X129.332 Y79.500 E1.40535
G1 X129.300 Y79.000 E1.40965
