; generated by Slic3r 1.1.7 on 2015-04-02 at 12:00:29

; perimeters extrusion width = 0.40mm
; infill extrusion width = 0.67mm
; solid infill extrusion width = 0.50mm
; top infill extrusion width = 0.30mm
; support material extrusion width = 0.40mm

G21 ; set units to millimeters
M107
M190 S70 ; wait for bed temperature to be reached
M104 S240 ; set temperature
G28 ; home all axes
M109 S240 ; wait for temperature to be reached
G90 ; use absolute coordinates
G92 E0
M82 ; use absolute distances for extrusion
M204 S500
G1 F1800.000 E-1.00000
G1 Z0.250 F12000.000
G92 E0
G1 X117.696 Y83.089 F12000.000
G1 Z0.200 F12000.000
G1 E1.00000 F1800.000
G1 X118.310 Y82.219 E1.00976 F600.000
G1 X119.831 Y80.953 E1.02789
G1 X120.309 Y80.639 E1.03313
G1 X122.721 Y79.527 E1.05747
G1 X125.186 Y79.177 E1.08028
G1 X125.814 Y79.177 E1.08603
G1 X128.440 Y79.575 E1.11037
G1 X130.691 Y80.639 E1.13318 F600.000
G1 X131.169 Y80.953 E1.13842
G1 X133.144 Y82.729 E1.16276
G1 X134.222 Y84.389 E1.18089
G1 X134.523 Y85.002 E1.18715
G1 X141.931 Y101.261 E1.35086
G1 X142.340 Y102.232 E1.36051
G1 X143.029 Y105.398 E1.39020
G1 X143.085 Y107.353 E1.40812
G1 X143.085 Y114.494 E1.47355
G1 X142.687 Y117.121 E1.49789
G1 X142.144 Y118.469 E1.51121
G1 X141.648 Y119.460 E1.52136
G1 X140.115 Y121.629 E1.54570
G1 X138.009 Y123.248 E1.57004
G1 X135.518 Y124.171 E1.59438
G1 X133.753 Y124.355 E1.61064
G1 X115.820 Y124.426 E1.77495
G1 X113.192 Y124.038 E1.79929
G1 X110.797 Y122.890 E1.82363
G1 X108.849 Y121.084 E1.84797
G1 X107.523 Y118.783 E1.87231
G1 X106.915 Y115.556 E1.90239
G1 X106.915 Y106.629 E1.98419
G1 X107.313 Y104.002 E2.00853
G1 X107.815 Y102.737 E2.02100
G1 X116.617 Y84.709 E2.20482
G1 X116.778 Y84.389 E2.20810
G1 X117.661 Y83.138 E2.22214
G1 X117.933 Y83.257 F12000.000
G1 X118.549 Y82.389 E2.23189 F600.000
G1 X119.990 Y81.195 E2.24904
G1 X120.468 Y80.881 E2.25428
G1 X122.844 Y79.793 E2.27822
G1 X125.186 Y79.467 E2.29989
G1 X125.814 Y79.467 E2.30564
G1 X128.396 Y79.865 E2.32957
G1 X130.532 Y80.881 E2.35125 F600.000
G1 X131.009 Y81.195 E2.35649
G1 X132.947 Y82.947 E2.38042
G1 X133.963 Y84.519 E2.39757
G1 X134.259 Y85.123 E2.40373
G1 X141.664 Y101.374 E2.56736
G1 X142.072 Y102.345 E2.57701
G1 X142.739 Y105.407 E2.60573
G1 X142.795 Y107.353 E2.62356
G1 X142.795 Y114.494 E2.68900
G1 X142.397 Y117.076 E2.71293
G1 X141.885 Y118.339 E2.72542
G1 X141.389 Y119.330 E2.73557
G1 X139.876 Y121.460 E2.75951
G1 X137.793 Y123.036 E2.78344
G1 X135.332 Y123.912 E2.80738
G1 X133.752 Y124.065 E2.82193
G1 X115.819 Y124.136 E2.98624
G1 X113.236 Y123.748 E3.01017
G1 X110.889 Y122.601 E3.03411
G1 X108.996 Y120.801 E3.05804
G1 X107.732 Y118.515 E3.08198
G1 X107.205 Y115.556 E3.10952
G1 X107.205 Y106.629 E3.19131
G1 X108.075 Y102.864 E3.22672
G1 X117.037 Y84.519 E3.41379
G1 X117.898 Y83.306 E3.42742
G1 X118.169 Y83.426 F12000.000
G1 X118.788 Y82.559 E3.43718 F600.000
G1 X120.150 Y81.438 E3.45334
G1 X120.628 Y81.123 E3.45858
G1 X122.965 Y80.060 E3.48211
G1 X125.186 Y79.757 E3.50265
G1 X125.814 Y79.757 E3.50840
G1 X128.350 Y80.155 E3.53193
G1 X130.372 Y81.123 E3.55246 F600.000
G1 X130.850 Y81.438 E3.55770
G1 X132.750 Y83.164 E3.58123
G1 X133.703 Y84.649 E3.59739
G1 X133.995 Y85.243 E3.60346
G1 X141.397 Y101.486 E3.76701
G1 X141.805 Y102.457 E3.77666
G1 X142.449 Y105.416 E3.80441
G1 X142.505 Y107.353 E3.82216
G1 X142.505 Y114.494 E3.88760
G1 X141.626 Y118.209 E3.92257
G1 X141.129 Y119.200 E3.93273
G1 X139.637 Y121.289 E3.95625
G1 X137.577 Y122.822 E3.97978
G1 X135.147 Y123.651 E4.00330
G1 X133.751 Y123.775 E4.01615
G1 X115.818 Y123.846 E4.18046
G1 X113.280 Y123.458 E4.20399
G1 X110.982 Y122.313 E4.22751
G1 X109.145 Y120.519 E4.25104
G1 X107.945 Y118.249 E4.27456
G1 X107.495 Y115.556 E4.29958
G1 X107.495 Y106.629 E4.38138
G1 X108.336 Y102.991 E4.41558
G1 X117.296 Y84.649 E4.60263
G1 X118.134 Y83.475 E4.61585
G1 F1800.000 E3.61585
G1 Z0.250 F12000.000
G92 E0
G1 X128.155 Y106.446 F12000.000
G1 Z0.200 F12000.000
G1 E1.00000 F1800.000
G1 X131.555 Y106.446 E1.03115 F600.000
G1 X131.555 Y114.756 E1.10729
G1 X130.137 Y114.756 E1.12028
G1 X130.127 Y114.601 E1.12171
G1 X130.159 Y114.101 E1.12630
G1 X130.119 Y113.467 E1.13212
G1 X130.000 Y112.843 E1.13794
G1 X129.803 Y112.239 E1.14376
G1 X129.533 Y111.664 E1.14958
G1 X129.192 Y111.128 E1.15540
G1 X128.788 Y110.638 E1.16122
G1 X128.324 Y110.203 E1.16704
G1 X127.810 Y109.830 E1.17286
G1 X127.254 Y109.524 E1.17868
G1 X126.663 Y109.290 E1.18450
G1 X126.048 Y109.132 E1.19032
G1 X125.418 Y109.053 E1.19614
G1 X124.782 Y109.053 E1.20196
G1 X124.152 Y109.132 E1.20778
G1 X123.537 Y109.290 E1.21361
G1 X122.946 Y109.524 E1.21943
G1 X122.553 Y109.740 E1.22353
G1 X122.390 Y109.830 E1.22525
G1 X121.876 Y110.203 E1.23107
G1 X121.412 Y110.638 E1.23689
G1 X121.008 Y111.128 E1.24271
G1 X120.667 Y111.664 E1.24853
G1 X120.397 Y112.239 E1.25435
G1 X120.200 Y112.843 E1.26017
G1 X120.081 Y113.467 E1.26599
G1 X120.041 Y114.101 E1.27181
G1 X120.073 Y114.601 E1.27640
G1 X120.063 Y114.756 E1.27782
G1 X118.445 Y114.756 E1.29265
G1 X118.445 Y106.446 E1.36879
G1 X122.845 Y106.446 E1.40910
G1 X122.845 Y102.446 E1.44575
G1 X128.155 Y102.446 E1.49440
G1 X128.155 Y106.386 E1.53050
G1 X128.445 Y106.156 F12000.000
G1 X131.845 Y106.156 E1.56166 F600.000
G1 X131.845 Y115.046 E1.64311
G1 X129.864 Y115.046 E1.66126
G1 X129.836 Y114.601 E1.66534
G1 X129.868 Y114.101 E1.66993
G1 X129.830 Y113.503 E1.67542
G1 X129.718 Y112.915 E1.68090
G1 X129.533 Y112.346 E1.68639
G1 X129.278 Y111.804 E1.69188
G1 X128.957 Y111.299 E1.69736
G1 X128.576 Y110.837 E1.70285
G1 X128.139 Y110.427 E1.70834
G1 X127.655 Y110.075 E1.71382
G1 X127.130 Y109.787 E1.71931
G1 X126.573 Y109.567 E1.72479
G1 X125.993 Y109.418 E1.73028
G1 X125.399 Y109.343 E1.73577
G1 X124.801 Y109.343 E1.74125
G1 X124.207 Y109.418 E1.74674
G1 X123.627 Y109.567 E1.75223
G1 X123.070 Y109.787 E1.75771
G1 X122.545 Y110.075 E1.76320
G1 X122.061 Y110.427 E1.76868
G1 X121.624 Y110.837 E1.77417
G1 X121.243 Y111.299 E1.77966
G1 X120.922 Y111.804 E1.78514
G1 X120.667 Y112.346 E1.79063
G1 X120.482 Y112.915 E1.79611
G1 X120.370 Y113.504 E1.80160
G1 X120.332 Y114.101 E1.80709
G1 X120.364 Y114.601 E1.81168
G1 X120.336 Y115.046 E1.81576
G1 X118.155 Y115.046 E1.83574
G1 X118.155 Y106.156 E1.91719
G1 X122.555 Y106.156 E1.95751
G1 X122.555 Y102.156 E1.99416
G1 X128.445 Y102.156 E2.04813
G1 X128.445 Y106.096 E2.08423
G1 X128.735 Y105.866 F12000.000
G1 X131.890 Y105.866 E2.11313 F600.000
G1 X132.037 Y105.912 E2.11455
G1 X132.122 Y106.029 E2.11587
G1 X132.135 Y106.111 E2.11663
G1 X132.135 Y115.091 E2.19891
G1 X132.122 Y115.173 E2.19967
G1 X132.037 Y115.290 E2.20099
G1 X131.890 Y115.336 E2.20241
G1 X129.562 Y115.336 E2.22373
G1 X129.577 Y115.101 E2.22589
G1 X129.546 Y114.601 E2.23048
G1 X129.577 Y114.101 E2.23507
G1 X129.542 Y113.540 E2.24022
G1 X129.437 Y112.988 E2.24538
G1 X129.263 Y112.453 E2.25053
G1 X129.023 Y111.944 E2.25568
G1 X128.722 Y111.469 E2.26083
G1 X128.364 Y111.036 E2.26598
G1 X127.954 Y110.651 E2.27113
G1 X127.499 Y110.321 E2.27629
G1 X127.006 Y110.050 E2.28144
G1 X126.484 Y109.843 E2.28659
G1 X125.939 Y109.703 E2.29174
G1 X125.381 Y109.633 E2.29689
G1 X124.819 Y109.633 E2.30205
G1 X124.261 Y109.703 E2.30720
G1 X123.716 Y109.843 E2.31235
G1 X123.194 Y110.050 E2.31750
G1 X122.701 Y110.321 E2.32265
G1 X122.246 Y110.651 E2.32780
G1 X121.836 Y111.036 E2.33296
G1 X121.478 Y111.469 E2.33811
G1 X121.177 Y111.944 E2.34326
G1 X120.937 Y112.453 E2.34841
G1 X120.763 Y112.988 E2.35356
G1 X120.658 Y113.540 E2.35871
G1 X120.623 Y114.101 E2.36387
G1 X120.654 Y114.601 E2.36846
G1 X120.623 Y115.101 E2.37305
G1 X120.637 Y115.336 E2.37520
G1 X118.110 Y115.336 E2.39836
G1 X117.963 Y115.290 E2.39978
G1 X117.878 Y115.173 E2.40110
G1 X117.865 Y115.091 E2.40186
G1 X117.865 Y106.111 E2.48414
G1 X117.878 Y106.029 E2.48490
G1 X117.963 Y105.912 E2.48622
G1 X118.110 Y105.866 E2.48764
G1 X122.265 Y105.866 E2.52571
G1 X122.265 Y102.111 E2.56011
G1 X122.278 Y102.029 E2.56087
G1 X122.363 Y101.912 E2.56220
G1 X122.510 Y101.866 E2.56361
G1 X128.490 Y101.866 E2.61840
G1 X128.637 Y101.912 E2.61981
G1 X128.722 Y102.029 E2.62113
G1 X128.735 Y102.111 E2.62190
G1 X128.735 Y105.806 E2.65575
G1 X128.735 Y106.266 F12000.000
G1 X131.365 Y106.907 F12000.000
G1 X131.094 Y106.637 E2.65926 F600.000
G1 X130.679 Y106.637 E2.66306
G1 X131.365 Y107.322 E2.67195
G1 X131.365 Y107.738 E2.67575
G1 X130.264 Y106.637 E2.69002
G1 X129.848 Y106.637 E2.69383
G1 X131.365 Y108.153 E2.71347
G1 X131.365 Y108.568 E2.71728
G1 X129.433 Y106.637 E2.74231
G1 X129.018 Y106.637 E2.74611
G1 X131.365 Y108.983 E2.77652
G1 X131.365 Y109.399 E2.78033
G1 X128.602 Y106.637 E2.81612
G1 X128.187 Y106.637 E2.81992
G1 X131.365 Y109.814 E2.86110
G1 X131.365 Y110.229 E2.86490
G1 X123.772 Y102.637 E2.96329
G1 X124.187 Y102.637 E2.96709
G1 X127.965 Y106.414 E3.01604
G1 X127.965 Y105.999 E3.01984
G1 X124.602 Y102.637 E3.06341
G1 X125.018 Y102.637 E3.06721
G1 X127.965 Y105.583 E3.10540
G1 X127.965 Y105.168 E3.10920
G1 X125.433 Y102.637 E3.14201
G1 X125.848 Y102.637 E3.14581
G1 X127.965 Y104.753 E3.17323
G1 X127.965 Y104.338 E3.17704
G1 X126.264 Y102.637 E3.19908
G1 X126.679 Y102.637 E3.20289
G1 X127.965 Y103.922 E3.21955
G1 X127.965 Y103.507 E3.22335
G1 X127.094 Y102.637 E3.23463
G1 X127.509 Y102.637 E3.23844
G1 X127.965 Y103.092 E3.24434
G1 X127.965 Y102.677 E3.24814
G1 X127.925 Y102.637 E3.24866
G1 F1800.000 E2.24866
G1 Z0.250 F12000.000
G92 E0
G1 X127.879 Y109.651 F12000.000
G1 Z0.200 F12000.000
G1 E1.00000 F1800.000
G1 X123.035 Y104.807 E1.06277 F600.000
G1 X123.035 Y105.222 E1.06657
G1 X127.053 Y109.240 E1.11864
G1 X126.433 Y109.035 E1.12463
G1 X123.035 Y105.637 E1.16865
G1 X123.035 Y106.053 E1.17246
G1 X125.905 Y108.922 E1.20964
G1 X125.430 Y108.862 E1.21403
G1 X123.035 Y106.468 E1.24506
G1 X122.789 Y106.637 E1.24780
G1 X125.015 Y108.862 E1.27664
G1 X124.619 Y108.881 E1.28027
G1 X122.374 Y106.637 E1.30936
G1 X121.958 Y106.637 E1.31317
G1 X124.250 Y108.928 E1.34286
G1 X123.906 Y108.999 E1.34608
G1 X121.543 Y106.637 E1.37670
G1 X121.128 Y106.637 E1.38050
G1 X123.575 Y109.084 E1.41221
G1 X123.268 Y109.192 E1.41520
G1 X120.713 Y106.637 E1.44831
G1 X120.297 Y106.637 E1.45211
G1 X122.970 Y109.310 E1.48675
G1 X122.692 Y109.447 E1.48960
G1 X119.882 Y106.637 E1.52601
G1 X119.467 Y106.637 E1.52981
G1 X122.424 Y109.594 E1.56814
G1 X122.170 Y109.755 E1.57089
G1 X119.051 Y106.637 E1.61130
G1 X118.656 Y106.656 E1.61493
G1 X121.929 Y109.929 E1.65734
G1 X121.696 Y110.111 E1.66005
G1 X118.635 Y107.051 E1.69971
G1 X118.635 Y107.466 E1.70352
G1 X121.482 Y110.312 E1.74040
G1 X121.268 Y110.514 E1.74309
G1 X118.635 Y107.881 E1.77720
G1 X118.635 Y108.297 E1.78101
G1 X121.080 Y110.742 E1.81269
G1 X120.892 Y110.969 E1.81539
G1 X118.635 Y108.712 E1.84463
G1 X118.635 Y109.127 E1.84844
G1 X120.725 Y111.217 E1.87552
G1 X120.564 Y111.471 E1.87828
G1 X118.635 Y109.543 E1.90327
G1 X118.635 Y109.958 E1.90707
G1 X120.420 Y111.742 E1.93020
G1 X120.287 Y112.025 E1.93306
G1 X118.635 Y110.373 E1.95446
G1 X118.635 Y110.788 E1.95827
G1 X120.170 Y112.322 E1.97815
G1 X120.068 Y112.636 E1.98117
G1 X118.635 Y111.204 E1.99973
G1 X118.635 Y111.619 E2.00353
G1 X119.983 Y112.967 E2.02099
G1 X119.917 Y113.315 E2.02425
G1 X118.635 Y112.034 E2.04085
G1 X118.635 Y112.449 E2.04465
G1 X119.877 Y113.691 E2.06074
G1 X119.852 Y114.081 E2.06432
G1 X118.635 Y112.865 E2.08009
G1 X118.635 Y113.280 E2.08390
G1 X119.877 Y114.522 E2.09999
G1 X119.506 Y114.566 E2.10341
G1 X118.635 Y113.695 E2.11469
G1 X118.635 Y114.110 E2.11850
G1 X119.091 Y114.566 E2.12440
G1 X118.675 Y114.566 E2.12820
G1 X118.635 Y114.526 E2.12872
G1 F1800.000 E1.12872
G1 Z0.250 F12000.000
G92 E0
G1 X129.524 Y111.296 F12000.000
G1 Z0.200 F12000.000
G1 E1.00000 F1800.000
G1 X131.365 Y113.136 E1.02385 F600.000
G1 X131.365 Y112.721 E1.02765
G1 X123.035 Y104.392 E1.13558
G1 X123.035 Y103.976 E1.13938
G1 X131.365 Y112.305 E1.24731
G1 X131.365 Y111.890 E1.25112
G1 X123.035 Y103.561 E1.35905
G1 X123.035 Y103.146 E1.36285
G1 X131.365 Y111.475 E1.47078
G1 X131.365 Y111.060 E1.47459
G1 X123.035 Y102.730 E1.58251
G1 X123.357 Y102.637 E1.58558
G1 X131.365 Y110.644 E1.68935
G1 X129.979 Y112.166 F12000.000
G1 X131.365 Y113.551 E1.70730 F600.000
G1 X131.365 Y113.967 E1.71110
G1 X130.180 Y112.782 E1.72646
G1 X130.280 Y113.297 E1.73127
G1 X131.365 Y114.382 E1.74532
G1 X131.133 Y114.566 E1.74803
G1 X130.328 Y113.760 E1.75847
G1 X130.344 Y114.191 E1.76242
G1 X130.718 Y114.566 E1.76728
G1 F1800.000 E0.76728
G1 Z0.250 F12000.000
G92 E0
G1 X125.742 Y89.152 F12000.000
G1 Z0.200 F12000.000
G1 E1.00000 F1800.000
G1 X125.601 Y89.245 E1.00154 F600.000
G1 X125.399 Y89.245 E1.00340
G1 X125.258 Y89.152 E1.00494
G1 X125.218 Y89.071 E1.00577
G1 X125.200 Y89.001 E1.00643
G1 X125.258 Y88.850 E1.00791
G1 X125.399 Y88.758 E1.00946
G1 X125.601 Y88.758 E1.01131
G1 X125.742 Y88.850 E1.01286
G1 X125.782 Y88.931 E1.01368
G1 X125.800 Y89.001 E1.01435
G1 X125.769 Y89.098 E1.01528
G1 X125.771 Y89.480 F12000.000
G1 X125.688 Y89.535 E1.01619 F600.000
G1 X125.312 Y89.535 E1.01964
G1 X125.034 Y89.351 E1.02269
G1 X124.944 Y89.173 E1.02452
G1 X124.901 Y89.001 E1.02615
G1 X124.944 Y88.829 E1.02777
G1 X125.034 Y88.651 E1.02960
G1 X125.229 Y88.522 E1.03174
G1 X125.312 Y88.468 E1.03265
G1 X125.688 Y88.468 E1.03610
G1 X125.966 Y88.651 E1.03915
G1 X126.056 Y88.829 E1.04098
G1 X126.099 Y89.001 E1.04261
G1 X126.056 Y89.173 E1.04423
G1 X125.966 Y89.351 E1.04606
G1 X125.821 Y89.447 E1.04765
G1 X125.930 Y89.722 F12000.000
G1 X125.775 Y89.825 E1.04936 F600.000
G1 X125.225 Y89.825 E1.05440
G1 X124.809 Y89.551 E1.05896
G1 X124.671 Y89.275 E1.06179
G1 X124.602 Y89.001 E1.06438
G1 X124.671 Y88.727 E1.06696
G1 X124.809 Y88.451 E1.06979
G1 X125.225 Y88.177 E1.07436
G1 X125.775 Y88.177 E1.07940
G1 X125.983 Y88.314 E1.08168
G1 X126.191 Y88.451 E1.08396 F600.000
G1 X126.329 Y88.727 E1.08679
G1 X126.398 Y89.001 E1.08938
G1 X126.329 Y89.275 E1.09196
G1 X126.191 Y89.551 E1.09479
G1 X125.981 Y89.689 E1.09710
G1 X126.146 Y88.503 F12000.000
M204 S500
G1 F1800.000 E0.09710
G1 Z0.250 F12000.000
G92 E0
G1 X124.070 Y93.669 F12000.000
G1 Z0.200 F12000.000
G1 E1.00000 F1800.000
G1 X123.965 Y93.880 E1.00297 F600.000
G1 X123.965 Y95.665 E1.02553
G1 X124.883 Y93.833 E1.05142
G1 X125.761 Y93.866 E1.06253
G1 X123.965 Y97.450 E1.11319
G1 X123.965 Y99.236 E1.13575
G1 X126.728 Y93.723 E1.21366
G1 X127.035 Y94.896 E1.22898
G1 X124.109 Y100.733 E1.31149
G1 X125.004 Y100.733 E1.32280
G1 X127.035 Y96.682 E1.38007
G1 X127.035 Y98.467 E1.40263
G1 X125.899 Y100.733 E1.43466
G1 X126.794 Y100.733 E1.44597
G1 X127.035 Y100.252 E1.45277
G1 X130.309 Y102.648 F12000.000
G1 X129.938 Y103.388 E1.46323 F600.000
G1 X130.815 Y103.424 E1.47432
G1 X130.258 Y104.533 E1.49000
G1 X131.153 Y104.533 E1.50131
G1 X131.528 Y103.787 E1.51187
G1 X132.392 Y103.848 E1.52281
G1 X132.041 Y104.548 E1.53271
G1 X132.802 Y104.815 E1.54291
G1 X133.137 Y104.147 E1.55234
G1 X133.755 Y104.700 E1.56282
G1 X133.347 Y105.514 E1.57433
G1 X134.163 Y105.670 E1.58483
G1 X133.468 Y107.057 E1.60443
G1 X134.215 Y107.353 E1.61458
G1 X133.468 Y108.843 E1.63564
G1 X134.215 Y109.138 E1.64579
G1 X133.468 Y110.628 E1.66685
G1 X134.215 Y110.924 E1.67700
G1 X133.468 Y112.414 E1.69806
G1 X134.215 Y112.709 E1.70821
G1 X133.268 Y114.598 E1.73492
G1 X133.718 Y115.485 E1.74749
G1 X134.215 Y114.494 E1.76149
G1 F1800.000 E0.76149
G1 Z0.250 F12000.000
G92 E0
G1 X120.415 Y104.533 F12000.000
G1 Z0.200 F12000.000
G1 E1.00000 F1800.000
G1 X121.132 Y103.102 E1.02023 F600.000
G1 X120.465 Y102.648 E1.03043
G1 X120.185 Y103.206 E1.03831
G1 X119.894 Y103.787 F12000.000
G1 X119.520 Y104.533 E1.04887 F600.000
G1 X118.625 Y104.533 E1.06018
G1 X119.000 Y103.787 E1.07073
G1 X118.105 Y103.787 E1.08204
G1 X117.703 Y104.589 E1.09339
G1 X117.086 Y104.034 E1.10387
G1 X115.785 Y106.629 E1.14055
G1 X116.532 Y106.924 E1.15070
G1 X115.785 Y108.414 E1.17176
G1 X116.532 Y108.709 E1.18191
G1 X115.785 Y110.199 E1.20297
G1 X116.532 Y110.495 E1.21312
G1 X115.785 Y111.985 E1.23418
G1 X116.532 Y112.280 E1.24433
G1 X115.785 Y113.770 E1.26539
G1 X115.785 Y115.556 E1.28795
G1 X116.532 Y114.066 E1.30901
M204 S1500
G1 F1800.000 E0.30901
G1 Z0.450 F12000.000
G92 E0
