; generated by Slic3r 1.1.7 on 2015-04-02 at 17:42:19

; perimeters extrusion width = 0.40mm
; infill extrusion width = 0.67mm
; solid infill extrusion width = 0.50mm
; top infill extrusion width = 0.30mm

G21 ; set units to millimeters
M107
M190 S70 ; wait for bed temperature to be reached
M104 S240 ; set temperature
G28 ; home all axes
M109 S240 ; wait for temperature to be reached
G90 ; use absolute coordinates
G92 E0
M82 ; use absolute distances for extrusion
M204 S500
G1 F1800.000 E-1.00000
G1 Z0.250 F12000.000
G92 E0
G1 X71.369 Y63.996 F12000.000
G1 Z0.200 F12000.000
G1 E1.00000 F1800.000
G1 X72.192 Y63.078 E1.01058 F600.000
G1 X73.512 Y61.934 E1.02558
G1 X73.771 Y61.746 E1.02833
G1 X74.966 Y60.963 E1.04059
G1 X75.247 Y60.809 E1.04334
G1 X76.529 Y60.183 E1.05559
G1 X76.827 Y60.065 E1.05834
G1 X78.179 Y59.605 E1.07060
G1 X79.889 Y59.238 E1.08561
G1 X80.207 Y59.198 E1.08836
G1 X81.629 Y59.088 E1.10061
G1 X82.775 Y59.103 E1.11045
G1 X170.476 Y64.158 E1.86461 F600.000
G1 X172.201 Y64.446 E1.87963
G1 X172.511 Y64.525 E1.88238
G1 X173.875 Y64.947 E1.89464
G1 X175.472 Y65.655 E1.90963
G1 X176.970 Y66.557 E1.92464
G1 X178.342 Y67.640 E1.93965
G1 X178.575 Y67.859 E1.94240
G1 X179.566 Y68.886 E1.95465
G1 X180.626 Y70.276 E1.96965
G1 X181.503 Y71.787 E1.98466
G1 X182.184 Y73.397 E1.99966
G1 X182.657 Y75.080 E2.01467
G1 X182.916 Y76.808 E2.02967
G1 X182.966 Y77.633 E2.03676
G1 X184.608 Y117.101 E2.37589
G1 X184.608 Y126.101 E2.45316
G1 X184.483 Y127.584 E2.46593
G1 X183.630 Y130.210 E2.48964
G1 X183.582 Y130.303 E2.49053
G1 X181.958 Y132.538 E2.51425
G1 X181.879 Y132.617 E2.51521
G1 X179.654 Y134.232 E2.53881
G1 X179.560 Y134.280 E2.53972
G1 X176.934 Y135.133 E2.56342
G1 X175.956 Y135.244 E2.57187
G1 X88.349 Y140.258 E3.32521
G1 X74.549 Y140.258 E3.44368
G1 X73.066 Y140.133 E3.45647
G1 X70.441 Y139.280 E3.48016
G1 X70.348 Y139.233 E3.48106
G1 X68.114 Y137.610 E3.50476
G1 X68.040 Y137.536 E3.50566
G1 X66.418 Y135.303 E3.52935
G1 X66.370 Y135.210 E3.53025
G1 X65.517 Y132.585 E3.55394
G1 X65.392 Y131.101 E3.56673
G1 X65.405 Y121.628 E3.64805
G1 X68.064 Y72.127 E4.07363
G1 X68.223 Y70.709 E4.08589
G1 X68.283 Y70.394 E4.08864
G1 X68.618 Y69.006 E4.10089
G1 X68.717 Y68.702 E4.10364
G1 X69.224 Y67.367 E4.11590
G1 X70.030 Y65.817 E4.13090
G1 X70.202 Y65.547 E4.13365
G1 X71.025 Y64.379 E4.14591
G1 X71.329 Y64.040 E4.14982
G1 X71.573 Y64.178 F12000.000
G1 X72.380 Y63.278 E4.16020 F600.000
G1 X73.673 Y62.156 E4.17490
G1 X73.932 Y61.967 E4.17765
G1 X75.099 Y61.204 E4.18962
G1 X75.379 Y61.049 E4.19237
G1 X76.630 Y60.438 E4.20432
G1 X76.928 Y60.320 E4.20707
G1 X78.247 Y59.871 E4.21903
G1 X79.923 Y59.510 E4.23375
G1 X80.241 Y59.470 E4.23650
G1 X81.629 Y59.363 E4.24845
G1 X82.759 Y59.377 E4.25816
G1 X170.442 Y64.430 E5.01216 F600.000
G1 X172.133 Y64.711 E5.02688
G1 X172.443 Y64.791 E5.02963
G1 X173.774 Y65.202 E5.04159
G1 X175.340 Y65.895 E5.05629
G1 X176.808 Y66.779 E5.07100
G1 X178.154 Y67.840 E5.08571
G1 X178.387 Y68.059 E5.08846
G1 X179.355 Y69.060 E5.10042
G1 X180.395 Y70.423 E5.11513
G1 X181.255 Y71.904 E5.12984
G1 X181.923 Y73.482 E5.14455
G1 X182.388 Y75.131 E5.15925
G1 X182.642 Y76.825 E5.17396
G1 X182.692 Y77.644 E5.18101
G1 X184.333 Y117.101 E5.52004
G1 X184.333 Y126.101 E5.59730
G1 X184.212 Y127.541 E5.60970
G1 X183.385 Y130.085 E5.63268
G1 X183.338 Y130.179 E5.63357
G1 X181.764 Y132.344 E5.65655
G1 X181.685 Y132.423 E5.65751
G1 X179.529 Y133.988 E5.68038
G1 X179.436 Y134.035 E5.68128
G1 X176.891 Y134.862 E5.70425
G1 X175.941 Y134.970 E5.71246
G1 X88.349 Y139.984 E6.46567
G1 X74.549 Y139.984 E6.58414
G1 X73.108 Y139.862 E6.59655
G1 X70.565 Y139.036 E6.61951
G1 X70.472 Y138.988 E6.62041
G1 X68.308 Y137.416 E6.64338
G1 X68.234 Y137.342 E6.64428
G1 X66.662 Y135.179 E6.66723
G1 X66.615 Y135.085 E6.66813
G1 X65.788 Y132.542 E6.69109
G1 X65.667 Y131.101 E6.70350
G1 X65.679 Y121.643 E6.78470
G1 X68.338 Y72.145 E7.21026
G1 X68.492 Y70.760 E7.22222
G1 X68.552 Y70.445 E7.22497
G1 X68.879 Y69.091 E7.23693
G1 X68.978 Y68.786 E7.23968
G1 X69.472 Y67.484 E7.25164
G1 X70.262 Y65.964 E7.26634
G1 X70.434 Y65.694 E7.26909
G1 X71.236 Y64.554 E7.28106
G1 X71.533 Y64.223 E7.28487
G1 X71.777 Y64.361 F12000.000
G1 X72.567 Y63.478 E7.29505 F600.000
G1 X73.834 Y62.378 E7.30945
G1 X75.231 Y61.444 E7.32387
G1 X76.731 Y60.693 E7.33828
G1 X78.315 Y60.136 E7.35269
G1 X79.957 Y59.782 E7.36711
G1 X81.629 Y59.637 E7.38152
G1 X82.744 Y59.650 E7.39109
G1 X170.407 Y64.702 E8.14493 F600.000
G1 X172.064 Y64.977 E8.15935
G1 X173.673 Y65.458 E8.17377
G1 X175.208 Y66.135 E8.18817
G1 X176.647 Y67.001 E8.20259
G1 X177.966 Y68.040 E8.21700
G1 X179.144 Y69.235 E8.23141
G1 X180.163 Y70.570 E8.24582
G1 X181.007 Y72.021 E8.26024
G1 X181.662 Y73.567 E8.27465
G1 X182.118 Y75.182 E8.28906
G1 X182.369 Y76.843 E8.30347
G1 X182.418 Y77.656 E8.31047
G1 X184.059 Y117.101 E8.64940
G1 X184.059 Y126.101 E8.72667
G1 X183.941 Y127.498 E8.73870
G1 X183.141 Y129.961 E8.76093
G1 X183.093 Y130.054 E8.76183
G1 X181.570 Y132.150 E8.78407
G1 X181.491 Y132.229 E8.78503
G1 X179.405 Y133.743 E8.80716
G1 X179.311 Y133.791 E8.80807
G1 X176.849 Y134.591 E8.83030
G1 X175.925 Y134.696 E8.83828
G1 X88.349 Y139.709 E9.59135
G1 X74.549 Y139.709 E9.70982
G1 X73.151 Y139.591 E9.72186
G1 X70.690 Y138.791 E9.74408
G1 X70.597 Y138.744 E9.74498
G1 X68.502 Y137.222 E9.76721
G1 X68.428 Y137.148 E9.76811
G1 X66.907 Y135.054 E9.79033
G1 X66.859 Y134.961 E9.79122
G1 X66.059 Y132.499 E9.81345
G1 X65.941 Y131.101 E9.82549
G1 X65.953 Y121.658 E9.90656
G1 X68.611 Y72.162 E10.33210
G1 X68.762 Y70.812 E10.34376
G1 X69.140 Y69.176 E10.35817
G1 X69.721 Y67.601 E10.37259
G1 X70.494 Y66.111 E10.38699
G1 X71.448 Y64.729 E10.40141
G1 X71.737 Y64.406 E10.40514
G1 F1800.000 E9.40514
G1 Z0.250 F12000.000
G92 E0
G1 X128.165 Y104.936 F12000.000
G1 Z0.200 F12000.000
G1 E1.00000 F1800.000
G1 X131.565 Y104.936 E1.02919 F600.000
G1 X131.565 Y113.266 E1.10071
G1 X129.266 Y113.266 E1.12045
G1 X129.255 Y113.101 E1.12187
G1 X129.287 Y112.601 E1.12617
G1 X129.255 Y112.101 E1.13047
G1 X129.287 Y111.601 E1.13478
G1 X129.255 Y111.101 E1.13908
G1 X129.287 Y110.601 E1.14338
G1 X129.254 Y110.076 E1.14789
G1 X129.155 Y109.560 E1.15240
G1 X128.993 Y109.060 E1.15692
G1 X128.769 Y108.584 E1.16143
G1 X128.487 Y108.140 E1.16595
G1 X128.152 Y107.735 E1.17046
G1 X127.769 Y107.375 E1.17497
G1 X127.343 Y107.066 E1.17949
G1 X126.883 Y106.813 E1.18400
G1 X126.394 Y106.619 E1.18851
G1 X125.885 Y106.489 E1.19303
G1 X125.363 Y106.423 E1.19754
G1 X124.837 Y106.423 E1.20206
G1 X124.315 Y106.489 E1.20657
G1 X123.806 Y106.619 E1.21108
G1 X123.317 Y106.813 E1.21560
G1 X122.857 Y107.066 E1.22011
G1 X122.431 Y107.375 E1.22462
G1 X122.048 Y107.735 E1.22914
G1 X121.713 Y108.140 E1.23365
G1 X121.431 Y108.584 E1.23817
G1 X121.207 Y109.060 E1.24268
G1 X121.045 Y109.560 E1.24719
G1 X120.946 Y110.076 E1.25171
G1 X120.913 Y110.601 E1.25622
G1 X120.945 Y111.101 E1.26052
G1 X120.913 Y111.601 E1.26482
G1 X120.945 Y112.101 E1.26912
G1 X120.913 Y112.601 E1.27342
G1 X120.945 Y113.101 E1.27772
G1 X120.934 Y113.266 E1.27915
G1 X118.435 Y113.266 E1.30061
G1 X118.435 Y104.936 E1.37213
G1 X122.835 Y104.936 E1.40990
G1 X122.835 Y100.936 E1.44424
G1 X128.165 Y100.936 E1.49000
G1 X128.165 Y104.876 E1.52383
G1 X128.440 Y104.661 F12000.000
G1 X131.840 Y104.661 E1.55302 F600.000
G1 X131.840 Y113.541 E1.62925
G1 X129.008 Y113.541 E1.65356
G1 X128.980 Y113.101 E1.65734
G1 X129.012 Y112.601 E1.66164
G1 X128.980 Y112.101 E1.66594
G1 X129.012 Y111.601 E1.67024
G1 X128.980 Y111.101 E1.67454
G1 X129.012 Y110.601 E1.67884
G1 X128.981 Y110.111 E1.68306
G1 X128.889 Y109.628 E1.68728
G1 X128.737 Y109.161 E1.69149
G1 X128.528 Y108.717 E1.69571
G1 X128.265 Y108.302 E1.69993
G1 X127.952 Y107.923 E1.70415
G1 X127.593 Y107.587 E1.70836
G1 X127.196 Y107.298 E1.71258
G1 X126.766 Y107.062 E1.71680
G1 X126.309 Y106.881 E1.72102
G1 X125.833 Y106.759 E1.72523
G1 X125.346 Y106.697 E1.72945
G1 X124.854 Y106.697 E1.73367
G1 X124.367 Y106.759 E1.73788
G1 X123.891 Y106.881 E1.74210
G1 X123.434 Y107.062 E1.74632
G1 X123.004 Y107.298 E1.75054
G1 X122.607 Y107.587 E1.75475
G1 X122.248 Y107.923 E1.75897
G1 X121.935 Y108.302 E1.76319
G1 X121.672 Y108.717 E1.76741
G1 X121.463 Y109.161 E1.77162
G1 X121.367 Y109.456 E1.77428
G1 X121.311 Y109.628 E1.77584
G1 X121.219 Y110.111 E1.78006
G1 X121.188 Y110.601 E1.78428
G1 X121.220 Y111.101 E1.78858
G1 X121.188 Y111.601 E1.79288
G1 X121.220 Y112.101 E1.79718
G1 X121.188 Y112.601 E1.80148
G1 X121.220 Y113.101 E1.80578
G1 X121.192 Y113.541 E1.80956
G1 X118.160 Y113.541 E1.83559
G1 X118.160 Y104.661 E1.91182
G1 X122.560 Y104.661 E1.94959
G1 X122.560 Y100.661 E1.98393
G1 X128.440 Y100.661 E2.03441
G1 X128.440 Y104.601 E2.06823
G1 X128.714 Y104.387 F12000.000
G1 X131.891 Y104.387 E2.09550 F600.000
G1 X132.025 Y104.429 E2.09671
G1 X132.102 Y104.535 E2.09784
G1 X132.114 Y113.592 E2.17559
G1 X132.102 Y113.667 E2.17624
G1 X132.025 Y113.773 E2.17737
G1 X131.891 Y113.815 E2.17857
G1 X128.723 Y113.815 E2.20576
G1 X128.737 Y113.601 E2.20760
G1 X128.700 Y113.101 E2.21191
G1 X128.737 Y112.601 E2.21621
G1 X128.700 Y112.101 E2.22052
G1 X128.737 Y111.601 E2.22482
G1 X128.700 Y111.101 E2.22913
G1 X128.737 Y110.601 E2.23343
G1 X128.708 Y110.145 E2.23735
G1 X128.623 Y109.697 E2.24127
G1 X128.482 Y109.262 E2.24519
G1 X128.287 Y108.849 E2.24911
G1 X128.042 Y108.463 E2.25304
G1 X127.751 Y108.111 E2.25696
G1 X127.418 Y107.799 E2.26088
G1 X127.049 Y107.530 E2.26480
G1 X126.649 Y107.310 E2.26872
G1 X126.224 Y107.142 E2.27264
G1 X125.781 Y107.029 E2.27656
G1 X125.328 Y106.971 E2.28048
G1 X124.872 Y106.971 E2.28440
G1 X124.418 Y107.029 E2.28832
G1 X123.976 Y107.142 E2.29225
G1 X123.551 Y107.310 E2.29617
G1 X123.151 Y107.530 E2.30009
G1 X122.914 Y107.702 E2.30260
G1 X122.782 Y107.799 E2.30401
G1 X122.449 Y108.111 E2.30793
G1 X122.158 Y108.463 E2.31185
G1 X121.913 Y108.849 E2.31577
G1 X121.718 Y109.262 E2.31969
G1 X121.628 Y109.541 E2.32220
G1 X121.577 Y109.697 E2.32361
G1 X121.492 Y110.145 E2.32753
G1 X121.463 Y110.601 E2.33146
G1 X121.500 Y111.101 E2.33576
G1 X121.463 Y111.601 E2.34006
G1 X121.500 Y112.101 E2.34437
G1 X121.463 Y112.601 E2.34867
G1 X121.500 Y113.101 E2.35298
G1 X121.463 Y113.601 E2.35728
G1 X121.477 Y113.815 E2.35912
G1 X118.109 Y113.815 E2.38803
G1 X118.034 Y113.803 E2.38868
G1 X117.928 Y113.726 E2.38981
G1 X117.886 Y113.592 E2.39102
G1 X117.898 Y104.535 E2.46876
G1 X117.975 Y104.429 E2.46989
G1 X118.109 Y104.387 E2.47110
G1 X122.286 Y104.387 E2.50696
G1 X122.286 Y100.611 E2.53938
G1 X122.298 Y100.535 E2.54003
G1 X122.375 Y100.429 E2.54116
G1 X122.509 Y100.387 E2.54237
G1 X128.491 Y100.387 E2.59372
G1 X128.625 Y100.429 E2.59492
G1 X128.702 Y100.535 E2.59605
G1 X128.714 Y100.610 E2.59670
G1 X128.714 Y104.327 E2.62861
G1 X128.714 Y104.787 F12000.000
G1 X127.462 Y106.932 F12000.000
G1 X123.014 Y102.483 E2.68262 F600.000
G1 X123.014 Y102.089 E2.68600
G1 X131.386 Y110.462 E2.78766
G1 X131.386 Y110.068 E2.79104
G1 X123.014 Y101.695 E2.89270
G1 X123.014 Y101.301 E2.89608
G1 X131.386 Y109.674 E2.99773
G1 X131.386 Y109.280 E3.00111
G1 X123.221 Y101.115 E3.10025
G1 X123.615 Y101.115 E3.10363
G1 X131.386 Y108.887 E3.19799
G1 X131.386 Y110.856 F12000.000
G1 X128.747 Y108.217 E3.23003 F600.000
G1 X129.173 Y109.036 F12000.000
G1 X131.386 Y111.249 E3.25691 F600.000
G1 X131.386 Y111.643 E3.26029
G1 X129.345 Y109.602 E3.28507
G1 X129.433 Y110.084 E3.28927
G1 X131.386 Y112.037 E3.31299
G1 X131.386 Y112.431 E3.31637
G1 X129.460 Y110.504 E3.33976
G1 X129.448 Y110.886 E3.34304
G1 X131.386 Y112.825 E3.36658
G1 X131.255 Y113.088 E3.36910
G1 X129.446 Y111.278 E3.39107
G1 X129.460 Y111.686 E3.39458
G1 X130.862 Y113.088 E3.41159
G1 X130.468 Y113.088 E3.41498
G1 X129.437 Y112.057 E3.42749
G1 X129.458 Y112.471 E3.43105
G1 X130.074 Y113.088 E3.43853
G1 X129.680 Y113.088 E3.44191
G1 X129.450 Y112.857 E3.44471
G1 F1800.000 E2.44471
G1 Z0.250 F12000.000
G92 E0
G1 X126.675 Y106.539 F12000.000
G1 Z0.200 F12000.000
G1 E1.00000 F1800.000
G1 X123.014 Y102.877 E1.04446 F600.000
G1 X123.014 Y103.270 E1.04784
G1 X126.103 Y106.360 E1.08535
G1 X125.625 Y106.275 E1.08952
G1 X123.014 Y103.664 E1.12123
G1 X123.014 Y104.058 E1.12461
G1 X125.199 Y106.244 E1.15115
G1 X124.808 Y106.246 E1.15451
G1 X123.014 Y104.452 E1.17629
G1 X123.014 Y104.846 E1.17967
G1 X124.458 Y106.290 E1.19721
G1 X124.127 Y106.352 E1.20011
G1 X122.889 Y105.115 E1.21514
G1 X122.495 Y105.115 E1.21852
G1 X123.813 Y106.433 E1.23452
G1 X123.525 Y106.538 E1.23716
G1 X122.101 Y105.115 E1.25444
G1 X121.707 Y105.115 E1.25782
G1 X123.243 Y106.650 E1.27646
G1 X122.988 Y106.790 E1.27895
G1 X121.314 Y105.115 E1.29929
G1 X120.920 Y105.115 E1.30267
G1 X122.737 Y106.932 E1.32473
G1 X122.509 Y107.098 E1.32715
G1 X120.526 Y105.115 E1.35123
G1 X120.132 Y105.115 E1.35461
G1 X122.285 Y107.267 E1.38075
G1 X122.082 Y107.458 E1.38314
G1 X119.738 Y105.115 E1.41159
G1 X119.345 Y105.115 E1.41497
G1 X121.883 Y107.654 E1.44580
G1 X121.705 Y107.869 E1.44820
G1 X118.951 Y105.115 E1.48164
G1 X118.614 Y105.171 E1.48457
G1 X121.533 Y108.090 E1.52001
G1 X121.380 Y108.331 E1.52246
G1 X118.614 Y105.565 E1.55605
G1 X118.614 Y105.959 E1.55943
G1 X121.235 Y108.581 E1.59126
G1 X121.109 Y108.848 E1.59380
G1 X118.614 Y106.353 E1.62410
G1 X118.614 Y106.747 E1.62748
G1 X120.997 Y109.130 E1.65641
G1 X120.900 Y109.427 E1.65910
G1 X118.614 Y107.140 E1.68686
G1 X118.614 Y107.534 E1.69024
G1 X120.827 Y109.748 E1.71711
G1 X120.767 Y110.081 E1.72002
G1 X118.614 Y107.928 E1.74616
G1 X118.614 Y108.322 E1.74954
G1 X120.743 Y110.452 E1.77540
G1 X120.750 Y110.852 E1.77884
G1 X118.614 Y108.716 E1.80478
G1 X118.614 Y109.109 E1.80816
G1 X120.756 Y111.252 E1.83417
G1 X120.736 Y111.625 E1.83738
G1 X118.614 Y109.503 E1.86314
G1 X118.614 Y109.897 E1.86652
G1 X120.762 Y112.046 E1.89261
G1 X120.745 Y112.423 E1.89585
G1 X118.614 Y110.291 E1.92173
G1 X118.614 Y110.685 E1.92511
G1 X120.748 Y112.819 E1.95102
G1 X120.623 Y113.088 E1.95357
G1 X118.614 Y111.078 E1.97796
G1 X118.614 Y111.472 E1.98134
G1 X120.229 Y113.088 E2.00095
G1 X119.835 Y113.088 E2.00433
G1 X118.614 Y111.866 E2.01916
G1 X118.614 Y112.260 E2.02254
G1 X119.441 Y113.088 E2.03259
G1 X119.047 Y113.088 E2.03597
G1 X118.614 Y112.654 E2.04124
G1 X118.614 Y113.048 E2.04462
G1 X118.654 Y113.088 E2.04511
G1 F1800.000 E1.04511
G1 Z0.250 F12000.000
G92 E0
G1 X131.386 Y105.342 F12000.000
G1 Z0.200 F12000.000
G1 E1.00000 F1800.000
G1 X131.159 Y105.115 E1.00276 F600.000
G1 X130.765 Y105.115 E1.00614
G1 X131.386 Y105.736 E1.01369
G1 X131.386 Y106.130 E1.01707
G1 X130.371 Y105.115 E1.02940
G1 X129.977 Y105.115 E1.03278
G1 X131.386 Y106.524 E1.04988
G1 X131.386 Y106.918 E1.05327
G1 X129.584 Y105.115 E1.07515
G1 X129.190 Y105.115 E1.07853
G1 X131.386 Y107.311 E1.10520
G1 X131.386 Y107.705 E1.10859
G1 X128.796 Y105.115 E1.14004
G1 X128.402 Y105.115 E1.14342
G1 X131.386 Y108.099 E1.17965
G1 X131.386 Y108.493 E1.18303
G1 X124.008 Y101.115 E1.27261
G1 X124.402 Y101.115 E1.27599
G1 X127.986 Y104.699 E1.31951
G1 X127.986 Y104.305 E1.32289
G1 X124.796 Y101.115 E1.36162
G1 X125.190 Y101.115 E1.36500
G1 X127.986 Y103.911 E1.39896
G1 X127.986 Y103.518 E1.40234
G1 X125.584 Y101.115 E1.43151
G1 X125.977 Y101.115 E1.43489
G1 X127.986 Y103.124 E1.45928
G1 X127.986 Y102.730 E1.46267
G1 X126.371 Y101.115 E1.48228
G1 X126.765 Y101.115 E1.48566
G1 X127.986 Y102.336 E1.50049
G1 X127.986 Y101.942 E1.50387
G1 X127.159 Y101.115 E1.51392
G1 X127.553 Y101.115 E1.51730
G1 X127.986 Y101.548 E1.52256
G1 X127.986 Y101.155 E1.52594
G1 X127.946 Y101.115 E1.52643
G1 F1800.000 E0.52643
G1 Z0.250 F12000.000
G92 E0
G1 X126.330 Y94.853 F12000.000
G1 Z0.200 F12000.000
G1 E1.00000 F1800.000
G1 X125.778 Y94.922 E1.00478 F600.000
G1 X125.222 Y94.922 E1.00955
G1 X124.670 Y94.853 E1.01433
G1 X124.131 Y94.714 E1.01910
G1 X123.614 Y94.509 E1.02388
G1 X123.126 Y94.241 E1.02866
G1 X122.676 Y93.914 E1.03343
G1 X122.271 Y93.534 E1.03821
G1 X121.916 Y93.105 E1.04298
G1 X121.618 Y92.635 E1.04776
G1 X121.381 Y92.132 E1.05254
G1 X121.209 Y91.603 E1.05731
G1 X121.105 Y91.056 E1.06209
G1 X121.070 Y90.501 E1.06686
G1 X121.105 Y89.946 E1.07164
G1 X121.157 Y89.673 E1.07403
G1 X121.209 Y89.399 E1.07642
