; generated by Slic3r 1.1.7 on 2015-04-01 at 14:54:42

; perimeters extrusion width = 0.40mm
; infill extrusion width = 0.67mm
; solid infill extrusion width = 0.50mm
; top infill extrusion width = 0.30mm
; support material extrusion width = 0.40mm

G21 ; set units to millimeters
M107
M190 S20 ; wait for bed temperature to be reached
M104 S200 ; set temperature
G28 ; home all axes
M109 S200 ; wait for temperature to be reached
G90 ; use absolute coordinates
G92 E0
M82 ; use absolute distances for extrusion
M204 S1000
G1 F1800.000 E-1.00000
G1 Z0.350 F12000.000
G92 E0
G1 X119.359 Y84.476 F12000.000
G1 Z0.300 F12000.000
G1 E1.00000 F1800.000
G1 X119.482 Y84.315 E1.00380 F1778.730
G1 X121.043 Y82.862 E1.04370
G1 X121.675 Y82.446 E1.05785
G1 X123.745 Y81.558 E1.10000
G1 X125.189 Y81.393 E1.12720
G1 X125.811 Y81.393 E1.13883
G1 X128.028 Y81.790 E1.18097
G1 X129.325 Y82.446 E1.20817 F1778.730
G1 X129.957 Y82.862 E1.22232
G1 X131.518 Y84.315 E1.26222
G1 X131.641 Y84.476 E1.26602
G1 X132.417 Y85.787 E1.29452
G1 X139.647 Y102.222 E1.63045
G1 X140.055 Y103.193 E1.65015
G1 X140.552 Y105.474 E1.69383
G1 X140.607 Y107.353 E1.72900
G1 X140.607 Y114.494 E1.86261
G1 X139.929 Y117.359 E1.91768
G1 X139.391 Y118.432 E1.94015
G1 X138.043 Y120.237 E1.98229
G1 X136.152 Y121.461 E2.02444
G1 X133.734 Y121.960 E2.07063
G1 X131.900 Y121.976 E2.10495
G1 X118.022 Y121.976 E2.36460
G1 X115.707 Y121.947 E2.40791
G1 X113.495 Y121.523 E2.45005
G1 X111.567 Y120.358 E2.49220
G1 X110.163 Y118.597 E2.53434
G1 X109.393 Y115.556 E2.59303
G1 X109.393 Y106.629 E2.76006
G1 X110.008 Y103.893 E2.81251
G1 X118.657 Y85.627 E3.19064
G1 X119.327 Y84.528 E3.21473
G1 F1800.000 E2.21473
G1 Z0.350 F12000.000
G92 E0
G1 X128.396 Y106.205 F12000.000
G1 Z0.300 F12000.000
G1 E1.00000 F1800.000
G1 X131.796 Y106.205 E1.06361 F2032.834
G1 X131.796 Y114.997 E1.22810
G1 X130.070 Y114.997 E1.26039
G1 X130.045 Y114.601 E1.26781
G1 X130.077 Y114.101 E1.27718
G1 X130.037 Y113.477 E1.28888
G1 X129.920 Y112.863 E1.30057
G1 X129.727 Y112.269 E1.31226
G1 X129.461 Y111.704 E1.32395
G1 X129.126 Y111.176 E1.33565
G1 X128.728 Y110.694 E1.34734
G1 X128.272 Y110.266 E1.35903
G1 X127.767 Y109.899 E1.37073
G1 X127.219 Y109.598 E1.38242
G1 X126.638 Y109.368 E1.39411
G1 X126.033 Y109.213 E1.40581
G1 X125.413 Y109.134 E1.41750
G1 X124.787 Y109.134 E1.42919
G1 X124.167 Y109.213 E1.44088
G1 X123.562 Y109.368 E1.45258
G1 X122.981 Y109.598 E1.46427
G1 X122.551 Y109.834 E1.47345
G1 X122.433 Y109.899 E1.47596
G1 X121.928 Y110.266 E1.48766
G1 X121.472 Y110.694 E1.49935
G1 X121.074 Y111.176 E1.51104
G1 X120.739 Y111.704 E1.52274
G1 X120.473 Y112.269 E1.53443
G1 X120.280 Y112.863 E1.54612
G1 X120.163 Y113.477 E1.55782
G1 X120.123 Y114.101 E1.56951
G1 X120.155 Y114.601 E1.57888
G1 X120.130 Y114.997 E1.58630
G1 X118.204 Y114.997 E1.62233
G1 X118.204 Y106.205 E1.78682
G1 X122.604 Y106.205 E1.86914
G1 X122.604 Y102.205 E1.94398
G1 X128.396 Y102.205 E2.05234
G1 X128.396 Y106.145 E2.12606
G1 X128.788 Y105.813 F12000.000
G1 X131.885 Y105.813 E2.18399 F1270.521
G1 X131.988 Y105.830 E2.18595
G1 X132.068 Y105.870 E2.18763
G1 X132.131 Y105.933 E2.18930
G1 X132.172 Y106.013 E2.19097
G1 X132.188 Y106.116 E2.19293
G1 X132.188 Y115.086 E2.36074
G1 X132.172 Y115.189 E2.36271
G1 X132.131 Y115.269 E2.36438
G1 X132.068 Y115.332 E2.36605
G1 X131.988 Y115.373 E2.36772
G1 X131.885 Y115.389 E2.36968
G1 X129.666 Y115.389 E2.41120
G1 X129.684 Y115.101 E2.41660
G1 X129.652 Y114.601 E2.42597
G1 X129.684 Y114.101 E2.43534
G1 X129.648 Y113.527 E2.44612
G1 X129.540 Y112.961 E2.45688
G1 X129.362 Y112.414 E2.46765
G1 X129.117 Y111.893 E2.47842
G1 X128.808 Y111.407 E2.48919
G1 X128.441 Y110.963 E2.49996
G1 X128.022 Y110.569 E2.51073
G1 X127.556 Y110.231 E2.52150
G1 X127.052 Y109.954 E2.53227
G1 X126.516 Y109.742 E2.54304
G1 X125.959 Y109.599 E2.55381
G1 X125.388 Y109.526 E2.56458
G1 X124.812 Y109.526 E2.57535
G1 X124.241 Y109.599 E2.58612
G1 X123.684 Y109.742 E2.59689
G1 X123.148 Y109.954 E2.60766
G1 X122.644 Y110.231 E2.61843
G1 X122.178 Y110.569 E2.62920
G1 X121.759 Y110.963 E2.63997
G1 X121.392 Y111.407 E2.65074
G1 X121.083 Y111.893 E2.66151
G1 X120.838 Y112.414 E2.67228
G1 X120.660 Y112.961 E2.68305
G1 X120.552 Y113.527 E2.69382
G1 X120.516 Y114.101 E2.70459
G1 X120.548 Y114.601 E2.71397
G1 X120.516 Y115.101 E2.72334
G1 X120.534 Y115.389 E2.72874
G1 X118.115 Y115.389 E2.77400
G1 X118.012 Y115.373 E2.77596
G1 X117.932 Y115.332 E2.77763
G1 X117.869 Y115.269 E2.77930
G1 X117.828 Y115.189 E2.78097
G1 X117.812 Y115.086 E2.78293
G1 X117.812 Y106.116 E2.95075
G1 X117.828 Y106.013 E2.95271
G1 X117.869 Y105.933 E2.95438
G1 X117.932 Y105.870 E2.95605
G1 X118.012 Y105.830 E2.95772
G1 X118.115 Y105.813 E2.95969
G1 X122.212 Y105.813 E3.03633
G1 X122.212 Y102.116 E3.10550
G1 X122.228 Y102.013 E3.10746
G1 X122.269 Y101.933 E3.10913
G1 X122.332 Y101.870 E3.11080
G1 X122.412 Y101.830 E3.11247
G1 X122.515 Y101.813 E3.11443
G1 X128.485 Y101.813 E3.22612
G1 X128.588 Y101.830 E3.22808
G1 X128.668 Y101.870 E3.22975
G1 X128.731 Y101.933 E3.23142
G1 X128.772 Y102.013 E3.23309
G1 X128.788 Y102.116 E3.23506
G1 X128.788 Y105.753 E3.30310
G1 X128.788 Y106.213 F12000.000
G1 F1800.000 E2.30310
G1 Z0.350 F12000.000
G92 E0
G1 X131.423 Y114.624 F12000.000
G1 Z0.300 F12000.000
G1 E1.00000 F1800.000
G1 X130.420 Y114.624 E1.01877 F1524.626
G1 X130.450 Y114.101 E1.02858
G1 X130.408 Y113.430 E1.04115
G1 X130.282 Y112.771 E1.05372
G1 X130.074 Y112.132 E1.06629
G1 X129.788 Y111.524 E1.07886
G1 X129.428 Y110.957 E1.09143
G1 X129.000 Y110.439 E1.10400
G1 X128.510 Y109.979 E1.11657
G1 X127.967 Y109.584 E1.12914
G1 X127.378 Y109.260 E1.14171
G1 X126.753 Y109.013 E1.15428
G1 X126.102 Y108.846 E1.16685
G1 X125.436 Y108.762 E1.17942
G1 X124.764 Y108.762 E1.19199
G1 X124.098 Y108.846 E1.20456
G1 X123.447 Y109.013 E1.21713
G1 X122.822 Y109.260 E1.22970
G1 X122.372 Y109.508 E1.23932
G1 X122.233 Y109.584 E1.24227
G1 X121.690 Y109.979 E1.25484
G1 X121.200 Y110.439 E1.26741
G1 X120.772 Y110.956 E1.27998
G1 X120.412 Y111.524 E1.29255
G1 X120.126 Y112.132 E1.30512
G1 X119.918 Y112.771 E1.31769
G1 X119.792 Y113.431 E1.33026
G1 X119.750 Y114.101 E1.34283
G1 X119.780 Y114.624 E1.35264
G1 X118.577 Y114.624 E1.37515
G1 X118.577 Y106.578 E1.52570
G1 X122.977 Y106.578 E1.60802
G1 X122.977 Y102.578 E1.68286
G1 X128.023 Y102.578 E1.77728
G1 X128.023 Y106.578 E1.85212
G1 X131.423 Y106.578 E1.91573
G1 X131.423 Y114.564 E2.06516
G1 X131.029 Y112.715 F12000.000
G1 X130.696 Y112.767 E2.07147 F1524.626
G1 X130.442 Y111.986 E2.08684
G1 X130.135 Y111.333 E2.10034
G1 X129.748 Y110.724 E2.11383
G1 X129.288 Y110.168 E2.12733
G1 X128.762 Y109.674 E2.14083
G1 X128.179 Y109.250 E2.15433
G1 X127.546 Y108.903 E2.16783
G1 X126.875 Y108.637 E2.18133
G1 X126.177 Y108.457 E2.19483
G1 X125.461 Y108.367 E2.20833
G1 X124.739 Y108.367 E2.22183
G1 X124.023 Y108.457 E2.23533
G1 X123.325 Y108.637 E2.24883
G1 X122.654 Y108.903 E2.26233
G1 X122.021 Y109.250 E2.27582
G1 X121.438 Y109.674 E2.28932
G1 X120.912 Y110.168 E2.30282
G1 X120.452 Y110.724 E2.31632
G1 X120.065 Y111.333 E2.32982
G1 X119.758 Y111.986 E2.34332
G1 X119.535 Y112.672 E2.35682
G1 X119.400 Y113.381 E2.37032
G1 X119.354 Y114.118 E2.38413
G1 X118.971 Y114.106 E2.39129
G1 X118.971 Y106.972 E2.52475
G1 X123.371 Y106.972 E2.60708
G1 X123.371 Y102.972 E2.68191
G1 X127.629 Y102.972 E2.76157
G1 X127.629 Y106.972 E2.83641
G1 X131.029 Y106.972 E2.90002
G1 X131.029 Y112.655 E3.00633
G1 X130.634 Y110.853 F12000.000
G1 X130.350 Y110.935 E3.01187 F1524.626
G1 X130.068 Y110.492 E3.02170
G1 X129.576 Y109.897 E3.03613
G1 X129.014 Y109.370 E3.05056
G1 X128.390 Y108.916 E3.06499
G1 X127.715 Y108.545 E3.07942
G1 X126.998 Y108.261 E3.09384
G1 X126.251 Y108.069 E3.10827
G1 X125.486 Y107.972 E3.12270
G1 X124.714 Y107.972 E3.13713
G1 X123.949 Y108.069 E3.15156
G1 X123.202 Y108.261 E3.16599
G1 X122.485 Y108.545 E3.18041
G1 X121.810 Y108.916 E3.19484
G1 X121.186 Y109.370 E3.20927
G1 X120.624 Y109.897 E3.22370
G1 X120.132 Y110.492 E3.23813
G1 X119.650 Y111.250 E3.25494
G1 X119.366 Y111.168 E3.26048
G1 X119.366 Y107.367 E3.33159
G1 X123.766 Y107.367 E3.41391
G1 X123.766 Y103.367 E3.48875
G1 X127.234 Y103.367 E3.55364
G1 X127.234 Y107.367 E3.62848
G1 X130.634 Y107.367 E3.69209
G1 X130.634 Y110.793 E3.75618
G1 X130.239 Y110.080 F12000.000
G1 X129.865 Y109.627 E3.76718 F1524.626
G1 X129.266 Y109.065 E3.78253
G1 X128.602 Y108.582 E3.79789
G1 X127.883 Y108.187 E3.81325
G1 X127.619 Y108.082 E3.81856
G1 X127.680 Y107.762 E3.82467
G1 X130.239 Y107.762 E3.87255
G1 X130.239 Y110.020 E3.91480
G1 X129.845 Y109.067 F12000.000
G1 X129.518 Y108.760 E3.92318 F1524.626
G1 X129.063 Y108.429 E3.93372
G1 X129.151 Y108.156 E3.93908
G1 X129.845 Y108.156 E3.95206
G1 X129.845 Y109.007 E3.96797
G1 X126.839 Y107.813 F12000.000
G1 X126.325 Y107.681 E3.97791 F1524.626
G1 X125.510 Y107.578 E3.99326
G1 X124.690 Y107.578 E4.00862
G1 X124.161 Y107.645 E4.01860
G1 X124.161 Y103.762 E4.09125
G1 X126.839 Y103.762 E4.14136
G1 X126.839 Y107.753 E4.21604
G1 X126.445 Y107.298 F12000.000
G1 X125.535 Y107.183 E4.23319 F1524.626
G1 X124.555 Y107.183 E4.25152
G1 X124.555 Y104.156 E4.30815
G1 X126.445 Y104.156 E4.34351
G1 X126.445 Y107.238 E4.40116
G1 X126.050 Y106.850 F12000.000
G1 X125.560 Y106.788 E4.41040 F1524.626
G1 X124.950 Y106.788 E4.42182
G1 X124.950 Y104.551 E4.46368
G1 X126.050 Y104.551 E4.48427
G1 X126.050 Y106.790 E4.52617
G1 X122.520 Y107.762 F12000.000
G1 X122.581 Y108.082 E4.53228 F1524.626
G1 X122.317 Y108.187 E4.53759
G1 X121.598 Y108.582 E4.55295
G1 X120.934 Y109.065 E4.56830
G1 X120.335 Y109.627 E4.58366
G1 X119.761 Y110.321 E4.60053
G1 X119.761 Y107.762 E4.64842
G1 X122.460 Y107.762 E4.69893
G1 X121.049 Y108.156 F12000.000
G1 X121.137 Y108.429 E4.70429 F1524.626
G1 X120.682 Y108.760 E4.71483
G1 X120.155 Y109.254 E4.72834
G1 X120.155 Y108.156 E4.74889
G1 X120.989 Y108.156 E4.76448
G1 F1800.000 E3.76448
G1 Z0.350 F12000.000
G92 E0
G1 X125.635 Y89.630 F12000.000
G1 Z0.300 F12000.000
G1 E1.00000 F1800.000
G1 X125.365 Y89.630 E1.00505 F2032.834
G1 X124.972 Y89.371 E1.01386
G1 X124.878 Y89.001 E1.02100
G1 X124.972 Y88.631 E1.02814
G1 X125.365 Y88.372 E1.03695
G1 X125.635 Y88.372 E1.04200
G1 X126.028 Y88.631 E1.05081
G1 X126.122 Y89.001 E1.05795
G1 X126.028 Y89.371 E1.06510
G1 X125.685 Y89.597 E1.07278
G1 X125.851 Y89.958 F12000.000
G1 X125.752 Y90.022 E1.07498 F1270.521
G1 X125.248 Y90.022 E1.08443
G1 X124.692 Y89.657 E1.09686
G1 X124.613 Y89.554 E1.09929
G1 X124.474 Y89.001 E1.10996
G1 X124.613 Y88.449 E1.12062
G1 X124.692 Y88.345 E1.12305
G1 X125.248 Y87.980 E1.13549
G1 X125.752 Y87.980 E1.14493
G1 X126.049 Y88.175 E1.15157
G1 X126.308 Y88.345 E1.15737 F1270.521
G1 X126.387 Y88.449 E1.15980
G1 X126.526 Y89.001 E1.17046
G1 X126.387 Y89.554 E1.18112
G1 X126.308 Y89.657 E1.18356
G1 X125.901 Y89.925 E1.19267
G1 X126.252 Y88.409 F12000.000
G1 X125.702 Y89.140 F12000.000
G1 X125.523 Y89.258 E1.19668 F1524.626
G1 X125.477 Y89.258 E1.19755
G1 X125.298 Y89.140 E1.20157
G1 X125.263 Y89.001 E1.20424
G1 X125.298 Y88.862 E1.20692
G1 X125.477 Y88.745 E1.21093
G1 X125.523 Y88.745 E1.21180
G1 X125.702 Y88.862 E1.21582
G1 X125.737 Y89.001 E1.21849
G1 X125.717 Y89.082 E1.22004
M204 S1000
G1 X124.098 Y93.615 F12000.000
G1 X123.893 Y94.024 E1.22876 F1778.730
G1 X123.893 Y95.809 E1.26284
G1 X124.908 Y93.784 E1.30607
G1 X125.790 Y93.810 E1.32291
G1 X123.893 Y97.594 E1.40370
G1 X123.893 Y99.380 E1.43778
G1 X126.758 Y93.664 E1.55980
G1 X127.107 Y94.752 E1.58162
G1 X124.210 Y100.533 E1.70503
G1 X125.104 Y100.533 E1.72211
G1 X127.107 Y96.538 E1.80741
G1 X127.107 Y98.323 E1.84148
G1 X125.999 Y100.533 E1.88867
G1 X126.894 Y100.533 E1.90575
G1 X127.107 Y100.108 E1.91482
G1 X130.359 Y102.548 F12000.000
G1 X130.068 Y103.129 E1.92721 F1778.730
G1 X130.815 Y103.424 E1.94254
G1 X130.258 Y104.533 E1.96622
G1 X131.153 Y104.533 E1.98330
G1 X131.528 Y103.787 E1.99925
G1 X132.392 Y103.848 E2.01578
G1 X132.041 Y104.548 E2.03073
G1 X132.802 Y104.815 E2.04613
G1 X133.137 Y104.147 E2.06038
G1 X133.755 Y104.700 E2.07620
G1 X133.347 Y105.514 E2.09358
G1 X134.163 Y105.670 E2.10944
G1 X133.468 Y107.057 E2.13905
G1 X134.215 Y107.353 E2.15438
G1 X133.468 Y108.843 E2.18619
G1 X134.215 Y109.138 E2.20151
G1 X133.468 Y110.628 E2.23332
G1 X134.215 Y110.924 E2.24865
G1 X133.468 Y112.414 E2.28046
G1 X134.215 Y112.709 E2.29579
G1 X133.468 Y114.199 E2.32760
G1 X133.676 Y115.568 E2.35402
G1 X134.215 Y114.494 E2.37694
G1 F1800.000 E1.37694
G1 Z0.350 F12000.000
G92 E0
G1 X120.415 Y104.533 F12000.000
G1 Z0.300 F12000.000
G1 E1.00000 F1800.000
G1 X120.932 Y103.501 E1.02203 F1778.730
G1 X120.515 Y102.548 E1.04189
G1 X120.185 Y103.206 E1.05594
G1 X119.894 Y103.787 F12000.000
G1 X119.520 Y104.533 E1.07188 F1778.730
G1 X118.625 Y104.533 E1.08896
G1 X119.000 Y103.787 E1.10490
G1 X118.105 Y103.787 E1.12198
G1 X117.703 Y104.589 E1.13911
G1 X117.086 Y104.034 E1.15495
G1 X115.785 Y106.629 E1.21034
G1 X116.532 Y106.924 E1.22567
G1 X115.785 Y108.414 E1.25748
G1 X116.532 Y108.709 E1.27280
G1 X115.785 Y110.199 E1.30461
G1 X116.532 Y110.495 E1.31994
G1 X115.785 Y111.985 E1.35175
G1 X116.532 Y112.280 E1.36708
G1 X115.785 Y113.770 E1.39889
G1 X115.785 Y115.556 E1.43296
G1 X116.532 Y114.066 E1.46477
M106 S255
M204 S1500
G1 F1800.000 E0.46477
G1 Z0.550 F12000.000
G92 E0
G1 X128.670 Y105.931 F12000.000
G1 Z0.500 F12000.000
G1 E1.00000 F1800.000
M204 S2000
G1 X131.853 Y105.931 E1.04049 F1779.007
G1 X131.996 Y105.969 E1.04237
G1 X132.055 Y106.051 E1.04365
G1 X132.070 Y106.148 E1.04491
G1 X132.070 Y115.054 E1.15822
G1 X132.055 Y115.151 E1.15947
G1 X131.996 Y115.233 E1.16075
G1 X131.853 Y115.272 E1.16264
G1 X130.286 Y115.272 E1.18258
G1 X130.296 Y115.101 E1.18475
G1 X130.265 Y114.601 E1.19112
G1 X130.296 Y114.101 E1.19750
G1 X130.255 Y113.450 E1.20580
G1 X130.133 Y112.809 E1.21410
G1 X129.932 Y112.188 E1.22240
G1 X129.654 Y111.598 E1.23071
G1 X129.304 Y111.047 E1.23901
G1 X128.888 Y110.544 E1.24731
G1 X128.412 Y110.097 E1.25561
G1 X127.884 Y109.714 E1.26392
G1 X127.313 Y109.399 E1.27222
G1 X126.706 Y109.159 E1.28052
G1 X126.128 Y109.011 E1.28811
G1 X125.426 Y108.915 E1.29712
G1 X124.774 Y108.915 E1.30542
G1 X124.126 Y108.997 E1.31372
G1 X123.494 Y109.159 E1.32203
G1 X122.887 Y109.399 E1.33033
G1 X122.316 Y109.714 E1.33864
G1 X121.788 Y110.097 E1.34694
G1 X121.312 Y110.544 E1.35524
G1 X120.896 Y111.047 E1.36354
G1 X120.546 Y111.598 E1.37185
G1 X120.269 Y112.188 E1.38015
G1 X120.067 Y112.809 E1.38845
G1 X119.945 Y113.450 E1.39675
G1 X119.904 Y114.101 E1.40505
G1 X119.935 Y114.601 E1.41143
G1 X119.904 Y115.101 E1.41780
G1 X119.914 Y115.272 E1.41998
G1 X118.147 Y115.272 E1.44246
G1 X118.050 Y115.256 E1.44371
G1 X117.968 Y115.197 E1.44500
G1 X117.930 Y115.054 E1.44688
G1 X117.930 Y106.148 E1.56018
G1 X117.945 Y106.051 E1.56144
G1 X118.004 Y105.969 E1.56272
G1 X118.147 Y105.931 E1.56461
G1 X122.330 Y105.931 E1.61782
G1 X122.330 Y102.148 E1.66594
G1 X122.345 Y102.051 E1.66720
G1 X122.404 Y101.969 E1.66848
G1 X122.547 Y101.931 E1.67036
G1 X128.453 Y101.931 E1.74550
G1 X128.596 Y101.969 E1.74738
G1 X128.655 Y102.051 E1.74867
G1 X128.670 Y102.148 E1.74992
G1 X128.670 Y105.871 E1.79728
M204 S1500
G1 X129.070 Y105.531 F12000.000
M204 S2000
G1 X131.884 Y105.531 E1.83308 F1111.879
G1 X132.075 Y105.561 E1.83554
G1 X132.234 Y105.642 E1.83780
G1 X132.359 Y105.767 E1.84007
G1 X132.440 Y105.926 E1.84233
G1 X132.470 Y106.117 E1.84479
G1 X132.470 Y115.085 E1.95889
G1 X132.440 Y115.277 E1.96136
G1 X132.359 Y115.435 E1.96362
G1 X132.234 Y115.561 E1.96588
G1 X132.147 Y115.605 E1.96712
G1 X132.147 Y115.630 E1.96744
G1 X131.884 Y115.672 E1.97082
G1 X129.860 Y115.672 E1.99658
G1 X129.896 Y115.101 E2.00385
G1 X129.864 Y114.601 E2.01023
G1 X129.896 Y114.101 E2.01660
G1 X129.858 Y113.500 E2.02426
G1 X129.745 Y112.908 E2.03193
G1 X129.559 Y112.336 E2.03959
G1 X129.302 Y111.791 E2.04725
G1 X128.980 Y111.282 E2.05491
G1 X128.596 Y110.818 E2.06257
G1 X128.157 Y110.406 E2.07024
G1 X127.670 Y110.052 E2.07790
G1 X127.142 Y109.762 E2.08556
G1 X126.582 Y109.540 E2.09322
G1 X126.029 Y109.398 E2.10049
G1 X125.401 Y109.315 E2.10854
G1 X124.799 Y109.315 E2.11621
G1 X124.201 Y109.390 E2.12387
