; generated by Slic3r 1.1.7 on 2015-04-02 at 14:30:56

; perimeters extrusion width = 0.40mm
; infill extrusion width = 0.67mm
; solid infill extrusion width = 0.50mm
; top infill extrusion width = 0.30mm

G21 ; set units to millimeters
M107
M190 S70 ; wait for bed temperature to be reached
M104 S240 ; set temperature
G28 ; home all axes
M109 S240 ; wait for temperature to be reached
G90 ; use absolute coordinates
G92 E0
M82 ; use absolute distances for extrusion
M204 S500
G1 F1800.000 E-1.00000
G1 Z0.250 F12000.000
G92 E0
G1 X117.701 Y83.163 F12000.000
G1 Z0.200 F12000.000
G1 E1.00000 F1800.000
G1 X118.349 Y82.246 E1.00964 F600.000
G1 X119.857 Y80.993 E1.02648
G1 X120.335 Y80.678 E1.03139
G1 X122.741 Y79.570 E1.05413
G1 X125.186 Y79.224 E1.07533
G1 X125.814 Y79.224 E1.08072
G1 X128.433 Y79.622 E1.10346
G1 X130.665 Y80.678 E1.12466 F600.000
G1 X131.143 Y80.992 E1.12957
G1 X133.112 Y82.765 E1.15231
G1 X134.180 Y84.410 E1.16915
G1 X134.818 Y85.880 E1.18291
G1 X140.614 Y103.187 E1.33960
G1 X140.962 Y104.609 E1.35217
G1 X141.088 Y106.101 E1.36502
G1 X141.088 Y115.101 E1.44229
G1 X140.962 Y116.593 E1.45515
G1 X140.108 Y119.219 E1.47885
G1 X140.057 Y119.321 E1.47983
G1 X138.432 Y121.557 E1.50356
G1 X138.346 Y121.642 E1.50459
G1 X136.121 Y123.257 E1.52820
G1 X136.019 Y123.309 E1.52918
G1 X133.393 Y124.163 E1.55289
G1 X131.900 Y124.289 E1.56575
G1 X118.100 Y124.289 E1.68423
G1 X116.721 Y124.181 E1.69610
G1 X116.607 Y124.163 E1.69709
G1 X113.982 Y123.310 E1.72079
G1 X113.880 Y123.258 E1.72177
G1 X111.647 Y121.635 E1.74547
G1 X111.566 Y121.554 E1.74645
G1 X109.943 Y119.321 E1.77015
G1 X109.891 Y119.219 E1.77113
G1 X109.039 Y116.595 E1.79482
G1 X108.912 Y115.101 E1.80769
G1 X108.912 Y106.101 E1.88495
G1 X109.039 Y104.608 E1.89782
G1 X109.540 Y102.764 E1.91423
G1 X116.660 Y84.730 E2.08067
G1 X116.820 Y84.410 E2.08375
G1 X117.666 Y83.212 E2.09634
G1 X117.925 Y83.322 F12000.000
G1 X118.575 Y82.407 E2.10598 F600.000
G1 X120.008 Y81.222 E2.12194
G1 X120.486 Y80.907 E2.12685
G1 X122.857 Y79.822 E2.14924
G1 X125.186 Y79.499 E2.16943
G1 X125.814 Y79.499 E2.17482
G1 X128.391 Y79.896 E2.19720
G1 X130.515 Y80.907 E2.21739 F600.000
G1 X130.992 Y81.222 E2.22230
G1 X132.926 Y82.971 E2.24469
G1 X133.935 Y84.533 E2.26065
G1 X134.558 Y85.967 E2.27408
G1 X140.353 Y103.274 E2.43076
G1 X140.691 Y104.652 E2.44294
G1 X140.814 Y106.101 E2.45543
G1 X140.814 Y115.101 E2.53270
G1 X140.691 Y116.550 E2.54518
G1 X139.864 Y119.095 E2.56815
G1 X139.812 Y119.197 E2.56913
G1 X138.238 Y121.363 E2.59212
G1 X138.153 Y121.448 E2.59315
G1 X135.996 Y123.013 E2.61603
G1 X135.895 Y123.065 E2.61701
G1 X133.350 Y123.892 E2.63998
G1 X131.900 Y124.015 E2.65247
G1 X118.100 Y124.015 E2.77094
G1 X116.764 Y123.910 E2.78245
G1 X116.650 Y123.892 E2.78344
G1 X114.106 Y123.065 E2.80640
G1 X114.005 Y123.013 E2.80738
G1 X111.841 Y121.441 E2.83034
G1 X111.760 Y121.360 E2.83132
G1 X110.188 Y119.197 E2.85429
G1 X110.136 Y119.095 E2.85527
G1 X109.310 Y116.552 E2.87822
G1 X109.186 Y115.101 E2.89072
G1 X109.186 Y106.101 E2.96799
G1 X109.310 Y104.651 E2.98048
G1 X109.796 Y102.864 E2.99638
G1 X116.905 Y84.853 E3.16261
G1 X117.065 Y84.533 E3.16569
G1 X117.890 Y83.371 E3.17792
G1 X118.149 Y83.482 F12000.000
G1 X118.801 Y82.568 E3.18756 F600.000
G1 X120.159 Y81.451 E3.20265
G1 X120.637 Y81.136 E3.20757
G1 X122.972 Y80.075 E3.22959
G1 X125.186 Y79.773 E3.24877
G1 X125.814 Y79.773 E3.25416
G1 X128.348 Y80.171 E3.27618
G1 X130.364 Y81.136 E3.29537 F600.000
G1 X130.841 Y81.451 E3.30028
G1 X132.739 Y83.176 E3.32230
G1 X133.689 Y84.656 E3.33740
G1 X134.298 Y86.055 E3.35049
G1 X140.093 Y103.361 E3.50718
G1 X140.420 Y104.695 E3.51897
G1 X140.539 Y106.101 E3.53108
G1 X140.539 Y115.101 E3.60835
G1 X140.420 Y116.507 E3.62046
G1 X139.620 Y118.970 E3.64270
G1 X139.568 Y119.072 E3.64368
G1 X138.044 Y121.169 E3.66593
G1 X137.959 Y121.254 E3.66696
G1 X135.872 Y122.768 E3.68910
G1 X135.770 Y122.820 E3.69008
G1 X133.307 Y123.621 E3.71232
G1 X131.900 Y123.740 E3.72444
G1 X118.100 Y123.740 E3.84291
G1 X116.807 Y123.639 E3.85404
G1 X116.693 Y123.621 E3.85503
G1 X114.231 Y122.821 E3.87726
G1 X114.129 Y122.769 E3.87824
G1 X112.035 Y121.247 E3.90047
G1 X111.954 Y121.166 E3.90145
G1 X110.432 Y119.072 E3.92367
G1 X110.380 Y118.970 E3.92465
G1 X109.581 Y116.509 E3.94687
G1 X109.461 Y115.101 E3.95900
G1 X109.461 Y106.101 E4.03627
G1 X109.581 Y104.693 E4.04839
G1 X110.051 Y102.964 E4.06378
G1 X117.150 Y84.976 E4.22980
G1 X117.310 Y84.656 E4.23287
G1 X118.114 Y83.531 E4.24474
G1 F1800.000 E3.24474
G1 Z0.250 F12000.000
G92 E0
G1 X128.196 Y106.405 F12000.000
G1 Z0.200 F12000.000
G1 E1.00000 F1800.000
G1 X131.596 Y106.405 E1.02919 F600.000
G1 X131.596 Y114.797 E1.10124
G1 X129.278 Y114.797 E1.12114
G1 X129.266 Y114.601 E1.12283
G1 X129.297 Y114.101 E1.12713
G1 X129.266 Y113.601 E1.13143
G1 X129.297 Y113.101 E1.13573
G1 X129.266 Y112.601 E1.14003
G1 X129.297 Y112.101 E1.14433
G1 X129.264 Y111.575 E1.14886
G1 X129.166 Y111.057 E1.15338
G1 X129.003 Y110.556 E1.15791
G1 X128.778 Y110.079 E1.16243
G1 X128.496 Y109.634 E1.16696
G1 X128.160 Y109.228 E1.17148
G1 X127.776 Y108.867 E1.17601
G1 X127.349 Y108.557 E1.18053
G1 X126.887 Y108.303 E1.18506
G1 X126.397 Y108.109 E1.18959
G1 X125.887 Y107.978 E1.19411
G1 X125.364 Y107.912 E1.19864
G1 X124.836 Y107.912 E1.20316
G1 X124.313 Y107.978 E1.20769
G1 X123.803 Y108.109 E1.21221
G1 X123.313 Y108.303 E1.21674
G1 X122.851 Y108.557 E1.22126
G1 X122.424 Y108.867 E1.22579
G1 X122.040 Y109.228 E1.23031
G1 X121.704 Y109.634 E1.23484
G1 X121.422 Y110.079 E1.23936
G1 X121.197 Y110.556 E1.24389
G1 X121.034 Y111.057 E1.24841
G1 X120.936 Y111.575 E1.25294
G1 X120.903 Y112.101 E1.25746
G1 X120.934 Y112.601 E1.26177
G1 X120.903 Y113.101 E1.26607
G1 X120.934 Y113.601 E1.27037
G1 X120.903 Y114.101 E1.27467
G1 X120.934 Y114.601 E1.27897
G1 X120.922 Y114.797 E1.28066
G1 X118.404 Y114.797 E1.30227
G1 X118.404 Y106.405 E1.37432
G1 X122.804 Y106.405 E1.41210
G1 X122.804 Y102.405 E1.44644
G1 X128.196 Y102.405 E1.49273
G1 X128.196 Y106.345 E1.52656
G1 X128.471 Y106.130 F12000.000
G1 X131.871 Y106.130 E1.55575 F600.000
G1 X131.871 Y115.072 E1.63251
G1 X129.021 Y115.072 E1.65698
G1 X128.991 Y114.601 E1.66102
G1 X129.022 Y114.101 E1.66532
G1 X128.991 Y113.601 E1.66963
G1 X129.022 Y113.101 E1.67393
G1 X128.991 Y112.601 E1.67823
G1 X129.022 Y112.101 E1.68253
G1 X128.992 Y111.609 E1.68676
G1 X128.899 Y111.126 E1.69099
G1 X128.747 Y110.657 E1.69521
G1 X128.537 Y110.211 E1.69944
G1 X128.273 Y109.796 E1.70367
G1 X127.959 Y109.416 E1.70790
G1 X127.600 Y109.079 E1.71213
G1 X127.202 Y108.789 E1.71636
G1 X126.770 Y108.552 E1.72059
G1 X126.312 Y108.371 E1.72482
G1 X125.835 Y108.248 E1.72905
G1 X125.346 Y108.186 E1.73328
G1 X124.854 Y108.186 E1.73750
G1 X124.365 Y108.248 E1.74173
G1 X123.888 Y108.371 E1.74596
G1 X123.430 Y108.552 E1.75019
G1 X123.166 Y108.697 E1.75278
G1 X122.998 Y108.789 E1.75442
G1 X122.600 Y109.079 E1.75865
G1 X122.241 Y109.416 E1.76288
G1 X121.927 Y109.796 E1.76711
G1 X121.663 Y110.211 E1.77134
G1 X121.453 Y110.657 E1.77556
G1 X121.354 Y110.961 E1.77831
G1 X121.301 Y111.126 E1.77979
G1 X121.208 Y111.609 E1.78402
G1 X121.177 Y112.101 E1.78825
G1 X121.209 Y112.601 E1.79255
G1 X121.177 Y113.101 E1.79685
G1 X121.209 Y113.601 E1.80115
G1 X121.177 Y114.101 E1.80546
G1 X121.209 Y114.601 E1.80976
G1 X121.179 Y115.072 E1.81380
G1 X118.129 Y115.072 E1.83999
G1 X118.129 Y106.130 E1.91675
G1 X122.529 Y106.130 E1.95452
G1 X122.529 Y102.130 E1.98886
G1 X128.471 Y102.130 E2.03987
G1 X128.471 Y106.070 E2.07369
G1 X128.745 Y105.856 F12000.000
G1 X131.891 Y105.856 E2.10070 F600.000
G1 X131.975 Y105.870 E2.10143
G1 X132.043 Y105.904 E2.10209
G1 X132.132 Y106.026 E2.10338
G1 X132.145 Y106.110 E2.10411
G1 X132.145 Y115.092 E2.18122
G1 X132.132 Y115.176 E2.18195
G1 X132.043 Y115.298 E2.18325
G1 X131.975 Y115.333 E2.18390
G1 X131.891 Y115.346 E2.18464
G1 X128.732 Y115.346 E2.21175
G1 X128.748 Y115.101 E2.21386
G1 X128.711 Y114.601 E2.21816
G1 X128.748 Y114.101 E2.22247
G1 X128.711 Y113.601 E2.22677
G1 X128.748 Y113.101 E2.23107
G1 X128.711 Y112.601 E2.23538
G1 X128.748 Y112.101 E2.23968
G1 X128.719 Y111.644 E2.24361
G1 X128.633 Y111.194 E2.24755
G1 X128.491 Y110.758 E2.25148
G1 X128.296 Y110.344 E2.25541
G1 X128.051 Y109.957 E2.25935
G1 X127.759 Y109.604 E2.26328
G1 X127.425 Y109.291 E2.26721
G1 X127.054 Y109.021 E2.27114
G1 X126.653 Y108.801 E2.27508
G1 X126.227 Y108.632 E2.27901
G1 X125.783 Y108.518 E2.28294
G1 X125.329 Y108.461 E2.28687
G1 X124.871 Y108.461 E2.29081
G1 X124.416 Y108.518 E2.29474
G1 X123.973 Y108.632 E2.29867
G1 X123.547 Y108.801 E2.30260
G1 X123.298 Y108.937 E2.30504
G1 X123.145 Y109.021 E2.30654
G1 X122.775 Y109.291 E2.31047
G1 X122.441 Y109.604 E2.31440
G1 X122.149 Y109.957 E2.31833
G1 X121.904 Y110.344 E2.32227
G1 X121.709 Y110.758 E2.32620
G1 X121.615 Y111.046 E2.32879
G1 X121.567 Y111.194 E2.33013
G1 X121.481 Y111.644 E2.33406
G1 X121.452 Y112.101 E2.33800
G1 X121.489 Y112.601 E2.34230
G1 X121.452 Y113.101 E2.34660
G1 X121.489 Y113.601 E2.35091
G1 X121.452 Y114.101 E2.35521
G1 X121.489 Y114.601 E2.35952
G1 X121.452 Y115.101 E2.36382
G1 X121.468 Y115.346 E2.36593
G1 X118.109 Y115.346 E2.39476
G1 X118.025 Y115.333 E2.39550
G1 X117.957 Y115.298 E2.39615
G1 X117.868 Y115.176 E2.39744
G1 X117.855 Y115.092 E2.39818
G1 X117.855 Y106.111 E2.47528
G1 X117.868 Y106.026 E2.47602
G1 X117.957 Y105.904 E2.47731
G1 X118.025 Y105.870 E2.47796
G1 X118.109 Y105.856 E2.47870
G1 X122.255 Y105.856 E2.51429
G1 X122.255 Y102.111 E2.54644
G1 X122.268 Y102.026 E2.54718
G1 X122.357 Y101.904 E2.54847
G1 X122.425 Y101.870 E2.54913
G1 X122.509 Y101.856 E2.54986
G1 X128.491 Y101.856 E2.60121
G1 X128.575 Y101.870 E2.60195
G1 X128.643 Y101.904 E2.60260
G1 X128.732 Y102.026 E2.60389
G1 X128.745 Y102.110 E2.60463
G1 X128.745 Y105.796 E2.63627
G1 X128.745 Y106.256 F12000.000
G1 X126.897 Y108.115 F12000.000
G1 X122.983 Y104.200 E2.68379 F600.000
G1 X122.983 Y104.589 E2.68713
G1 X126.291 Y107.897 E2.72730
G1 X125.790 Y107.786 E2.73170
G1 X122.983 Y104.978 E2.76578
G1 X122.983 Y105.367 E2.76912
G1 X125.349 Y107.733 E2.79785
G1 X124.960 Y107.733 E2.80119
G1 X122.983 Y105.756 E2.82520
G1 X122.983 Y106.145 E2.82853
G1 X124.599 Y107.762 E2.84817
G1 X124.257 Y107.808 E2.85113
G1 X122.983 Y106.534 E2.86660
G1 X122.644 Y106.584 E2.86954
G1 X123.947 Y107.887 E2.88537
G1 X123.649 Y107.978 E2.88805
G1 X122.255 Y106.584 E2.90498
G1 X121.866 Y106.584 E2.90831
G1 X123.370 Y108.088 E2.92658
G1 X123.106 Y108.213 E2.92909
G1 X121.477 Y106.584 E2.94887
G1 X121.088 Y106.584 E2.95220
G1 X122.855 Y108.351 E2.97366
G1 X122.620 Y108.504 E2.97607
G1 X120.699 Y106.584 E2.99939
G1 X120.310 Y106.584 E3.00272
G1 X122.394 Y108.668 E3.02803
G1 X122.185 Y108.847 E3.03039
G1 X119.921 Y106.584 E3.05787
G1 X119.533 Y106.584 E3.06121
G1 X121.984 Y109.035 E3.09097
G1 X121.799 Y109.239 E3.09334
G1 X119.144 Y106.584 E3.12557
G1 X118.755 Y106.584 E3.12891
G1 X121.623 Y109.452 E3.16373
G1 X121.463 Y109.681 E3.16613
G1 X118.583 Y106.800 E3.20110
G1 X118.583 Y107.189 E3.20444
G1 X121.312 Y109.919 E3.23757
G1 X121.179 Y110.175 E3.24005
G1 X118.583 Y107.578 E3.27157
G1 X118.583 Y107.967 E3.27491
G1 X121.055 Y110.439 E3.30493
G1 X120.954 Y110.727 E3.30755
G1 X118.583 Y108.356 E3.33633
G1 X118.583 Y108.745 E3.33967
G1 X120.859 Y111.022 E3.36731
G1 X120.797 Y111.348 E3.37017
G1 X118.583 Y109.134 E3.39705
G1 X118.583 Y109.523 E3.40039
G1 X120.749 Y111.689 E3.42669
G1 X120.726 Y112.055 E3.42984
G1 X118.583 Y109.912 E3.45587
G1 X118.583 Y110.301 E3.45921
G1 X120.746 Y112.464 E3.48548
G1 X120.739 Y112.846 E3.48876
G1 X118.583 Y110.689 E3.51494
G1 X118.583 Y111.078 E3.51828
G1 X120.731 Y113.227 E3.54437
G1 X120.753 Y113.637 E3.54790
G1 X118.583 Y111.467 E3.57424
G1 X118.583 Y111.856 E3.57758
G1 X120.730 Y114.003 E3.60365
G1 X120.743 Y114.405 E3.60710
G1 X118.583 Y112.245 E3.63332
G1 X118.583 Y112.634 E3.63666
G1 X120.567 Y114.619 E3.66075
G1 X120.178 Y114.619 E3.66409
G1 X118.583 Y113.023 E3.68347
G1 X118.583 Y113.412 E3.68680
G1 X119.789 Y114.619 E3.70145
G1 X119.400 Y114.619 E3.70479
G1 X118.583 Y113.801 E3.71472
G1 X118.583 Y114.190 E3.71806
G1 X119.011 Y114.619 E3.72327
G1 X118.623 Y114.619 E3.72661
G1 X118.583 Y114.579 E3.72709
G1 F1800.000 E2.72709
G1 Z0.250 F12000.000
G92 E0
G1 X129.448 Y114.555 F12000.000
G1 Z0.200 F12000.000
G1 E1.00000 F1800.000
G1 X129.512 Y114.619 E1.00077 F600.000
G1 X129.901 Y114.619 E1.00411
G1 X129.471 Y114.189 E1.00933
G1 X129.457 Y113.786 E1.01279
G1 X130.290 Y114.619 E1.02291
G1 X130.679 Y114.619 E1.02625
G1 X129.458 Y113.398 E1.04106
G1 X129.472 Y113.023 E1.04429
G1 X131.067 Y114.619 E1.06366
G1 X131.417 Y114.579 E1.06668
G1 X129.446 Y112.608 E1.09062
G1 X129.468 Y112.241 E1.09377
G1 X131.417 Y114.191 E1.11744
G1 X131.417 Y113.802 E1.12078
G1 X129.460 Y111.845 E1.14454
G1 X129.415 Y111.410 E1.14829
G1 X131.417 Y113.413 E1.17260
G1 X131.417 Y113.024 E1.17594
G1 X129.307 Y110.913 E1.20156
G1 X129.078 Y110.295 F12000.000
G1 X131.417 Y112.635 E1.22997 F600.000
G1 X131.417 Y112.246 E1.23331
G1 X122.983 Y103.811 E1.33571
G1 X122.983 Y103.422 E1.33905
G1 X131.417 Y111.857 E1.44146
G1 X131.417 Y111.468 E1.44480
G1 X122.983 Y103.034 E1.54721
G1 X122.983 Y102.645 E1.55054
G1 X131.417 Y111.079 E1.65295
G1 X131.417 Y110.691 E1.65629
G1 X123.311 Y102.584 E1.75472
G1 X123.699 Y102.584 E1.75805
G1 X131.417 Y110.302 E1.85176
G1 X131.417 Y106.802 F12000.000
G1 X131.200 Y106.584 E1.85440 F600.000
G1 X130.811 Y106.584 E1.85774
G1 X131.417 Y107.190 E1.86511
G1 X131.417 Y107.579 E1.86845
G1 X130.422 Y106.584 E1.88053
G1 X130.033 Y106.584 E1.88387
G1 X131.417 Y107.968 E1.90068
G1 X131.417 Y108.357 E1.90402
G1 X129.644 Y106.584 E1.92555
G1 X129.255 Y106.584 E1.92889
G1 X131.417 Y108.746 E1.95514
G1 X131.417 Y109.135 E1.95848
G1 X128.866 Y106.584 E1.98946
G1 X128.477 Y106.584 E1.99279
G1 X131.417 Y109.524 E2.02849
G1 X131.417 Y109.913 E2.03183
G1 X124.088 Y102.584 E2.12081
G1 X124.477 Y102.584 E2.12415
G1 X128.017 Y106.124 E2.16713
G1 X128.017 Y105.735 E2.17047
G1 X124.866 Y102.584 E2.20873
G1 X125.255 Y102.584 E2.21207
G1 X128.017 Y105.346 E2.24560
G1 X128.017 Y104.957 E2.24894
G1 X125.644 Y102.584 E2.27776
G1 X126.033 Y102.584 E2.28110
G1 X128.017 Y104.568 E2.30519
G1 X128.017 Y104.179 E2.30853
G1 X126.422 Y102.584 E2.32790
G1 X126.811 Y102.584 E2.33124
G1 X128.017 Y103.790 E2.34589
G1 X128.017 Y103.402 E2.34923
G1 X127.200 Y102.584 E2.35916
G1 X127.588 Y102.584 E2.36250
G1 X128.017 Y103.013 E2.36771
G1 X128.017 Y102.624 E2.37104
G1 X127.977 Y102.584 E2.37153
G1 F1800.000 E1.37153
G1 Z0.250 F12000.000
G92 E0
G1 X125.614 Y89.286 F12000.000
G1 Z0.200 F12000.000
G1 E1.00000 F1800.000
G1 X125.386 Y89.286 E1.00195 F600.000
G1 X125.226 Y89.180 E1.00360
G1 X125.179 Y89.086 E1.00451
G1 X125.157 Y89.001 E1.00526
G1 X125.226 Y88.822 E1.00691
G1 X125.386 Y88.716 E1.00856
G1 X125.614 Y88.716 E1.01051
G1 X125.774 Y88.822 E1.01216
G1 X125.843 Y89.001 E1.01381
G1 X125.821 Y89.086 E1.01456
G1 X125.774 Y89.180 E1.01546
G1 X125.664 Y89.253 E1.01660
G1 X125.785 Y89.502 F12000.000
G1 X125.696 Y89.560 E1.01752 F600.000
G1 X125.304 Y89.560 E1.02088
G1 X125.014 Y89.369 E1.02386
G1 X124.920 Y89.182 E1.02566
G1 X124.874 Y89.001 E1.02726
G1 X124.920 Y88.820 E1.02887
G1 X125.014 Y88.633 E1.03066
G1 X125.215 Y88.501 E1.03273
G1 X125.304 Y88.442 E1.03365
G1 X125.696 Y88.442 E1.03701
G1 X125.986 Y88.633 E1.04000
G1 X126.080 Y88.820 E1.04179
G1 X126.126 Y89.001 E1.04339
G1 X126.080 Y89.182 E1.04500
G1 X125.986 Y89.369 E1.04679
G1 X125.835 Y89.469 E1.04835
G1 X125.936 Y89.731 F12000.000
G1 X125.778 Y89.835 E1.04997 F600.000
G1 X125.222 Y89.835 E1.05474
G1 X124.801 Y89.558 E1.05907
G1 X124.661 Y89.278 E1.06175
G1 X124.591 Y89.001 E1.06421
G1 X124.661 Y88.724 E1.06666
G1 X124.801 Y88.444 E1.06934
G1 X125.222 Y88.167 E1.07367
G1 X125.766 Y88.160 E1.07834
G1 X126.199 Y88.444 E1.08279
G1 X126.339 Y88.724 E1.08547 F600.000
G1 X126.409 Y89.001 E1.08792
G1 X126.339 Y89.278 E1.09038
G1 X126.199 Y89.558 E1.09306
G1 X125.986 Y89.698 E1.09525
G1 X126.294 Y88.742 F12000.000
G1 X125.646 Y88.987 F12000.000
G1 X125.554 Y88.895 E1.09637 F600.000
M204 S1500
G1 F1800.000 E0.09637
