; generated by Slic3r 1.1.7 on 2015-04-02 at 13:19:09

; perimeters extrusion width = 0.40mm
; infill extrusion width = 0.67mm
; solid infill extrusion width = 0.50mm
; top infill extrusion width = 0.30mm
; support material extrusion width = 0.40mm

G21 ; set units to millimeters
M107
M190 S70 ; wait for bed temperature to be reached
M104 S240 ; set temperature
G28 ; home all axes
M109 S240 ; wait for temperature to be reached
G90 ; use absolute coordinates
G92 E0
M82 ; use absolute distances for extrusion
M204 S500
G1 F1800.000 E-1.00000
G1 Z0.250 F12000.000
G92 E0
G1 X117.696 Y83.089 F12000.000
G1 Z0.200 F12000.000
G1 E1.00000 F1800.000
G1 X118.310 Y82.219 E1.00976 F600.000
G1 X119.831 Y80.953 E1.02789
G1 X120.309 Y80.639 E1.03313
G1 X122.721 Y79.527 E1.05747
G1 X125.186 Y79.177 E1.08028
G1 X125.814 Y79.177 E1.08603
G1 X128.440 Y79.575 E1.11037
G1 X130.691 Y80.639 E1.13318 F600.000
G1 X131.169 Y80.953 E1.13842
G1 X133.144 Y82.729 E1.16276
G1 X134.222 Y84.389 E1.18089
G1 X134.523 Y85.002 E1.18715
G1 X141.931 Y101.261 E1.35086
G1 X142.340 Y102.232 E1.36051
G1 X143.029 Y105.398 E1.39020
G1 X143.085 Y107.353 E1.40812
G1 X143.085 Y114.494 E1.47355
G1 X142.687 Y117.121 E1.49789
G1 X142.144 Y118.469 E1.51121
G1 X141.648 Y119.460 E1.52136
G1 X140.115 Y121.629 E1.54570
G1 X138.009 Y123.248 E1.57004
G1 X135.518 Y124.171 E1.59438
G1 X133.753 Y124.355 E1.61064
G1 X115.820 Y124.426 E1.77495
G1 X113.192 Y124.038 E1.79929
G1 X110.797 Y122.890 E1.82363
G1 X108.849 Y121.084 E1.84797
G1 X107.523 Y118.783 E1.87231
G1 X106.915 Y115.556 E1.90239
G1 X106.915 Y106.629 E1.98419
G1 X107.313 Y104.002 E2.00853
G1 X107.815 Y102.737 E2.02100
G1 X116.617 Y84.709 E2.20482
G1 X116.778 Y84.389 E2.20810
G1 X117.661 Y83.138 E2.22214
G1 X117.933 Y83.257 F12000.000
G1 X118.549 Y82.389 E2.23189 F600.000
G1 X119.990 Y81.195 E2.24904
G1 X120.468 Y80.881 E2.25428
G1 X122.844 Y79.793 E2.27822
G1 X125.186 Y79.467 E2.29989
G1 X125.814 Y79.467 E2.30564
G1 X128.396 Y79.865 E2.32957
G1 X130.532 Y80.881 E2.35125 F600.000
G1 X131.009 Y81.195 E2.35649
G1 X132.947 Y82.947 E2.38042
G1 X133.963 Y84.519 E2.39757
G1 X134.259 Y85.123 E2.40373
G1 X141.664 Y101.374 E2.56736
G1 X142.072 Y102.345 E2.57701
G1 X142.739 Y105.407 E2.60573
G1 X142.795 Y107.353 E2.62356
G1 X142.795 Y114.494 E2.68900
G1 X142.397 Y117.076 E2.71293
G1 X141.885 Y118.339 E2.72542
G1 X141.389 Y119.330 E2.73557
G1 X139.876 Y121.460 E2.75951
G1 X137.793 Y123.036 E2.78344
G1 X135.332 Y123.912 E2.80738
G1 X133.752 Y124.065 E2.82193
G1 X115.819 Y124.136 E2.98624
G1 X113.236 Y123.748 E3.01017
G1 X110.889 Y122.601 E3.03411
G1 X108.996 Y120.801 E3.05804
G1 X107.732 Y118.515 E3.08198
G1 X107.205 Y115.556 E3.10952
G1 X107.205 Y106.629 E3.19131
G1 X108.075 Y102.864 E3.22672
G1 X117.037 Y84.519 E3.41379
G1 X117.898 Y83.306 E3.42742
G1 X118.169 Y83.426 F12000.000
G1 X118.788 Y82.559 E3.43718 F600.000
G1 X120.150 Y81.438 E3.45334
G1 X120.628 Y81.123 E3.45858
G1 X122.965 Y80.060 E3.48211
G1 X125.186 Y79.757 E3.50265
G1 X125.814 Y79.757 E3.50840
G1 X128.350 Y80.155 E3.53193
G1 X130.372 Y81.123 E3.55246 F600.000
G1 X130.850 Y81.438 E3.55770
G1 X132.750 Y83.164 E3.58123
G1 X133.703 Y84.649 E3.59739
G1 X133.995 Y85.243 E3.60346
G1 X141.397 Y101.486 E3.76701
G1 X141.805 Y102.457 E3.77666
G1 X142.449 Y105.416 E3.80441
G1 X142.505 Y107.353 E3.82216
G1 X142.505 Y114.494 E3.88760
G1 X141.626 Y118.209 E3.92257
G1 X141.129 Y119.200 E3.93273
G1 X139.637 Y121.289 E3.95625
G1 X137.577 Y122.822 E3.97978
G1 X135.147 Y123.651 E4.00330
G1 X133.751 Y123.775 E4.01615
G1 X115.818 Y123.846 E4.18046
G1 X113.280 Y123.458 E4.20399
G1 X110.982 Y122.313 E4.22751
G1 X109.145 Y120.519 E4.25104
G1 X107.945 Y118.249 E4.27456
G1 X107.495 Y115.556 E4.29958
G1 X107.495 Y106.629 E4.38138
G1 X108.336 Y102.991 E4.41558
G1 X117.296 Y84.649 E4.60263
G1 X118.134 Y83.475 E4.61585
G1 F1800.000 E3.61585
G1 Z0.250 F12000.000
G92 E0
G1 X128.155 Y106.446 F12000.000
G1 Z0.200 F12000.000
G1 E1.00000 F1800.000
G1 X131.555 Y106.446 E1.03115 F600.000
G1 X131.555 Y114.756 E1.10729
G1 X129.317 Y114.756 E1.12779
G1 X129.307 Y114.601 E1.12922
G1 X129.339 Y114.101 E1.13381
G1 X129.305 Y113.570 E1.13868
G1 X129.206 Y113.047 E1.14356
G1 X129.041 Y112.541 E1.14844
G1 X128.815 Y112.059 E1.15332
G1 X128.529 Y111.610 E1.15819
G1 X128.190 Y111.199 E1.16307
G1 X127.802 Y110.835 E1.16795
G1 X127.371 Y110.522 E1.17283
G1 X126.905 Y110.266 E1.17770
G1 X126.410 Y110.070 E1.18258
G1 X125.894 Y109.937 E1.18746
G1 X125.366 Y109.871 E1.19234
G1 X124.834 Y109.871 E1.19721
G1 X124.306 Y109.937 E1.20209
G1 X123.790 Y110.070 E1.20697
G1 X123.295 Y110.266 E1.21185
G1 X122.829 Y110.522 E1.21672
G1 X122.658 Y110.646 E1.21866
G1 X122.398 Y110.835 E1.22160
G1 X122.010 Y111.199 E1.22648
G1 X121.671 Y111.610 E1.23136
G1 X121.385 Y112.059 E1.23623
G1 X121.159 Y112.541 E1.24111
G1 X120.994 Y113.047 E1.24599
G1 X120.895 Y113.570 E1.25087
G1 X120.861 Y114.101 E1.25574
G1 X120.893 Y114.601 E1.26033
G1 X120.883 Y114.756 E1.26176
G1 X118.445 Y114.756 E1.28409
G1 X118.445 Y106.446 E1.36023
G1 X122.845 Y106.446 E1.40055
G1 X122.845 Y102.446 E1.43720
G1 X128.155 Y102.446 E1.48585
G1 X128.155 Y106.386 E1.52195
G1 X128.445 Y106.156 F12000.000
G1 X131.845 Y106.156 E1.55310 F600.000
G1 X131.845 Y115.046 E1.63455
G1 X129.045 Y115.046 E1.66021
G1 X129.017 Y114.601 E1.66430
G1 X129.048 Y114.101 E1.66889
G1 X129.017 Y113.606 E1.67343
G1 X128.924 Y113.119 E1.67797
G1 X128.771 Y112.648 E1.68251
G1 X128.560 Y112.199 E1.68706
G1 X128.294 Y111.780 E1.69160
G1 X127.978 Y111.398 E1.69614
G1 X127.617 Y111.059 E1.70069
G1 X127.216 Y110.767 E1.70523
G1 X126.781 Y110.529 E1.70977
G1 X126.320 Y110.346 E1.71432
G1 X125.840 Y110.223 E1.71886
G1 X125.348 Y110.161 E1.72340
G1 X124.852 Y110.161 E1.72795
G1 X124.360 Y110.223 E1.73249
G1 X123.880 Y110.346 E1.73703
G1 X123.419 Y110.529 E1.74157
G1 X122.984 Y110.767 E1.74612
G1 X122.828 Y110.881 E1.74788
G1 X122.583 Y111.059 E1.75066
G1 X122.222 Y111.398 E1.75520
G1 X121.906 Y111.780 E1.75975
G1 X121.640 Y112.199 E1.76429
G1 X121.429 Y112.648 E1.76883
G1 X121.276 Y113.119 E1.77338
G1 X121.183 Y113.606 E1.77792
G1 X121.152 Y114.101 E1.78246
G1 X121.183 Y114.601 E1.78705
G1 X121.155 Y115.046 E1.79114
G1 X118.155 Y115.046 E1.81863
G1 X118.155 Y106.156 E1.90008
G1 X122.555 Y106.156 E1.94040
G1 X122.555 Y102.156 E1.97705
G1 X128.445 Y102.156 E2.03101
G1 X128.445 Y106.096 E2.06711
G1 X128.735 Y105.866 F12000.000
G1 X131.890 Y105.866 E2.09602 F600.000
G1 X132.037 Y105.912 E2.09743
G1 X132.122 Y106.029 E2.09876
G1 X132.135 Y106.111 E2.09952
G1 X132.135 Y115.091 E2.18180
G1 X132.122 Y115.173 E2.18256
G1 X132.037 Y115.290 E2.18388
G1 X131.890 Y115.336 E2.18529
G1 X128.743 Y115.336 E2.21413
G1 X128.758 Y115.101 E2.21629
G1 X128.721 Y114.601 E2.22088
G1 X128.758 Y114.101 E2.22547
G1 X128.729 Y113.643 E2.22968
G1 X128.643 Y113.191 E2.23389
G1 X128.501 Y112.755 E2.23810
G1 X128.305 Y112.339 E2.24231
G1 X128.059 Y111.951 E2.24652
G1 X127.766 Y111.597 E2.25072
G1 X127.431 Y111.283 E2.25493
G1 X127.060 Y111.013 E2.25914
G1 X126.657 Y110.792 E2.26335
G1 X126.230 Y110.622 E2.26756
G1 X125.785 Y110.508 E2.27177
G1 X125.330 Y110.451 E2.27598
G1 X124.870 Y110.451 E2.28019
G1 X124.415 Y110.508 E2.28439
G1 X123.970 Y110.622 E2.28860
G1 X123.543 Y110.792 E2.29281
G1 X123.140 Y111.013 E2.29702
G1 X122.769 Y111.283 E2.30123
G1 X122.434 Y111.597 E2.30544
G1 X122.141 Y111.951 E2.30965
G1 X121.895 Y112.339 E2.31385
G1 X121.774 Y112.597 E2.31646
G1 X121.699 Y112.755 E2.31806
G1 X121.557 Y113.191 E2.32227
G1 X121.471 Y113.643 E2.32648
G1 X121.442 Y114.101 E2.33069
G1 X121.479 Y114.601 E2.33528
G1 X121.442 Y115.101 E2.33988
G1 X121.457 Y115.336 E2.34203
G1 X118.110 Y115.336 E2.37270
G1 X117.963 Y115.290 E2.37412
G1 X117.878 Y115.173 E2.37544
G1 X117.865 Y115.091 E2.37620
G1 X117.865 Y106.111 E2.45848
G1 X117.878 Y106.029 E2.45924
G1 X117.963 Y105.912 E2.46056
G1 X118.110 Y105.866 E2.46198
G1 X122.265 Y105.866 E2.50005
G1 X122.265 Y102.111 E2.53445
G1 X122.278 Y102.029 E2.53521
G1 X122.363 Y101.912 E2.53653
G1 X122.510 Y101.866 E2.53795
G1 X128.490 Y101.866 E2.59274
G1 X128.637 Y101.912 E2.59415
G1 X128.722 Y102.029 E2.59547
G1 X128.735 Y102.111 E2.59624
G1 X128.735 Y105.806 E2.63009
G1 X128.735 Y106.266 F12000.000
G1 X131.365 Y106.907 F12000.000
G1 X131.094 Y106.637 E2.63360 F600.000
G1 X130.679 Y106.637 E2.63740
G1 X131.365 Y107.322 E2.64629
G1 X131.365 Y107.738 E2.65009
G1 X130.264 Y106.637 E2.66436
G1 X129.848 Y106.637 E2.66817
G1 X131.365 Y108.153 E2.68781
G1 X131.365 Y108.568 E2.69162
G1 X129.433 Y106.637 E2.71665
G1 X129.018 Y106.637 E2.72045
G1 X131.365 Y108.983 E2.75086
G1 X131.365 Y109.399 E2.75467
G1 X128.602 Y106.637 E2.79046
G1 X128.187 Y106.637 E2.79426
G1 X131.365 Y109.814 E2.83544
G1 X131.365 Y110.229 E2.83924
G1 X123.772 Y102.637 E2.93763
G1 X124.187 Y102.637 E2.94143
G1 X127.965 Y106.414 E2.99038
G1 X127.965 Y105.999 E2.99418
G1 X124.602 Y102.637 E3.03775
G1 X125.018 Y102.637 E3.04155
G1 X127.965 Y105.583 E3.07974
G1 X127.965 Y105.168 E3.08354
G1 X125.433 Y102.637 E3.11635
G1 X125.848 Y102.637 E3.12015
G1 X127.965 Y104.753 E3.14757
G1 X127.965 Y104.338 E3.15138
G1 X126.264 Y102.637 E3.17342
G1 X126.679 Y102.637 E3.17723
G1 X127.965 Y103.922 E3.19389
G1 X127.965 Y103.507 E3.19769
G1 X127.094 Y102.637 E3.20897
G1 X127.509 Y102.637 E3.21278
G1 X127.965 Y103.092 E3.21868
G1 X127.965 Y102.677 E3.22248
G1 X127.925 Y102.637 E3.22300
G1 F1800.000 E2.22300
G1 Z0.250 F12000.000
G92 E0
G1 X126.452 Y109.884 F12000.000
G1 Z0.200 F12000.000
G1 E1.00000 F1800.000
G1 X123.035 Y106.468 E1.04427 F600.000
G1 X122.789 Y106.637 E1.04700
G1 X125.898 Y109.746 E1.08730
G1 X125.423 Y109.686 E1.09169
G1 X122.374 Y106.637 E1.13120
G1 X121.958 Y106.637 E1.13501
G1 X125.002 Y109.680 E1.17445
G1 X124.613 Y109.707 E1.17802
G1 X121.543 Y106.637 E1.21780
G1 X121.128 Y106.637 E1.22161
G1 X124.247 Y109.756 E1.26203
G1 X123.917 Y109.841 E1.26515
G1 X120.713 Y106.637 E1.30667
G1 X120.297 Y106.637 E1.31048
G1 X123.601 Y109.940 E1.35328
G1 X123.303 Y110.058 E1.35622
G1 X119.882 Y106.637 E1.40055
G1 X119.467 Y106.637 E1.40435
G1 X123.026 Y110.196 E1.45048
G1 X122.759 Y110.344 E1.45328
G1 X119.051 Y106.637 E1.50132
G1 X118.656 Y106.656 E1.50495
G1 X122.515 Y110.515 E1.55495
G1 X122.274 Y110.690 E1.55767
G1 X118.635 Y107.051 E1.60483
G1 X118.635 Y107.466 E1.60863
G1 X122.060 Y110.891 E1.65301
G1 X121.849 Y111.095 E1.65570
G1 X118.635 Y107.881 E1.69735
G1 X118.635 Y108.297 E1.70115
G1 X121.661 Y111.323 E1.74036
G1 X121.479 Y111.556 E1.74307
G1 X118.635 Y108.712 E1.77992
G1 X118.635 Y109.127 E1.78373
G1 X121.318 Y111.810 E1.81849
G1 X121.168 Y112.075 E1.82128
G1 X118.635 Y109.543 E1.85409
G1 X118.635 Y109.958 E1.85790
G1 X121.035 Y112.357 E1.88899
G1 X120.921 Y112.658 E1.89194
G1 X118.635 Y110.373 E1.92155
G1 X118.635 Y110.788 E1.92536
G1 X120.819 Y112.972 E1.95365
G1 X120.749 Y113.317 E1.95688
G1 X118.635 Y111.204 E1.98427
G1 X118.635 Y111.619 E1.98807
G1 X120.697 Y113.680 E2.01478
G1 X120.672 Y114.071 E2.01837
G1 X118.635 Y112.034 E2.04477
G1 X118.635 Y112.449 E2.04857
G1 X120.696 Y114.510 E2.07527
G1 X120.336 Y114.566 E2.07861
G1 X118.635 Y112.865 E2.10065
G1 X118.635 Y113.280 E2.10446
G1 X119.921 Y114.566 E2.12112
G1 X119.506 Y114.566 E2.12492
G1 X118.635 Y113.695 E2.13620
G1 X118.635 Y114.110 E2.14001
G1 X119.091 Y114.566 E2.14591
G1 X118.675 Y114.566 E2.14971
G1 X118.635 Y114.526 E2.15023
G1 F1800.000 E1.15023
G1 Z0.250 F12000.000
G92 E0
G1 X127.186 Y110.203 F12000.000
G1 Z0.200 F12000.000
G1 E1.00000 F1800.000
G1 X123.035 Y106.053 E1.05378 F600.000
G1 X123.035 Y105.637 E1.05759
G1 X131.365 Y113.967 E1.16551
G1 X131.365 Y113.551 E1.16932
G1 X123.035 Y105.222 E1.27725
G1 X123.035 Y104.807 E1.28105
G1 X131.365 Y113.136 E1.38898
G1 X131.365 Y112.721 E1.39279
G1 X123.035 Y104.392 E1.50072
G1 X123.035 Y103.976 E1.50452
G1 X131.365 Y112.305 E1.61245
G1 X131.365 Y111.890 E1.61625
G1 X123.035 Y103.561 E1.72418
G1 X123.035 Y103.146 E1.72799
G1 X131.365 Y111.475 E1.83592
G1 X131.365 Y111.060 E1.83972
G1 X123.035 Y102.730 E1.94765
G1 X123.357 Y102.637 E1.95072
G1 X131.365 Y110.644 E2.05448
G1 X129.010 Y112.027 F12000.000
G1 X131.365 Y114.382 E2.08500 F600.000
G1 X131.133 Y114.566 E2.08770
G1 X129.305 Y112.738 E2.11139
G1 X129.447 Y113.294 E2.11665
G1 X130.718 Y114.566 E2.13313
G1 X130.303 Y114.566 E2.13693
G1 X129.509 Y113.772 E2.14722
G1 X129.523 Y114.201 E2.15116
G1 X129.887 Y114.566 E2.15588
G1 F1800.000 E1.15588
G1 Z0.250 F12000.000
G92 E0
G1 X125.742 Y89.152 F12000.000
G1 Z0.200 F12000.000
G1 E1.00000 F1800.000
G1 X125.601 Y89.245 E1.00154 F600.000
G1 X125.399 Y89.245 E1.00340
G1 X125.258 Y89.152 E1.00494
G1 X125.218 Y89.071 E1.00577
G1 X125.200 Y89.001 E1.00643
G1 X125.258 Y88.850 E1.00791
G1 X125.399 Y88.758 E1.00946
G1 X125.601 Y88.758 E1.01131
G1 X125.742 Y88.850 E1.01286
G1 X125.782 Y88.931 E1.01368
G1 X125.800 Y89.001 E1.01435
G1 X125.769 Y89.098 E1.01528
G1 X125.771 Y89.480 F12000.000
G1 X125.688 Y89.535 E1.01619 F600.000
G1 X125.312 Y89.535 E1.01964
G1 X125.034 Y89.351 E1.02269
G1 X124.944 Y89.173 E1.02452
G1 X124.901 Y89.001 E1.02615
G1 X124.944 Y88.829 E1.02777
G1 X125.034 Y88.651 E1.02960
G1 X125.229 Y88.522 E1.03174
G1 X125.312 Y88.468 E1.03265
G1 X125.688 Y88.468 E1.03610
G1 X125.966 Y88.651 E1.03915
G1 X126.056 Y88.829 E1.04098
G1 X126.099 Y89.001 E1.04261
G1 X126.056 Y89.173 E1.04423
G1 X125.966 Y89.351 E1.04606
G1 X125.821 Y89.447 E1.04765
G1 X125.930 Y89.722 F12000.000
G1 X125.775 Y89.825 E1.04936 F600.000
G1 X125.225 Y89.825 E1.05440
G1 X124.809 Y89.551 E1.05896
G1 X124.671 Y89.275 E1.06179
G1 X124.602 Y89.001 E1.06438
G1 X124.671 Y88.727 E1.06696
G1 X124.809 Y88.451 E1.06979
G1 X125.225 Y88.177 E1.07436
G1 X125.775 Y88.177 E1.07940
G1 X125.983 Y88.314 E1.08168
G1 X126.191 Y88.451 E1.08396 F600.000
G1 X126.329 Y88.727 E1.08679
G1 X126.398 Y89.001 E1.08938
G1 X126.329 Y89.275 E1.09196
G1 X126.191 Y89.551 E1.09479
G1 X125.981 Y89.689 E1.09710
G1 X126.146 Y88.503 F12000.000
M204 S500
G1 F1800.000 E0.09710
G1 Z0.250 F12000.000
G92 E0
G1 X124.070 Y93.669 F12000.000
G1 Z0.200 F12000.000
G1 E1.00000 F1800.000
G1 X123.965 Y93.880 E1.00297 F600.000
G1 X123.965 Y95.665 E1.02553
G1 X124.883 Y93.833 E1.05142
G1 X125.761 Y93.866 E1.06253
G1 X123.965 Y97.450 E1.11319
G1 X123.965 Y99.236 E1.13575
G1 X126.728 Y93.723 E1.21366
G1 X127.035 Y94.896 E1.22898
G1 X124.109 Y100.733 E1.31149
G1 X125.004 Y100.733 E1.32280
G1 X127.035 Y96.682 E1.38007
G1 X127.035 Y98.467 E1.40263
G1 X125.899 Y100.733 E1.43466
G1 X126.794 Y100.733 E1.44597
G1 X127.035 Y100.252 E1.45277
G1 X130.309 Y102.648 F12000.000
G1 X129.938 Y103.388 E1.46323 F600.000
G1 X130.815 Y103.424 E1.47432
G1 X130.258 Y104.533 E1.49000
G1 X131.153 Y104.533 E1.50131
G1 X131.528 Y103.787 E1.51187
G1 X132.392 Y103.848 E1.52281
G1 X132.041 Y104.548 E1.53271
G1 X132.802 Y104.815 E1.54291
G1 X133.137 Y104.147 E1.55234
G1 X133.755 Y104.700 E1.56282
G1 X133.347 Y105.514 E1.57433
G1 X134.163 Y105.670 E1.58483
G1 X133.468 Y107.057 E1.60443
G1 X134.215 Y107.353 E1.61458
G1 X133.468 Y108.843 E1.63564
G1 X134.215 Y109.138 E1.64579
G1 X133.468 Y110.628 E1.66685
G1 X134.215 Y110.924 E1.67700
G1 X133.468 Y112.414 E1.69806
G1 X134.215 Y112.709 E1.70821
G1 X133.268 Y114.598 E1.73492
G1 X133.718 Y115.485 E1.74749
G1 X134.215 Y114.494 E1.76149
G1 F1800.000 E0.76149
G1 Z0.250 F12000.000
G92 E0
G1 X120.415 Y104.533 F12000.000
G1 Z0.200 F12000.000
G1 E1.00000 F1800.000
G1 X121.132 Y103.102 E1.02023 F600.000
G1 X120.465 Y102.648 E1.03043
G1 X120.185 Y103.206 E1.03831
G1 X119.894 Y103.787 F12000.000
G1 X119.520 Y104.533 E1.04887 F600.000
G1 X118.625 Y104.533 E1.06018
G1 X119.000 Y103.787 E1.07073
G1 X118.105 Y103.787 E1.08204
G1 X117.703 Y104.589 E1.09339
G1 X117.086 Y104.034 E1.10387
G1 X115.785 Y106.629 E1.14055
G1 X116.532 Y106.924 E1.15070
G1 X115.785 Y108.414 E1.17176
G1 X116.532 Y108.709 E1.18191
G1 X115.785 Y110.199 E1.20297
G1 X116.532 Y110.495 E1.21312
G1 X115.785 Y111.985 E1.23418
G1 X116.532 Y112.280 E1.24433
G1 X115.785 Y113.770 E1.26539
G1 X115.785 Y115.556 E1.28795
G1 X116.532 Y114.066 E1.30901
M204 S1500
G1 F1800.000 E0.30901
G1 Z0.450 F12000.000
G92 E0
