; generated by Slic3r 1.1.7 on 2015-04-02 at 14:58:02

; perimeters extrusion width = 0.40mm
; infill extrusion width = 0.67mm
; solid infill extrusion width = 0.50mm
; top infill extrusion width = 0.30mm

G21 ; set units to millimeters
M107
M190 S70 ; wait for bed temperature to be reached
M104 S240 ; set temperature
G28 ; home all axes
M109 S240 ; wait for temperature to be reached
G90 ; use absolute coordinates
G92 E0
M82 ; use absolute distances for extrusion
M204 S500
G1 F1800.000 E-1.00000
G1 Z0.250 F12000.000
G92 E0
G1 X116.820 Y78.410 F12000.000
G1 Z0.200 F12000.000
G1 E1.00000 F1800.000
G1 X118.349 Y76.246 E1.02274 F600.000
G1 X119.857 Y74.992 E1.03958
G1 X120.335 Y74.678 E1.04449
G1 X122.741 Y73.570 E1.06724
G1 X125.186 Y73.224 E1.08844
G1 X125.814 Y73.224 E1.09383
G1 X128.433 Y73.622 E1.11657
G1 X130.665 Y74.678 E1.13777 F600.000
G1 X131.143 Y74.992 E1.14268
G1 X133.112 Y76.765 E1.16542
G1 X134.180 Y78.410 E1.18226
G1 X134.340 Y78.730 E1.18533
G1 X135.006 Y80.522 E1.20175
G1 X135.189 Y81.295 E1.20856
G1 X140.981 Y110.732 E1.46613
G1 X141.088 Y112.101 E1.47792
G1 X141.088 Y121.101 E1.55518
G1 X140.962 Y122.593 E1.56804
G1 X140.108 Y125.220 E1.59175
G1 X140.057 Y125.321 E1.59273
G1 X138.432 Y127.556 E1.61644
G1 X138.345 Y127.644 E1.61750
G1 X136.122 Y129.257 E1.64109
G1 X136.019 Y129.309 E1.64207
G1 X133.393 Y130.162 E1.66578
G1 X131.900 Y130.289 E1.67864
G1 X118.100 Y130.289 E1.79712
G1 X116.722 Y130.181 E1.80898
G1 X116.606 Y130.162 E1.80999
G1 X113.982 Y129.310 E1.83368
G1 X113.878 Y129.257 E1.83468
G1 X111.648 Y127.636 E1.85835
G1 X111.565 Y127.554 E1.85935
G1 X109.943 Y125.321 E1.88304
G1 X109.892 Y125.220 E1.88402
G1 X109.039 Y122.595 E1.90771
G1 X108.912 Y121.101 E1.92058
G1 X108.912 Y112.101 E1.99785
G1 X109.020 Y110.722 E2.00972
G1 X109.157 Y109.997 E2.01605
G1 X115.913 Y80.841 E2.27299
G1 X115.994 Y80.522 E2.27582
G1 X116.660 Y78.730 E2.29223
G1 X116.793 Y78.464 E2.29479
G1 X117.065 Y78.533 F12000.000
G1 X118.575 Y76.407 E2.31717 F600.000
G1 X120.008 Y75.222 E2.33314
G1 X120.485 Y74.907 E2.33805
G1 X122.857 Y73.822 E2.36043
G1 X125.186 Y73.499 E2.38062
G1 X125.814 Y73.499 E2.38601
G1 X128.391 Y73.896 E2.40840
G1 X130.515 Y74.907 E2.42859 F600.000
G1 X130.992 Y75.222 E2.43350
G1 X132.926 Y76.971 E2.45588
G1 X133.935 Y78.533 E2.47185
G1 X134.095 Y78.853 E2.47492
G1 X134.740 Y80.589 E2.49082
G1 X134.920 Y81.348 E2.49751
G1 X140.710 Y110.775 E2.75499
G1 X140.814 Y112.101 E2.76641
G1 X140.814 Y121.101 E2.84368
G1 X140.691 Y122.550 E2.85616
G1 X139.864 Y125.095 E2.87913
G1 X139.812 Y125.197 E2.88011
G1 X138.238 Y127.362 E2.90310
G1 X138.151 Y127.449 E2.90415
G1 X135.997 Y129.013 E2.92700
G1 X135.895 Y129.065 E2.92799
G1 X133.351 Y129.892 E2.95095
G1 X131.900 Y130.015 E2.96345
G1 X118.100 Y130.015 E3.08193
G1 X116.765 Y129.910 E3.09342
G1 X116.649 Y129.892 E3.09443
G1 X114.107 Y129.065 E3.11738
G1 X114.003 Y129.012 E3.11838
G1 X111.842 Y127.442 E3.14131
G1 X111.759 Y127.360 E3.14231
G1 X110.188 Y125.197 E3.16527
G1 X110.136 Y125.095 E3.16625
G1 X109.310 Y122.552 E3.18921
G1 X109.186 Y121.101 E3.20170
G1 X109.186 Y112.101 E3.27897
G1 X109.291 Y110.765 E3.29047
G1 X109.425 Y110.059 E3.29664
G1 X116.179 Y80.908 E3.55353
G1 X116.260 Y80.589 E3.55636
G1 X116.905 Y78.853 E3.57226
G1 X117.038 Y78.587 E3.57482
G1 X117.310 Y78.656 F12000.000
G1 X118.801 Y76.568 E3.59684 F600.000
G1 X120.159 Y75.451 E3.61193
G1 X120.636 Y75.136 E3.61684
G1 X122.972 Y74.075 E3.63886
G1 X125.186 Y73.773 E3.65805
G1 X125.814 Y73.773 E3.66344
G1 X128.348 Y74.171 E3.68546
G1 X130.364 Y75.136 E3.70465 F600.000
G1 X130.841 Y75.451 E3.70956
G1 X132.739 Y77.176 E3.73158
G1 X133.689 Y78.656 E3.74668
G1 X133.850 Y78.976 E3.74975
G1 X134.474 Y80.656 E3.76514
G1 X134.651 Y81.401 E3.77171
G1 X140.439 Y110.818 E4.02910
G1 X140.539 Y112.101 E4.04015
G1 X140.539 Y121.101 E4.11741
G1 X140.420 Y122.507 E4.12953
G1 X139.619 Y124.971 E4.15176
G1 X139.568 Y125.072 E4.15274
G1 X138.044 Y127.168 E4.17499
G1 X137.957 Y127.255 E4.17604
G1 X135.872 Y128.768 E4.19816
G1 X135.770 Y128.820 E4.19915
G1 X133.308 Y129.621 E4.22137
G1 X131.900 Y129.740 E4.23350
G1 X118.100 Y129.740 E4.35198
G1 X116.808 Y129.639 E4.36310
G1 X116.692 Y129.621 E4.36411
G1 X114.231 Y128.821 E4.38632
G1 X114.127 Y128.768 E4.38733
G1 X112.036 Y127.248 E4.40952
G1 X111.953 Y127.166 E4.41052
G1 X110.432 Y125.072 E4.43274
G1 X110.381 Y124.971 E4.43372
G1 X109.581 Y122.509 E4.45594
G1 X109.461 Y121.101 E4.46807
G1 X109.461 Y112.101 E4.54533
G1 X109.562 Y110.808 E4.55647
G1 X109.692 Y110.121 E4.56247
G1 X116.445 Y80.976 E4.81931
G1 X116.526 Y80.656 E4.82214
G1 X117.150 Y78.976 E4.83753
G1 X117.284 Y78.709 E4.84009
G1 F1800.000 E3.84009
G1 Z0.250 F12000.000
G92 E0
G1 X128.196 Y112.405 F12000.000
G1 Z0.200 F12000.000
G1 E1.00000 F1800.000
G1 X131.596 Y112.405 E1.02919 F600.000
G1 X131.596 Y120.797 E1.10124
G1 X129.278 Y120.797 E1.12114
G1 X129.266 Y120.601 E1.12283
G1 X129.297 Y120.101 E1.12713
G1 X129.266 Y119.601 E1.13143
G1 X129.297 Y119.101 E1.13573
G1 X129.266 Y118.601 E1.14003
G1 X129.297 Y118.101 E1.14433
G1 X129.264 Y117.575 E1.14886
G1 X129.166 Y117.057 E1.15338
G1 X129.003 Y116.556 E1.15791
G1 X128.778 Y116.079 E1.16243
G1 X128.496 Y115.634 E1.16696
G1 X128.160 Y115.228 E1.17148
G1 X127.776 Y114.867 E1.17601
G1 X127.349 Y114.557 E1.18053
G1 X126.887 Y114.303 E1.18506
G1 X126.397 Y114.109 E1.18959
G1 X125.887 Y113.978 E1.19411
G1 X125.364 Y113.912 E1.19864
G1 X124.836 Y113.912 E1.20316
G1 X124.313 Y113.978 E1.20769
G1 X123.803 Y114.109 E1.21221
G1 X123.313 Y114.303 E1.21674
G1 X122.851 Y114.557 E1.22126
G1 X122.424 Y114.867 E1.22579
G1 X122.040 Y115.228 E1.23031
G1 X121.704 Y115.634 E1.23484
G1 X121.422 Y116.079 E1.23936
G1 X121.197 Y116.556 E1.24389
G1 X121.034 Y117.057 E1.24841
G1 X120.936 Y117.575 E1.25294
G1 X120.903 Y118.101 E1.25746
G1 X120.934 Y118.601 E1.26177
G1 X120.903 Y119.101 E1.26607
G1 X120.934 Y119.601 E1.27037
G1 X120.903 Y120.101 E1.27467
G1 X120.934 Y120.601 E1.27897
G1 X120.922 Y120.797 E1.28066
G1 X118.404 Y120.797 E1.30227
G1 X118.404 Y112.405 E1.37432
G1 X122.804 Y112.405 E1.41210
G1 X122.804 Y108.405 E1.44644
G1 X128.196 Y108.405 E1.49273
G1 X128.196 Y112.345 E1.52656
G1 X128.471 Y112.130 F12000.000
G1 X131.871 Y112.130 E1.55575 F600.000
G1 X131.871 Y121.072 E1.63251
G1 X129.021 Y121.072 E1.65698
G1 X128.991 Y120.601 E1.66102
G1 X129.022 Y120.101 E1.66532
G1 X128.991 Y119.601 E1.66963
G1 X129.022 Y119.101 E1.67393
G1 X128.991 Y118.601 E1.67823
G1 X129.022 Y118.101 E1.68253
G1 X128.992 Y117.609 E1.68676
G1 X128.899 Y117.126 E1.69099
G1 X128.747 Y116.657 E1.69521
G1 X128.537 Y116.211 E1.69944
G1 X128.273 Y115.796 E1.70367
G1 X127.959 Y115.416 E1.70790
G1 X127.600 Y115.079 E1.71213
G1 X127.202 Y114.789 E1.71636
G1 X126.770 Y114.552 E1.72059
G1 X126.312 Y114.371 E1.72482
G1 X125.835 Y114.248 E1.72905
G1 X125.346 Y114.186 E1.73328
G1 X124.854 Y114.186 E1.73750
G1 X124.365 Y114.248 E1.74173
G1 X123.888 Y114.371 E1.74596
G1 X123.430 Y114.552 E1.75019
G1 X123.278 Y114.635 E1.75168
G1 X122.998 Y114.789 E1.75442
G1 X122.600 Y115.079 E1.75865
G1 X122.241 Y115.416 E1.76288
G1 X121.927 Y115.796 E1.76711
G1 X121.663 Y116.211 E1.77134
G1 X121.453 Y116.657 E1.77556
G1 X121.354 Y116.961 E1.77831
G1 X121.301 Y117.126 E1.77979
G1 X121.208 Y117.609 E1.78402
G1 X121.177 Y118.101 E1.78825
G1 X121.209 Y118.601 E1.79255
G1 X121.177 Y119.101 E1.79685
G1 X121.209 Y119.601 E1.80115
G1 X121.177 Y120.101 E1.80546
G1 X121.209 Y120.601 E1.80976
G1 X121.179 Y121.072 E1.81380
G1 X118.129 Y121.072 E1.83999
G1 X118.129 Y112.130 E1.91675
G1 X122.529 Y112.130 E1.95452
G1 X122.529 Y108.130 E1.98886
G1 X128.471 Y108.130 E2.03987
G1 X128.471 Y112.070 E2.07369
G1 X128.745 Y111.856 F12000.000
G1 X131.891 Y111.856 E2.10070 F600.000
G1 X131.975 Y111.870 E2.10143
G1 X132.043 Y111.904 E2.10209
G1 X132.132 Y112.026 E2.10338
G1 X132.145 Y112.110 E2.10412
G1 X132.145 Y121.092 E2.18122
G1 X132.132 Y121.176 E2.18195
G1 X132.043 Y121.298 E2.18325
G1 X131.975 Y121.333 E2.18390
G1 X131.891 Y121.346 E2.18464
G1 X128.732 Y121.346 E2.21175
G1 X128.748 Y121.101 E2.21386
G1 X128.711 Y120.601 E2.21816
G1 X128.748 Y120.101 E2.22247
G1 X128.711 Y119.601 E2.22677
G1 X128.748 Y119.101 E2.23107
G1 X128.711 Y118.601 E2.23538
G1 X128.748 Y118.101 E2.23968
G1 X128.719 Y117.644 E2.24362
G1 X128.633 Y117.194 E2.24755
G1 X128.491 Y116.758 E2.25148
G1 X128.296 Y116.344 E2.25541
G1 X128.051 Y115.957 E2.25935
G1 X127.759 Y115.604 E2.26328
G1 X127.425 Y115.291 E2.26721
G1 X127.054 Y115.021 E2.27114
G1 X126.653 Y114.801 E2.27508
G1 X126.227 Y114.632 E2.27901
G1 X125.783 Y114.518 E2.28294
G1 X125.329 Y114.461 E2.28687
G1 X124.871 Y114.461 E2.29081
G1 X124.416 Y114.518 E2.29474
G1 X123.973 Y114.632 E2.29867
G1 X123.547 Y114.801 E2.30260
G1 X123.410 Y114.876 E2.30394
G1 X123.145 Y115.021 E2.30654
G1 X122.775 Y115.291 E2.31047
G1 X122.441 Y115.604 E2.31440
G1 X122.149 Y115.957 E2.31833
G1 X121.904 Y116.344 E2.32227
G1 X121.709 Y116.758 E2.32620
G1 X121.615 Y117.046 E2.32879
G1 X121.567 Y117.194 E2.33013
G1 X121.481 Y117.644 E2.33406
G1 X121.452 Y118.101 E2.33800
G1 X121.489 Y118.601 E2.34230
G1 X121.452 Y119.101 E2.34661
G1 X121.489 Y119.601 E2.35091
G1 X121.452 Y120.101 E2.35521
G1 X121.489 Y120.601 E2.35952
G1 X121.452 Y121.101 E2.36382
G1 X121.468 Y121.346 E2.36593
G1 X118.109 Y121.346 E2.39476
G1 X118.025 Y121.333 E2.39550
G1 X117.957 Y121.298 E2.39615
G1 X117.868 Y121.176 E2.39744
G1 X117.855 Y121.092 E2.39818
G1 X117.855 Y112.111 E2.47528
G1 X117.868 Y112.026 E2.47602
G1 X117.957 Y111.904 E2.47731
G1 X118.025 Y111.870 E2.47796
G1 X118.109 Y111.856 E2.47870
G1 X122.255 Y111.856 E2.51429
G1 X122.255 Y108.111 E2.54644
G1 X122.268 Y108.026 E2.54718
G1 X122.357 Y107.904 E2.54847
G1 X122.425 Y107.870 E2.54913
G1 X122.509 Y107.856 E2.54986
G1 X128.491 Y107.856 E2.60121
G1 X128.575 Y107.870 E2.60195
G1 X128.643 Y107.904 E2.60260
G1 X128.732 Y108.026 E2.60389
G1 X128.745 Y108.110 E2.60463
G1 X128.745 Y111.796 E2.63627
G1 X128.745 Y112.256 F12000.000
G1 X126.897 Y114.115 F12000.000
G1 X122.983 Y110.200 E2.68380 F600.000
G1 X122.983 Y110.589 E2.68713
G1 X126.291 Y113.897 E2.72730
G1 X125.790 Y113.786 E2.73170
G1 X122.983 Y110.978 E2.76578
G1 X122.983 Y111.367 E2.76912
G1 X125.349 Y113.733 E2.79785
G1 X124.960 Y113.733 E2.80119
G1 X122.983 Y111.756 E2.82520
G1 X122.983 Y112.145 E2.82853
G1 X124.599 Y113.762 E2.84817
G1 X124.257 Y113.808 E2.85113
G1 X122.983 Y112.534 E2.86660
G1 X122.644 Y112.584 E2.86955
G1 X123.947 Y113.887 E2.88537
G1 X123.649 Y113.978 E2.88805
G1 X122.255 Y112.584 E2.90498
G1 X121.866 Y112.584 E2.90831
G1 X123.370 Y114.088 E2.92658
G1 X123.106 Y114.213 E2.92909
G1 X121.477 Y112.584 E2.94887
G1 X121.088 Y112.584 E2.95220
G1 X122.855 Y114.351 E2.97366
G1 X122.620 Y114.504 E2.97607
G1 X120.699 Y112.584 E2.99939
G1 X120.310 Y112.584 E3.00272
G1 X122.394 Y114.668 E3.02803
G1 X122.185 Y114.847 E3.03040
G1 X119.921 Y112.584 E3.05787
G1 X119.533 Y112.584 E3.06121
G1 X121.984 Y115.035 E3.09097
G1 X121.799 Y115.239 E3.09334
G1 X119.144 Y112.584 E3.12558
G1 X118.755 Y112.584 E3.12891
G1 X121.623 Y115.452 E3.16374
G1 X121.463 Y115.681 E3.16613
G1 X118.583 Y112.800 E3.20110
G1 X118.583 Y113.189 E3.20444
G1 X121.312 Y115.919 E3.23758
G1 X121.179 Y116.175 E3.24005
G1 X118.583 Y113.578 E3.27158
G1 X118.583 Y113.967 E3.27491
G1 X121.055 Y116.439 E3.30493
G1 X120.954 Y116.727 E3.30755
G1 X118.583 Y114.356 E3.33633
G1 X118.583 Y114.745 E3.33967
G1 X120.859 Y117.022 E3.36731
G1 X120.797 Y117.348 E3.37017
G1 X118.583 Y115.134 E3.39705
G1 X118.583 Y115.523 E3.40039
G1 X120.749 Y117.689 E3.42670
G1 X120.726 Y118.055 E3.42984
G1 X118.583 Y115.912 E3.45587
G1 X118.583 Y116.301 E3.45921
G1 X120.746 Y118.464 E3.48548
G1 X120.739 Y118.846 E3.48876
G1 X118.583 Y116.689 E3.51494
G1 X118.583 Y117.078 E3.51828
G1 X120.731 Y119.227 E3.54437
G1 X120.753 Y119.637 E3.54790
G1 X118.583 Y117.467 E3.57424
G1 X118.583 Y117.856 E3.57758
G1 X120.730 Y120.003 E3.60365
G1 X120.743 Y120.405 E3.60710
G1 X118.583 Y118.245 E3.63332
G1 X118.583 Y118.634 E3.63666
G1 X120.567 Y120.619 E3.66076
G1 X120.178 Y120.619 E3.66409
G1 X118.583 Y119.023 E3.68347
G1 X118.583 Y119.412 E3.68681
G1 X119.789 Y120.619 E3.70146
G1 X119.400 Y120.619 E3.70479
G1 X118.583 Y119.801 E3.71472
G1 X118.583 Y120.190 E3.71806
G1 X119.011 Y120.619 E3.72327
G1 X118.623 Y120.619 E3.72661
G1 X118.583 Y120.579 E3.72709
G1 F1800.000 E2.72709
G1 Z0.250 F12000.000
G92 E0
G1 X129.448 Y120.555 F12000.000
G1 Z0.200 F12000.000
G1 E1.00000 F1800.000
G1 X129.512 Y120.619 E1.00077 F600.000
G1 X129.901 Y120.619 E1.00411
G1 X129.471 Y120.189 E1.00933
G1 X129.457 Y119.786 E1.01279
G1 X130.290 Y120.619 E1.02291
G1 X130.679 Y120.619 E1.02625
G1 X129.458 Y119.398 E1.04106
G1 X129.472 Y119.023 E1.04429
G1 X131.067 Y120.619 E1.06366
G1 X131.417 Y120.579 E1.06668
G1 X129.446 Y118.608 E1.09062
G1 X129.468 Y118.241 E1.09377
G1 X131.417 Y120.191 E1.11744
G1 X131.417 Y119.802 E1.12078
G1 X129.460 Y117.845 E1.14454
G1 X129.415 Y117.410 E1.14829
G1 X131.417 Y119.413 E1.17260
G1 X131.417 Y119.024 E1.17594
G1 X129.307 Y116.913 E1.20156
G1 X129.078 Y116.295 F12000.000
G1 X131.417 Y118.635 E1.22997 F600.000
G1 X131.417 Y118.246 E1.23331
G1 X122.983 Y109.811 E1.33571
G1 X122.983 Y109.422 E1.33905
G1 X131.417 Y117.857 E1.44146
G1 X131.417 Y117.468 E1.44480
G1 X122.983 Y109.034 E1.54721
G1 X122.983 Y108.645 E1.55054
G1 X131.417 Y117.079 E1.65295
G1 X131.417 Y116.691 E1.65629
G1 X123.311 Y108.584 E1.75472
G1 X123.699 Y108.584 E1.75805
G1 X131.417 Y116.302 E1.85176
G1 X131.417 Y115.913 E1.85510
G1 X124.088 Y108.584 E1.94408
G1 X124.477 Y108.584 E1.94742
G1 X128.017 Y112.124 E1.99040
G1 X128.017 Y111.735 E1.99374
G1 X124.866 Y108.584 E2.03200
G1 X125.255 Y108.584 E2.03533
G1 X128.017 Y111.346 E2.06887
G1 X128.017 Y110.957 E2.07221
G1 X125.644 Y108.584 E2.10103
G1 X126.033 Y108.584 E2.10436
G1 X128.017 Y110.568 E2.12846
G1 X128.017 Y110.179 E2.13180
G1 X126.422 Y108.584 E2.15117
G1 X126.811 Y108.584 E2.15451
G1 X128.017 Y109.790 E2.16916
G1 X128.017 Y109.402 E2.17250
G1 X127.200 Y108.584 E2.18243
G1 X127.588 Y108.584 E2.18577
G1 X128.017 Y109.013 E2.19097
G1 X128.017 Y108.624 E2.19431
G1 X127.977 Y108.584 E2.19480
G1 F1800.000 E1.19480
G1 Z0.250 F12000.000
G92 E0
G1 X131.417 Y112.802 F12000.000
G1 Z0.200 F12000.000
G1 E1.00000 F1800.000
G1 X131.200 Y112.584 E1.00264 F600.000
G1 X130.811 Y112.584 E1.00598
G1 X131.417 Y113.190 E1.01335
G1 X131.417 Y113.579 E1.01669
G1 X130.422 Y112.584 E1.02878
G1 X130.033 Y112.584 E1.03211
G1 X131.417 Y113.968 E1.04892
G1 X131.417 Y114.357 E1.05226
G1 X129.644 Y112.584 E1.07379
G1 X129.255 Y112.584 E1.07713
G1 X131.417 Y114.746 E1.10339
G1 X131.417 Y115.135 E1.10672
G1 X128.866 Y112.584 E1.13770
G1 X128.477 Y112.584 E1.14104
G1 X131.417 Y115.524 E1.17673
G1 F1800.000 E0.17673
G1 Z0.250 F12000.000
G92 E0
G1 X125.386 Y83.286 F12000.000
G1 Z0.200 F12000.000
G1 E1.00000 F1800.000
G1 X125.226 Y83.180 E1.00165 F600.000
G1 X125.157 Y83.001 E1.00330
G1 X125.226 Y82.822 E1.00495
G1 X125.386 Y82.716 E1.00660
G1 X125.614 Y82.716 E1.00855
G1 X125.774 Y82.822 E1.01020
G1 X125.843 Y83.001 E1.01184
G1 X125.774 Y83.180 E1.01349
G1 X125.614 Y83.286 E1.01514
G1 X125.446 Y83.286 E1.01658
G1 X125.785 Y83.502 F12000.000
G1 X125.696 Y83.560 E1.01750 F600.000
G1 X125.304 Y83.560 E1.02086
G1 X125.014 Y83.369 E1.02384
G1 X124.920 Y83.182 E1.02564
G1 X124.874 Y83.001 E1.02724
G1 X124.920 Y82.820 E1.02885
G1 X125.014 Y82.633 E1.03064
G1 X125.304 Y82.442 E1.03363
G1 X125.696 Y82.442 E1.03699
G1 X125.986 Y82.633 E1.03998
G1 X126.080 Y82.820 E1.04177
G1 X126.126 Y83.001 E1.04337
G1 X126.080 Y83.182 E1.04498
G1 X125.986 Y83.369 E1.04677
G1 X125.835 Y83.469 E1.04833
G1 X125.936 Y83.731 F12000.000
G1 X125.778 Y83.835 E1.04995 F600.000
G1 X125.222 Y83.835 E1.05472
G1 X124.801 Y83.558 E1.05905
G1 X124.661 Y83.278 E1.06173
G1 X124.591 Y83.001 E1.06419
G1 X124.661 Y82.724 E1.06664
G1 X124.801 Y82.444 E1.06932
G1 X125.222 Y82.167 E1.07365
G1 X125.766 Y82.160 E1.07832
G1 X126.199 Y82.444 E1.08277
G1 X126.339 Y82.724 E1.08545 F600.000
G1 X126.409 Y83.001 E1.08790
G1 X126.339 Y83.278 E1.09036
G1 X126.199 Y83.558 E1.09304
