; generated by Slic3r 1.1.7 on 2015-04-03 at 08:03:32

; perimeters extrusion width = 0.40mm
; infill extrusion width = 0.67mm
; solid infill extrusion width = 0.50mm
; top infill extrusion width = 0.30mm

G21 ; set units to millimeters
M107
M190 S70 ; wait for bed temperature to be reached
M104 S240 ; set temperature
G28 ; home all axes
M109 S240 ; wait for temperature to be reached
G90 ; use absolute coordinates
G92 E0
M82 ; use absolute distances for extrusion
M204 S500
G1 F1800.000 E-1.00000
G1 Z0.250 F12000.000
G92 E0
G1 X113.581 Y65.817 F12000.000
G1 Z0.200 F12000.000
G1 E1.00000 F1800.000
G1 X113.753 Y65.547 E1.00275 F600.000
G1 X114.576 Y64.379 E1.01501
G1 X115.743 Y63.078 E1.03002
G1 X117.063 Y61.934 E1.04501
G1 X117.322 Y61.746 E1.04776
G1 X118.517 Y60.963 E1.06003
G1 X118.798 Y60.809 E1.06278
G1 X120.080 Y60.183 E1.07503
G1 X120.378 Y60.065 E1.07778
G1 X121.730 Y59.605 E1.09004
G1 X123.439 Y59.238 E1.10505
G1 X123.757 Y59.198 E1.10780
G1 X125.180 Y59.088 E1.12005
G1 X126.925 Y59.158 E1.13504
G1 X128.650 Y59.446 E1.15006 F600.000
G1 X128.960 Y59.525 E1.15281
G1 X130.324 Y59.947 E1.16507
G1 X131.922 Y60.655 E1.18006
G1 X133.419 Y61.557 E1.19507
G1 X134.791 Y62.640 E1.21008
G1 X135.024 Y62.859 E1.21283
G1 X136.016 Y63.886 E1.22508
G1 X137.076 Y65.276 E1.24008
G1 X137.952 Y66.787 E1.25509
G1 X138.633 Y68.397 E1.27009
G1 X139.107 Y70.080 E1.28510
G1 X139.365 Y71.808 E1.30010
G1 X139.418 Y72.708 E1.30784
G1 X141.057 Y122.101 E1.73211
G1 X141.057 Y131.101 E1.80938
G1 X140.932 Y132.584 E1.82215
G1 X140.079 Y135.210 E1.84586
G1 X140.032 Y135.303 E1.84675
G1 X138.407 Y137.538 E1.87047
G1 X138.328 Y137.617 E1.87144
G1 X136.103 Y139.232 E1.89503
G1 X136.009 Y139.280 E1.89594
G1 X133.384 Y140.133 E1.91964
G1 X131.900 Y140.258 E1.93242
G1 X118.100 Y140.258 E2.05090
G1 X116.616 Y140.133 E2.06368
G1 X113.991 Y139.280 E2.08737
G1 X113.898 Y139.233 E2.08827
G1 X111.664 Y137.610 E2.11198
G1 X111.590 Y137.536 E2.11288
G1 X109.968 Y135.303 E2.13657
G1 X109.921 Y135.210 E2.13746
G1 X109.068 Y132.585 E2.16116
G1 X108.943 Y131.101 E2.17394
G1 X108.956 Y121.628 E2.25527
G1 X111.615 Y72.127 E2.68085
G1 X111.773 Y70.709 E2.69310
G1 X111.834 Y70.394 E2.69585
G1 X112.169 Y69.006 E2.70811
G1 X112.268 Y68.702 E2.71086
G1 X112.775 Y67.367 E2.72312
G1 X113.553 Y65.870 E2.73760
G1 X113.813 Y65.964 F12000.000
G1 X113.984 Y65.694 E2.74035 F600.000
G1 X114.787 Y64.554 E2.75231
G1 X115.930 Y63.278 E2.76702
G1 X117.224 Y62.156 E2.78173
G1 X117.483 Y61.967 E2.78447
G1 X118.649 Y61.204 E2.79644
G1 X118.930 Y61.049 E2.79919
G1 X120.181 Y60.438 E2.81115
G1 X120.479 Y60.320 E2.81390
G1 X121.798 Y59.871 E2.82586
G1 X123.474 Y59.510 E2.84058
G1 X123.792 Y59.470 E2.84333
G1 X125.180 Y59.363 E2.85528
G1 X126.891 Y59.430 E2.86998
G1 X128.582 Y59.711 E2.88470 F600.000
G1 X128.892 Y59.791 E2.88745
G1 X130.223 Y60.202 E2.89941
G1 X131.789 Y60.895 E2.91411
G1 X133.258 Y61.779 E2.92882
G1 X134.603 Y62.840 E2.94353
G1 X134.837 Y63.059 E2.94628
G1 X135.804 Y64.060 E2.95824
G1 X136.844 Y65.423 E2.97295
G1 X137.704 Y66.904 E2.98766
G1 X138.372 Y68.482 E3.00237
G1 X138.837 Y70.131 E3.01707
G1 X139.092 Y71.825 E3.03178
G1 X139.144 Y72.717 E3.03945
G1 X140.783 Y122.101 E3.46365
G1 X140.783 Y131.101 E3.54091
G1 X140.661 Y132.541 E3.55331
G1 X139.835 Y135.085 E3.57629
G1 X139.787 Y135.179 E3.57718
G1 X138.213 Y137.344 E3.60016
G1 X138.134 Y137.423 E3.60112
G1 X135.979 Y138.988 E3.62399
G1 X135.885 Y139.035 E3.62489
G1 X133.341 Y139.862 E3.64786
G1 X131.900 Y139.984 E3.66027
G1 X118.100 Y139.984 E3.77875
G1 X116.659 Y139.862 E3.79116
G1 X114.116 Y139.036 E3.81412
G1 X114.023 Y138.988 E3.81501
G1 X111.858 Y137.416 E3.83798
G1 X111.784 Y137.342 E3.83888
G1 X110.213 Y135.179 E3.86183
G1 X110.165 Y135.085 E3.86273
G1 X109.339 Y132.542 E3.88569
G1 X109.217 Y131.101 E3.89810
G1 X109.230 Y121.643 E3.97930
G1 X111.888 Y72.145 E4.40486
G1 X112.043 Y70.760 E4.41682
G1 X112.103 Y70.445 E4.41957
G1 X112.430 Y69.091 E4.43153
G1 X112.529 Y68.786 E4.43428
G1 X113.023 Y67.484 E4.44624
G1 X113.785 Y66.017 E4.46043
G1 X114.044 Y66.111 F12000.000
G1 X114.999 Y64.729 E4.47485 F600.000
G1 X116.118 Y63.478 E4.48926
G1 X117.385 Y62.378 E4.50367
G1 X118.781 Y61.444 E4.51809
G1 X119.062 Y61.290 E4.52084
G1 X120.282 Y60.693 E4.53249
G1 X121.866 Y60.136 E4.54691
G1 X123.508 Y59.782 E4.56133
G1 X125.180 Y59.637 E4.57574
G1 X126.856 Y59.702 E4.59014
G1 X128.514 Y59.977 E4.60456 F600.000
G1 X128.824 Y60.057 E4.60731
G1 X130.122 Y60.458 E4.61898
G1 X131.657 Y61.135 E4.63338
G1 X133.096 Y62.001 E4.64780
G1 X134.415 Y63.040 E4.66221
G1 X134.649 Y63.259 E4.66496
G1 X135.593 Y64.235 E4.67662
G1 X136.612 Y65.570 E4.69104
G1 X137.456 Y67.021 E4.70545
G1 X138.111 Y68.567 E4.71987
G1 X138.568 Y70.182 E4.73428
G1 X138.818 Y71.843 E4.74869
G1 X138.870 Y72.726 E4.75629
G1 X140.508 Y122.101 E5.18041
G1 X140.508 Y131.101 E5.25767
G1 X140.390 Y132.498 E5.26970
G1 X139.590 Y134.961 E5.29194
G1 X139.543 Y135.054 E5.29284
G1 X138.019 Y137.150 E5.31508
G1 X137.940 Y137.229 E5.31604
G1 X135.854 Y138.743 E5.33817
G1 X135.760 Y138.791 E5.33907
G1 X133.298 Y139.591 E5.36130
G1 X131.900 Y139.709 E5.37335
G1 X118.100 Y139.709 E5.49182
G1 X116.702 Y139.591 E5.50386
G1 X114.241 Y138.791 E5.52608
G1 X114.147 Y138.744 E5.52698
G1 X112.052 Y137.222 E5.54921
G1 X111.978 Y137.148 E5.55011
G1 X110.457 Y135.054 E5.57233
G1 X110.410 Y134.961 E5.57322
G1 X109.610 Y132.499 E5.59545
G1 X109.492 Y131.101 E5.60749
G1 X109.504 Y121.658 E5.68856
G1 X112.162 Y72.162 E6.11410
G1 X112.312 Y70.812 E6.12576
G1 X112.691 Y69.176 E6.14017
G1 X113.271 Y67.601 E6.15459
G1 X114.017 Y66.164 E6.16848
G1 F1800.000 E5.16848
G1 Z0.250 F12000.000
G92 E0
G1 X128.165 Y122.436 F12000.000
G1 Z0.200 F12000.000
G1 E1.00000 F1800.000
G1 X131.565 Y122.436 E1.02919 F600.000
G1 X131.565 Y130.766 E1.10071
G1 X129.266 Y130.766 E1.12045
G1 X129.255 Y130.601 E1.12187
G1 X129.287 Y130.101 E1.12617
G1 X129.255 Y129.601 E1.13047
G1 X129.287 Y129.101 E1.13478
G1 X129.255 Y128.601 E1.13908
G1 X129.287 Y128.101 E1.14338
G1 X129.254 Y127.576 E1.14789
G1 X129.155 Y127.060 E1.15241
G1 X128.993 Y126.560 E1.15692
G1 X128.769 Y126.084 E1.16143
G1 X128.487 Y125.640 E1.16595
G1 X128.152 Y125.235 E1.17046
G1 X127.769 Y124.875 E1.17497
G1 X127.343 Y124.566 E1.17949
G1 X126.883 Y124.313 E1.18400
G1 X126.394 Y124.119 E1.18851
G1 X125.885 Y123.989 E1.19303
G1 X125.363 Y123.923 E1.19754
G1 X124.837 Y123.923 E1.20206
G1 X124.315 Y123.989 E1.20657
G1 X123.806 Y124.119 E1.21108
G1 X123.317 Y124.313 E1.21560
G1 X122.857 Y124.566 E1.22011
G1 X122.431 Y124.875 E1.22462
G1 X122.048 Y125.235 E1.22914
G1 X121.713 Y125.640 E1.23365
G1 X121.431 Y126.084 E1.23817
G1 X121.207 Y126.560 E1.24268
G1 X121.045 Y127.060 E1.24719
G1 X120.946 Y127.576 E1.25171
G1 X120.913 Y128.101 E1.25622
G1 X120.945 Y128.601 E1.26052
G1 X120.913 Y129.101 E1.26482
G1 X120.945 Y129.601 E1.26912
G1 X120.913 Y130.101 E1.27342
G1 X120.945 Y130.601 E1.27772
G1 X120.934 Y130.766 E1.27915
G1 X118.435 Y130.766 E1.30061
G1 X118.435 Y122.436 E1.37213
G1 X122.835 Y122.436 E1.40990
G1 X122.835 Y118.436 E1.44424
G1 X128.165 Y118.436 E1.49000
G1 X128.165 Y122.376 E1.52383
G1 X128.440 Y122.161 F12000.000
G1 X131.840 Y122.161 E1.55302 F600.000
G1 X131.840 Y131.041 E1.62925
G1 X129.008 Y131.041 E1.65356
G1 X128.980 Y130.601 E1.65734
G1 X129.012 Y130.101 E1.66164
G1 X128.980 Y129.601 E1.66594
G1 X129.012 Y129.101 E1.67024
G1 X128.980 Y128.601 E1.67454
G1 X129.012 Y128.101 E1.67884
G1 X128.981 Y127.611 E1.68306
G1 X128.889 Y127.128 E1.68728
G1 X128.737 Y126.661 E1.69149
G1 X128.528 Y126.217 E1.69571
G1 X128.265 Y125.802 E1.69993
G1 X127.952 Y125.423 E1.70415
G1 X127.593 Y125.087 E1.70836
G1 X127.196 Y124.798 E1.71258
G1 X126.766 Y124.562 E1.71680
G1 X126.309 Y124.381 E1.72102
G1 X125.833 Y124.259 E1.72523
G1 X125.346 Y124.197 E1.72945
G1 X124.854 Y124.197 E1.73367
G1 X124.367 Y124.259 E1.73788
G1 X123.891 Y124.381 E1.74210
G1 X123.434 Y124.562 E1.74632
G1 X123.180 Y124.702 E1.74881
G1 X123.004 Y124.798 E1.75054
G1 X122.607 Y125.087 E1.75475
G1 X122.248 Y125.423 E1.75897
G1 X121.935 Y125.802 E1.76319
G1 X121.672 Y126.217 E1.76741
G1 X121.463 Y126.661 E1.77162
G1 X121.367 Y126.956 E1.77428
G1 X121.311 Y127.128 E1.77584
G1 X121.219 Y127.611 E1.78006
G1 X121.188 Y128.101 E1.78428
G1 X121.220 Y128.601 E1.78858
G1 X121.188 Y129.101 E1.79288
G1 X121.220 Y129.601 E1.79718
G1 X121.188 Y130.101 E1.80148
G1 X121.220 Y130.601 E1.80578
G1 X121.192 Y131.041 E1.80956
G1 X118.160 Y131.041 E1.83559
G1 X118.160 Y122.161 E1.91182
G1 X122.560 Y122.161 E1.94959
G1 X122.560 Y118.161 E1.98393
G1 X128.440 Y118.161 E2.03441
G1 X128.440 Y122.101 E2.06823
G1 X128.714 Y121.887 F12000.000
G1 X131.891 Y121.887 E2.09550 F600.000
G1 X132.025 Y121.929 E2.09671
G1 X132.102 Y122.035 E2.09784
G1 X132.114 Y131.092 E2.17559
G1 X132.102 Y131.167 E2.17624
G1 X132.025 Y131.273 E2.17737
G1 X131.891 Y131.315 E2.17857
G1 X128.723 Y131.315 E2.20576
G1 X128.737 Y131.101 E2.20760
G1 X128.700 Y130.601 E2.21191
G1 X128.737 Y130.101 E2.21621
G1 X128.700 Y129.601 E2.22052
G1 X128.737 Y129.101 E2.22482
G1 X128.700 Y128.601 E2.22913
G1 X128.737 Y128.101 E2.23343
G1 X128.708 Y127.645 E2.23735
G1 X128.623 Y127.197 E2.24127
G1 X128.482 Y126.762 E2.24519
G1 X128.287 Y126.349 E2.24911
G1 X128.042 Y125.963 E2.25304
G1 X127.751 Y125.611 E2.25696
G1 X127.418 Y125.299 E2.26088
G1 X127.049 Y125.030 E2.26480
G1 X126.649 Y124.810 E2.26872
G1 X126.224 Y124.642 E2.27264
G1 X125.781 Y124.529 E2.27656
G1 X125.328 Y124.471 E2.28048
G1 X124.872 Y124.471 E2.28440
G1 X124.419 Y124.529 E2.28832
G1 X123.976 Y124.642 E2.29225
G1 X123.551 Y124.810 E2.29617
G1 X123.312 Y124.942 E2.29851
G1 X123.151 Y125.030 E2.30009
G1 X122.782 Y125.299 E2.30401
G1 X122.449 Y125.611 E2.30793
G1 X122.158 Y125.963 E2.31185
G1 X121.913 Y126.349 E2.31577
G1 X121.718 Y126.762 E2.31969
G1 X121.628 Y127.041 E2.32220
G1 X121.577 Y127.197 E2.32361
G1 X121.492 Y127.645 E2.32753
G1 X121.463 Y128.101 E2.33146
G1 X121.500 Y128.601 E2.33576
G1 X121.463 Y129.101 E2.34006
G1 X121.500 Y129.601 E2.34437
G1 X121.463 Y130.101 E2.34867
G1 X121.500 Y130.601 E2.35298
G1 X121.463 Y131.101 E2.35728
G1 X121.477 Y131.315 E2.35912
G1 X118.109 Y131.315 E2.38803
G1 X117.975 Y131.273 E2.38924
G1 X117.898 Y131.167 E2.39036
G1 X117.886 Y131.092 E2.39102
G1 X117.898 Y122.035 E2.46876
G1 X117.975 Y121.929 E2.46989
G1 X118.109 Y121.887 E2.47110
G1 X122.286 Y121.887 E2.50696
G1 X122.286 Y118.111 E2.53938
G1 X122.298 Y118.035 E2.54003
G1 X122.375 Y117.929 E2.54116
G1 X122.509 Y117.887 E2.54237
G1 X128.491 Y117.887 E2.59372
G1 X128.625 Y117.929 E2.59492
G1 X128.702 Y118.035 E2.59605
G1 X128.714 Y118.110 E2.59670
G1 X128.714 Y121.827 E2.62861
G1 X128.714 Y122.287 F12000.000
G1 X127.462 Y124.432 F12000.000
G1 X123.014 Y119.983 E2.68262 F600.000
G1 X123.014 Y119.589 E2.68601
G1 X131.386 Y127.962 E2.78766
G1 X131.386 Y127.568 E2.79104
G1 X123.014 Y119.195 E2.89270
G1 X123.014 Y118.801 E2.89608
G1 X131.386 Y127.174 E2.99773
G1 X131.386 Y126.780 E3.00111
G1 X123.221 Y118.615 E3.10025
G1 X123.615 Y118.615 E3.10363
G1 X131.386 Y126.387 E3.19799
G1 X131.386 Y128.356 F12000.000
G1 X128.747 Y125.717 E3.23003 F600.000
G1 X129.173 Y126.536 F12000.000
G1 X131.386 Y128.749 E3.25691 F600.000
G1 X131.386 Y129.143 E3.26029
G1 X129.345 Y127.102 E3.28507
G1 X129.433 Y127.584 E3.28927
G1 X131.386 Y129.537 E3.31299
G1 X131.386 Y129.931 E3.31637
G1 X129.460 Y128.004 E3.33976
G1 X129.448 Y128.386 E3.34304
G1 X131.386 Y130.325 E3.36658
G1 X131.255 Y130.588 E3.36910
G1 X129.446 Y128.778 E3.39107
G1 X129.460 Y129.186 E3.39458
G1 X130.862 Y130.588 E3.41160
G1 X130.468 Y130.588 E3.41498
G1 X129.437 Y129.557 E3.42749
G1 X129.458 Y129.971 E3.43105
G1 X130.074 Y130.588 E3.43853
G1 X129.680 Y130.588 E3.44191
G1 X129.450 Y130.357 E3.44471
G1 F1800.000 E2.44471
G1 Z0.250 F12000.000
G92 E0
G1 X126.676 Y124.039 F12000.000
G1 Z0.200 F12000.000
G1 E1.00000 F1800.000
G1 X123.014 Y120.377 E1.04446 F600.000
G1 X123.014 Y120.770 E1.04784
G1 X126.103 Y123.860 E1.08535
G1 X125.625 Y123.775 E1.08952
G1 X123.014 Y121.164 E1.12123
G1 X123.014 Y121.558 E1.12461
G1 X125.199 Y123.744 E1.15115
G1 X124.808 Y123.746 E1.15451
G1 X123.014 Y121.952 E1.17629
G1 X123.014 Y122.346 E1.17967
G1 X124.458 Y123.790 E1.19721
G1 X124.127 Y123.852 E1.20011
G1 X122.889 Y122.615 E1.21514
G1 X122.495 Y122.615 E1.21852
G1 X123.813 Y123.933 E1.23452
G1 X123.525 Y124.038 E1.23716
G1 X122.101 Y122.615 E1.25444
G1 X121.707 Y122.615 E1.25782
G1 X123.243 Y124.150 E1.27646
G1 X122.988 Y124.290 E1.27895
G1 X121.314 Y122.615 E1.29929
G1 X120.920 Y122.615 E1.30267
G1 X122.737 Y124.432 E1.32473
G1 X122.509 Y124.598 E1.32716
G1 X120.526 Y122.615 E1.35123
G1 X120.132 Y122.615 E1.35461
G1 X122.285 Y124.767 E1.38075
G1 X122.082 Y124.958 E1.38314
G1 X119.738 Y122.615 E1.41159
G1 X119.345 Y122.615 E1.41497
G1 X121.883 Y125.154 E1.44580
G1 X121.705 Y125.369 E1.44820
G1 X118.951 Y122.615 E1.48164
G1 X118.614 Y122.671 E1.48457
G1 X121.533 Y125.590 E1.52002
G1 X121.380 Y125.831 E1.52247
G1 X118.614 Y123.065 E1.55605
G1 X118.614 Y123.459 E1.55943
G1 X121.235 Y126.081 E1.59126
G1 X121.109 Y126.348 E1.59380
G1 X118.614 Y123.853 E1.62410
G1 X118.614 Y124.247 E1.62748
G1 X120.997 Y126.630 E1.65641
G1 X120.900 Y126.927 E1.65910
G1 X118.614 Y124.640 E1.68686
G1 X118.614 Y125.034 E1.69024
G1 X120.827 Y127.248 E1.71711
G1 X120.767 Y127.581 E1.72002
G1 X118.614 Y125.428 E1.74616
G1 X118.614 Y125.822 E1.74954
G1 X120.743 Y127.952 E1.77540
G1 X120.750 Y128.352 E1.77884
G1 X118.614 Y126.216 E1.80478
G1 X118.614 Y126.609 E1.80816
G1 X120.756 Y128.752 E1.83417
G1 X120.736 Y129.125 E1.83738
G1 X118.614 Y127.003 E1.86314
G1 X118.614 Y127.397 E1.86653
G1 X120.762 Y129.546 E1.89261
G1 X120.745 Y129.923 E1.89585
G1 X118.614 Y127.791 E1.92173
G1 X118.614 Y128.185 E1.92511
G1 X120.748 Y130.319 E1.95103
G1 X120.623 Y130.588 E1.95357
G1 X118.614 Y128.578 E1.97796
G1 X118.614 Y128.972 E1.98134
G1 X120.229 Y130.588 E2.00095
G1 X119.835 Y130.588 E2.00433
G1 X118.614 Y129.366 E2.01916
G1 X118.614 Y129.760 E2.02254
G1 X119.441 Y130.588 E2.03259
G1 X119.047 Y130.588 E2.03597
G1 X118.614 Y130.154 E2.04124
G1 X118.614 Y130.548 E2.04462
G1 X118.654 Y130.588 E2.04511
G1 F1800.000 E1.04511
G1 Z0.250 F12000.000
G92 E0
G1 X131.386 Y122.842 F12000.000
G1 Z0.200 F12000.000
G1 E1.00000 F1800.000
G1 X131.159 Y122.615 E1.00276 F600.000
G1 X130.765 Y122.615 E1.00614
G1 X131.386 Y123.236 E1.01369
G1 X131.386 Y123.630 E1.01707
G1 X130.371 Y122.615 E1.02940
G1 X129.977 Y122.615 E1.03278
G1 X131.386 Y124.024 E1.04988
G1 X131.386 Y124.418 E1.05327
G1 X129.584 Y122.615 E1.07515
G1 X129.190 Y122.615 E1.07853
G1 X131.386 Y124.811 E1.10520
G1 X131.386 Y125.205 E1.10859
G1 X128.796 Y122.615 E1.14004
G1 X128.402 Y122.615 E1.14342
G1 X131.386 Y125.599 E1.17965
G1 X131.386 Y125.993 E1.18303
G1 X124.008 Y118.615 E1.27261
G1 X124.402 Y118.615 E1.27599
G1 X127.986 Y122.199 E1.31951
G1 X127.986 Y121.805 E1.32289
G1 X124.796 Y118.615 E1.36162
G1 X125.190 Y118.615 E1.36500
G1 X127.986 Y121.411 E1.39896
G1 X127.986 Y121.018 E1.40234
G1 X125.584 Y118.615 E1.43151
G1 X125.977 Y118.615 E1.43489
G1 X127.986 Y120.624 E1.45928
G1 X127.986 Y120.230 E1.46267
G1 X126.371 Y118.615 E1.48228
G1 X126.765 Y118.615 E1.48566
G1 X127.986 Y119.836 E1.50049
G1 X127.986 Y119.442 E1.50387
G1 X127.159 Y118.615 E1.51392
G1 X127.553 Y118.615 E1.51730
G1 X127.986 Y119.048 E1.52256
G1 X127.986 Y118.655 E1.52594
G1 X127.946 Y118.615 E1.52643
G1 F1800.000 E0.52643
G1 Z0.250 F12000.000
G92 E0
G1 X125.778 Y77.422 F12000.000
G1 Z0.200 F12000.000
G1 E1.00000 F1800.000
G1 X125.222 Y77.422 E1.00478 F600.000
G1 X124.670 Y77.353 E1.00955
G1 X124.131 Y77.214 E1.01433
G1 X123.614 Y77.009 E1.01910
G1 X123.126 Y76.742 E1.02388
G1 X122.676 Y76.414 E1.02866
G1 X122.271 Y76.034 E1.03343
G1 X121.916 Y75.605 E1.03821
G1 X121.618 Y75.135 E1.04298
G1 X121.381 Y74.632 E1.04776
G1 X121.209 Y74.103 E1.05254
G1 X121.105 Y73.556 E1.05731
G1 X121.070 Y73.001 E1.06209
G1 X121.105 Y72.446 E1.06687
G1 X121.157 Y72.173 E1.06925
G1 X121.209 Y71.899 E1.07164
G1 X121.381 Y71.370 E1.07642
G1 X121.618 Y70.867 E1.08119
G1 X121.916 Y70.397 E1.08597
