; generated by Slic3r 1.1.7 on 2015-04-02 at 16:17:52

; perimeters extrusion width = 0.40mm
; infill extrusion width = 0.67mm
; solid infill extrusion width = 0.50mm
; top infill extrusion width = 0.30mm

G21 ; set units to millimeters
M107
M190 S70 ; wait for bed temperature to be reached
M104 S240 ; set temperature
G28 ; home all axes
M109 S240 ; wait for temperature to be reached
G90 ; use absolute coordinates
G92 E0
M82 ; use absolute distances for extrusion
M204 S500
G1 F1800.000 E-1.00000
G1 Z0.250 F12000.000
G92 E0
G1 X112.268 Y38.702 F12000.000
G1 Z0.200 F12000.000
G1 E1.00000 F1800.000
G1 X112.774 Y37.370 E1.01223 F600.000
G1 X113.580 Y35.818 E1.02724
G1 X113.752 Y35.548 E1.02999
G1 X114.579 Y34.376 E1.04231
G1 X115.738 Y33.082 E1.05722
G1 X115.972 Y32.863 E1.05997
G1 X117.067 Y31.930 E1.07232
G1 X117.326 Y31.742 E1.07507
G1 X118.512 Y30.966 E1.08723
G1 X118.793 Y30.812 E1.08999
G1 X120.090 Y30.179 E1.10237
G1 X121.720 Y29.608 E1.11721
G1 X122.031 Y29.528 E1.11996
G1 X123.442 Y29.237 E1.13233
G1 X125.180 Y29.088 E1.14730
G1 X126.922 Y29.157 E1.16228
G1 X128.659 Y29.448 E1.17739 F600.000
G1 X130.315 Y29.944 E1.19223
G1 X131.927 Y30.657 E1.20736
G1 X133.414 Y31.554 E1.22228
G1 X134.795 Y32.644 E1.23738
G1 X136.013 Y33.882 E1.25229
G1 X137.076 Y35.277 E1.26734
G1 X137.248 Y35.547 E1.27010
G1 X137.954 Y36.790 E1.28236
G1 X138.090 Y37.080 E1.28512
G1 X138.633 Y38.397 E1.29735
G1 X139.106 Y40.080 E1.31235
G1 X139.166 Y40.394 E1.31510
G1 X139.365 Y41.808 E1.32736
G1 X139.422 Y42.869 E1.33648
G1 X141.057 Y152.101 E2.27434
G1 X141.057 Y161.101 E2.35161
G1 X140.932 Y162.584 E2.36438
G1 X140.079 Y165.210 E2.38809
G1 X140.032 Y165.303 E2.38898
G1 X138.407 Y167.538 E2.41270
G1 X138.327 Y167.618 E2.41367
G1 X136.103 Y169.232 E2.43727
G1 X136.010 Y169.280 E2.43817
G1 X133.384 Y170.133 E2.46187
G1 X131.900 Y170.258 E2.47465
G1 X118.100 Y170.258 E2.59313
G1 X116.616 Y170.133 E2.60591
G1 X113.991 Y169.280 E2.62960
G1 X113.898 Y169.233 E2.63050
G1 X111.664 Y167.610 E2.65421
G1 X111.591 Y167.536 E2.65510
G1 X109.968 Y165.303 E2.67880
G1 X109.921 Y165.210 E2.67969
G1 X109.068 Y162.585 E2.70339
G1 X108.943 Y161.101 E2.71617
G1 X108.946 Y151.888 E2.79527
G1 X111.594 Y42.447 E3.73510
G1 X111.615 Y42.127 E3.73784
G1 X111.774 Y40.709 E3.75010
G1 X111.834 Y40.394 E3.75285
G1 X112.169 Y39.006 E3.76511
G1 X112.250 Y38.759 E3.76734
G1 X112.529 Y38.786 F12000.000
G1 X113.022 Y37.487 E3.77927 F600.000
G1 X113.812 Y35.965 E3.79399
G1 X113.984 Y35.695 E3.79674
G1 X114.790 Y34.551 E3.80876
G1 X115.926 Y33.282 E3.82338
G1 X116.160 Y33.063 E3.82613
G1 X117.228 Y32.152 E3.83818
G1 X118.644 Y31.206 E3.85280
G1 X118.925 Y31.052 E3.85555
G1 X120.190 Y30.434 E3.86764
G1 X121.789 Y29.873 E3.88218
G1 X122.099 Y29.793 E3.88494
G1 X123.476 Y29.509 E3.89701
G1 X125.180 Y29.362 E3.91169
G1 X126.888 Y29.429 E3.92636
G1 X128.591 Y29.713 E3.94118 F600.000
G1 X130.214 Y30.199 E3.95573
G1 X131.795 Y30.897 E3.97056
G1 X133.253 Y31.776 E3.98518
G1 X134.607 Y32.844 E3.99999
G1 X135.802 Y34.057 E4.01460
G1 X136.845 Y35.424 E4.02936
G1 X137.016 Y35.694 E4.03211
G1 X137.705 Y36.907 E4.04408
G1 X137.842 Y37.197 E4.04684
G1 X138.372 Y38.482 E4.05877
G1 X138.837 Y40.131 E4.07348
G1 X138.897 Y40.446 E4.07623
G1 X139.092 Y41.825 E4.08819
G1 X139.148 Y42.873 E4.09720
G1 X140.783 Y152.101 E5.03503
G1 X140.783 Y161.101 E5.11229
G1 X140.661 Y162.541 E5.12469
G1 X139.835 Y165.085 E5.14767
G1 X139.787 Y165.179 E5.14856
G1 X138.213 Y167.344 E5.17155
G1 X138.134 Y167.424 E5.17251
G1 X135.978 Y168.988 E5.19538
G1 X135.885 Y169.035 E5.19627
G1 X133.341 Y169.862 E5.21924
G1 X131.900 Y169.984 E5.23165
G1 X118.100 Y169.984 E5.35013
G1 X116.659 Y169.862 E5.36254
G1 X114.116 Y169.036 E5.38550
G1 X114.023 Y168.988 E5.38639
G1 X111.858 Y167.416 E5.40936
G1 X111.785 Y167.342 E5.41026
G1 X110.213 Y165.179 E5.43321
G1 X110.165 Y165.085 E5.43411
G1 X109.339 Y162.542 E5.45707
G1 X109.217 Y161.101 E5.46949
G1 X109.220 Y151.895 E5.54852
G1 X111.868 Y42.464 E6.48826
G1 X111.888 Y42.145 E6.49101
G1 X112.043 Y40.760 E6.50297
G1 X112.103 Y40.445 E6.50572
G1 X112.430 Y39.091 E6.51768
G1 X112.511 Y38.844 E6.51991
G1 X112.790 Y38.871 F12000.000
G1 X113.270 Y37.604 E6.53155 F600.000
G1 X114.044 Y36.112 E6.54598
G1 X114.215 Y35.842 E6.54873
G1 X115.001 Y34.726 E6.56044
G1 X116.114 Y33.482 E6.57477
G1 X116.348 Y33.263 E6.57752
G1 X117.389 Y32.374 E6.58928
G1 X118.777 Y31.447 E6.60360
G1 X119.057 Y31.292 E6.60635
G1 X120.291 Y30.689 E6.61814
G1 X121.857 Y30.139 E6.63239
G1 X122.168 Y30.059 E6.63515
G1 X123.511 Y29.782 E6.64692
G1 X125.180 Y29.637 E6.66130
G1 X126.854 Y29.702 E6.67568
G1 X128.522 Y29.979 E6.69020 F600.000
G1 X130.113 Y30.454 E6.70446
G1 X131.662 Y31.138 E6.71899
G1 X133.092 Y31.998 E6.73332
G1 X134.419 Y33.044 E6.74783
G1 X135.590 Y34.232 E6.76215
G1 X136.613 Y35.571 E6.77661
G1 X137.457 Y37.023 E6.79103
G1 X138.111 Y38.567 E6.80543
G1 X138.568 Y40.183 E6.81984
G1 X138.818 Y41.843 E6.83425
G1 X138.873 Y42.877 E6.84315
G1 X140.508 Y152.101 E7.78094
G1 X140.508 Y161.101 E7.85820
G1 X140.390 Y162.498 E7.87024
G1 X139.590 Y164.961 E7.89247
G1 X139.543 Y165.054 E7.89337
G1 X138.019 Y167.150 E7.91561
G1 X137.940 Y167.229 E7.91658
G1 X135.854 Y168.743 E7.93871
G1 X135.761 Y168.791 E7.93960
G1 X133.298 Y169.591 E7.96184
G1 X131.900 Y169.709 E7.97388
G1 X118.100 Y169.709 E8.09235
G1 X116.702 Y169.591 E8.10439
G1 X114.241 Y168.791 E8.12662
G1 X114.147 Y168.744 E8.12751
G1 X112.052 Y167.222 E8.14974
G1 X111.979 Y167.148 E8.15064
G1 X110.457 Y165.054 E8.17286
G1 X110.410 Y164.961 E8.17376
G1 X109.610 Y162.499 E8.19598
G1 X109.492 Y161.101 E8.20802
G1 X109.494 Y151.901 E8.28700
G1 X112.142 Y42.481 E9.22665
G1 X112.312 Y40.812 E9.24106
G1 X112.691 Y39.176 E9.25547
G1 X112.771 Y38.928 E9.25771
G1 F1800.000 E8.25771
G1 Z0.250 F12000.000
G92 E0
G1 X128.165 Y152.436 F12000.000
G1 Z0.200 F12000.000
G1 E1.00000 F1800.000
G1 X131.565 Y152.436 E1.02919 F600.000
G1 X131.565 Y160.766 E1.10071
G1 X129.266 Y160.766 E1.12045
G1 X129.255 Y160.601 E1.12187
G1 X129.287 Y160.101 E1.12617
G1 X129.255 Y159.601 E1.13047
G1 X129.287 Y159.101 E1.13478
G1 X129.255 Y158.601 E1.13908
G1 X129.287 Y158.101 E1.14338
G1 X129.254 Y157.576 E1.14789
G1 X129.155 Y157.060 E1.15241
G1 X128.993 Y156.560 E1.15692
G1 X128.769 Y156.084 E1.16143
G1 X128.487 Y155.640 E1.16595
G1 X128.152 Y155.235 E1.17046
G1 X127.769 Y154.875 E1.17497
G1 X127.343 Y154.566 E1.17949
G1 X126.883 Y154.313 E1.18400
G1 X126.394 Y154.119 E1.18851
G1 X125.884 Y153.989 E1.19303
G1 X125.363 Y153.923 E1.19754
G1 X124.837 Y153.923 E1.20206
G1 X124.315 Y153.989 E1.20657
G1 X123.806 Y154.119 E1.21108
G1 X123.317 Y154.313 E1.21560
G1 X122.857 Y154.566 E1.22011
G1 X122.431 Y154.875 E1.22462
G1 X122.048 Y155.235 E1.22914
G1 X121.713 Y155.640 E1.23365
G1 X121.431 Y156.084 E1.23817
G1 X121.207 Y156.560 E1.24268
G1 X121.045 Y157.060 E1.24719
G1 X120.946 Y157.576 E1.25171
G1 X120.913 Y158.101 E1.25622
G1 X120.945 Y158.601 E1.26052
G1 X120.913 Y159.101 E1.26482
G1 X120.945 Y159.601 E1.26912
G1 X120.913 Y160.101 E1.27342
G1 X120.945 Y160.601 E1.27772
G1 X120.934 Y160.766 E1.27915
G1 X118.435 Y160.766 E1.30061
G1 X118.435 Y152.436 E1.37213
G1 X122.835 Y152.436 E1.40990
G1 X122.835 Y148.436 E1.44424
G1 X128.165 Y148.436 E1.49000
G1 X128.165 Y152.376 E1.52383
G1 X128.440 Y152.162 F12000.000
G1 X131.840 Y152.162 E1.55302 F600.000
G1 X131.840 Y161.041 E1.62925
G1 X129.008 Y161.041 E1.65356
G1 X128.980 Y160.601 E1.65734
G1 X129.012 Y160.101 E1.66164
G1 X128.980 Y159.601 E1.66594
G1 X129.012 Y159.101 E1.67024
G1 X128.980 Y158.601 E1.67454
G1 X129.012 Y158.101 E1.67884
G1 X128.981 Y157.611 E1.68306
G1 X128.889 Y157.128 E1.68728
G1 X128.737 Y156.661 E1.69149
G1 X128.528 Y156.217 E1.69571
G1 X128.265 Y155.802 E1.69993
G1 X127.952 Y155.423 E1.70415
G1 X127.593 Y155.087 E1.70836
G1 X127.196 Y154.798 E1.71258
G1 X126.766 Y154.562 E1.71680
G1 X126.309 Y154.381 E1.72102
G1 X125.833 Y154.259 E1.72523
G1 X125.346 Y154.197 E1.72945
G1 X124.854 Y154.197 E1.73367
G1 X124.367 Y154.259 E1.73788
G1 X123.891 Y154.381 E1.74210
G1 X123.434 Y154.562 E1.74632
G1 X123.180 Y154.702 E1.74881
G1 X123.004 Y154.798 E1.75054
G1 X122.607 Y155.087 E1.75475
G1 X122.248 Y155.423 E1.75897
G1 X121.935 Y155.802 E1.76319
G1 X121.672 Y156.217 E1.76741
G1 X121.463 Y156.661 E1.77162
G1 X121.367 Y156.956 E1.77428
G1 X121.311 Y157.128 E1.77584
G1 X121.219 Y157.611 E1.78006
G1 X121.188 Y158.101 E1.78428
G1 X121.220 Y158.601 E1.78858
G1 X121.188 Y159.101 E1.79288
G1 X121.220 Y159.601 E1.79718
G1 X121.188 Y160.101 E1.80148
G1 X121.220 Y160.601 E1.80578
G1 X121.192 Y161.041 E1.80956
G1 X118.160 Y161.041 E1.83559
G1 X118.160 Y152.162 E1.91182
G1 X122.560 Y152.162 E1.94959
G1 X122.560 Y148.162 E1.98393
G1 X128.440 Y148.162 E2.03441
G1 X128.440 Y152.102 E2.06823
G1 X128.714 Y151.887 F12000.000
G1 X131.891 Y151.887 E2.09550 F600.000
G1 X132.025 Y151.929 E2.09671
G1 X132.102 Y152.035 E2.09784
G1 X132.114 Y161.092 E2.17559
G1 X132.102 Y161.167 E2.17624
G1 X132.025 Y161.273 E2.17737
G1 X131.891 Y161.315 E2.17857
G1 X128.723 Y161.315 E2.20576
G1 X128.737 Y161.101 E2.20760
G1 X128.700 Y160.601 E2.21191
G1 X128.737 Y160.101 E2.21621
G1 X128.700 Y159.601 E2.22052
G1 X128.737 Y159.101 E2.22482
G1 X128.700 Y158.601 E2.22913
G1 X128.737 Y158.101 E2.23343
G1 X128.708 Y157.645 E2.23735
G1 X128.623 Y157.197 E2.24127
G1 X128.482 Y156.762 E2.24519
G1 X128.287 Y156.349 E2.24911
G1 X128.042 Y155.963 E2.25304
G1 X127.751 Y155.612 E2.25696
G1 X127.418 Y155.299 E2.26088
G1 X127.049 Y155.030 E2.26480
G1 X126.649 Y154.810 E2.26872
G1 X126.224 Y154.642 E2.27264
G1 X125.781 Y154.529 E2.27656
G1 X125.328 Y154.471 E2.28048
G1 X124.872 Y154.471 E2.28440
G1 X124.419 Y154.529 E2.28832
G1 X123.976 Y154.642 E2.29225
G1 X123.551 Y154.810 E2.29617
G1 X123.312 Y154.942 E2.29851
G1 X123.151 Y155.030 E2.30009
G1 X122.782 Y155.299 E2.30401
G1 X122.449 Y155.612 E2.30793
G1 X122.158 Y155.963 E2.31185
G1 X121.913 Y156.349 E2.31577
G1 X121.718 Y156.762 E2.31969
G1 X121.628 Y157.041 E2.32220
G1 X121.577 Y157.197 E2.32361
G1 X121.492 Y157.645 E2.32753
G1 X121.463 Y158.101 E2.33146
G1 X121.500 Y158.601 E2.33576
G1 X121.463 Y159.101 E2.34006
G1 X121.500 Y159.601 E2.34437
G1 X121.463 Y160.101 E2.34867
G1 X121.500 Y160.601 E2.35298
G1 X121.463 Y161.101 E2.35728
G1 X121.477 Y161.315 E2.35912
G1 X118.109 Y161.315 E2.38803
G1 X117.975 Y161.273 E2.38924
G1 X117.898 Y161.167 E2.39036
G1 X117.886 Y161.092 E2.39102
G1 X117.898 Y152.035 E2.46877
G1 X117.975 Y151.929 E2.46989
G1 X118.109 Y151.887 E2.47110
G1 X122.286 Y151.887 E2.50696
G1 X122.286 Y148.111 E2.53938
G1 X122.298 Y148.035 E2.54003
G1 X122.375 Y147.929 E2.54116
G1 X122.509 Y147.887 E2.54237
G1 X128.491 Y147.887 E2.59372
G1 X128.625 Y147.929 E2.59492
G1 X128.702 Y148.035 E2.59605
G1 X128.714 Y148.111 E2.59670
G1 X128.714 Y151.827 E2.62861
G1 X128.714 Y152.287 F12000.000
G1 X127.462 Y154.432 F12000.000
G1 X123.014 Y149.983 E2.68262 F600.000
G1 X123.014 Y149.589 E2.68601
G1 X131.386 Y157.962 E2.78766
G1 X131.386 Y157.568 E2.79104
G1 X123.014 Y149.195 E2.89270
G1 X123.014 Y148.801 E2.89608
G1 X131.386 Y157.174 E2.99773
G1 X131.386 Y156.780 E3.00111
G1 X123.221 Y148.615 E3.10025
G1 X123.615 Y148.615 E3.10363
G1 X131.386 Y156.387 E3.19799
G1 X131.386 Y155.993 E3.20137
G1 X124.008 Y148.615 E3.29095
G1 X124.402 Y148.615 E3.29433
G1 X127.986 Y152.199 E3.33785
G1 X127.986 Y151.805 E3.34123
G1 X124.796 Y148.615 E3.37997
G1 X125.190 Y148.615 E3.38335
G1 X127.986 Y151.411 E3.41730
G1 X127.986 Y151.018 E3.42068
G1 X125.584 Y148.615 E3.44986
G1 X125.977 Y148.615 E3.45324
G1 X127.986 Y150.624 E3.47763
G1 X127.986 Y150.230 E3.48101
G1 X126.371 Y148.615 E3.50062
G1 X126.765 Y148.615 E3.50400
G1 X127.986 Y149.836 E3.51883
G1 X127.986 Y149.442 E3.52221
G1 X127.159 Y148.615 E3.53226
G1 X127.553 Y148.615 E3.53564
G1 X127.986 Y149.049 E3.54091
G1 X127.986 Y148.655 E3.54429
G1 X127.946 Y148.615 E3.54477
G1 F1800.000 E2.54477
G1 Z0.250 F12000.000
G92 E0
G1 X131.386 Y152.842 F12000.000
G1 Z0.200 F12000.000
G1 E1.00000 F1800.000
G1 X131.159 Y152.615 E1.00276 F600.000
G1 X130.765 Y152.615 E1.00614
G1 X131.386 Y153.236 E1.01369
G1 X131.386 Y153.630 E1.01707
G1 X130.371 Y152.615 E1.02940
G1 X129.977 Y152.615 E1.03278
G1 X131.386 Y154.024 E1.04988
G1 X131.386 Y154.418 E1.05327
G1 X129.584 Y152.615 E1.07515
G1 X129.190 Y152.615 E1.07853
G1 X131.386 Y154.811 E1.10520
G1 X131.386 Y155.205 E1.10859
G1 X128.796 Y152.615 E1.14004
G1 X128.402 Y152.615 E1.14342
G1 X131.386 Y155.599 E1.17965
G1 X129.173 Y156.536 F12000.000
G1 X131.386 Y158.749 E1.20652 F600.000
G1 X131.386 Y159.143 E1.20990
G1 X129.345 Y157.102 E1.23469
G1 X129.433 Y157.584 E1.23889
G1 X131.386 Y159.537 E1.26260
G1 X131.386 Y159.931 E1.26598
G1 X129.460 Y158.004 E1.28938
G1 X129.448 Y158.386 E1.29266
G1 X131.386 Y160.325 E1.31619
G1 X131.255 Y160.588 E1.31871
G1 X129.446 Y158.778 E1.34069
G1 X129.460 Y159.186 E1.34420
G1 X130.862 Y160.588 E1.36121
G1 X130.468 Y160.588 E1.36459
G1 X129.437 Y159.557 E1.37711
G1 X129.458 Y159.971 E1.38067
G1 X130.074 Y160.588 E1.38815
G1 X129.680 Y160.588 E1.39153
G1 X129.450 Y160.357 E1.39433
G1 X131.386 Y158.356 F12000.000
G1 X128.747 Y155.717 E1.42637 F600.000
G1 X126.675 Y154.039 F12000.000
G1 X123.014 Y150.377 E1.47083 F600.000
G1 X123.014 Y150.770 E1.47421
G1 X126.103 Y153.860 E1.51172
G1 X125.625 Y153.776 E1.51589
G1 X123.014 Y151.164 E1.54760
G1 X123.014 Y151.558 E1.55098
G1 X125.199 Y153.744 E1.57751
G1 X124.808 Y153.746 E1.58088
G1 X123.014 Y151.952 E1.60266
G1 X123.014 Y152.346 E1.60604
G1 X124.458 Y153.790 E1.62358
G1 X124.127 Y153.852 E1.62648
G1 X122.889 Y152.615 E1.64150
G1 X122.495 Y152.615 E1.64489
G1 X123.813 Y153.933 E1.66089
G1 X123.525 Y154.038 E1.66353
G1 X122.101 Y152.615 E1.68081
G1 X121.707 Y152.615 E1.68419
G1 X123.243 Y154.150 E1.70283
G1 X122.988 Y154.290 E1.70532
G1 X121.314 Y152.615 E1.72566
G1 X120.920 Y152.615 E1.72904
G1 X122.737 Y154.432 E1.75110
G1 X122.509 Y154.598 E1.75352
G1 X120.526 Y152.615 E1.77760
G1 X120.132 Y152.615 E1.78098
G1 X122.285 Y154.767 E1.80712
G1 X122.082 Y154.958 E1.80951
G1 X119.738 Y152.615 E1.83796
G1 X119.345 Y152.615 E1.84134
G1 X121.883 Y155.154 E1.87217
G1 X121.705 Y155.369 E1.87457
G1 X118.951 Y152.615 E1.90801
G1 X118.614 Y152.671 E1.91094
G1 X121.533 Y155.590 E1.94638
G1 X121.380 Y155.831 E1.94883
G1 X118.614 Y153.065 E1.98242
G1 X118.614 Y153.459 E1.98580
G1 X121.235 Y156.081 E2.01763
G1 X121.109 Y156.348 E2.02017
G1 X118.614 Y153.853 E2.05047
G1 X118.614 Y154.247 E2.05385
G1 X120.997 Y156.630 E2.08278
G1 X120.900 Y156.927 E2.08546
G1 X118.614 Y154.640 E2.11322
G1 X118.614 Y155.034 E2.11661
G1 X120.827 Y157.248 E2.14348
G1 X120.767 Y157.581 E2.14639
G1 X118.614 Y155.428 E2.17253
G1 X118.614 Y155.822 E2.17591
G1 X120.743 Y157.952 E2.20177
G1 X120.750 Y158.352 E2.20521
G1 X118.614 Y156.216 E2.23115
G1 X118.614 Y156.609 E2.23453
G1 X120.756 Y158.752 E2.26054
G1 X120.736 Y159.125 E2.26375
G1 X118.614 Y157.003 E2.28951
G1 X118.614 Y157.397 E2.29289
G1 X120.762 Y159.546 E2.31898
G1 X120.745 Y159.923 E2.32222
G1 X118.614 Y157.791 E2.34810
G1 X118.614 Y158.185 E2.35148
G1 X120.748 Y160.319 E2.37739
G1 X120.623 Y160.588 E2.37994
G1 X118.614 Y158.579 E2.40433
G1 X118.614 Y158.972 E2.40771
G1 X120.229 Y160.588 E2.42732
G1 X119.835 Y160.588 E2.43070
G1 X118.614 Y159.366 E2.44553
G1 X118.614 Y159.760 E2.44891
G1 X119.441 Y160.588 E2.45896
G1 X119.047 Y160.588 E2.46234
G1 X118.614 Y160.154 E2.46761
G1 X118.614 Y160.548 E2.47099
G1 X118.654 Y160.588 E2.47148
G1 F1800.000 E1.47148
G1 Z0.250 F12000.000
G92 E0
G1 X125.778 Y47.422 F12000.000
G1 Z0.200 F12000.000
G1 E1.00000 F1800.000
G1 X125.222 Y47.422 E1.00478 F600.000
G1 X124.670 Y47.353 E1.00955
G1 X124.131 Y47.214 E1.01433
G1 X123.614 Y47.010 E1.01911
G1 X123.126 Y46.741 E1.02388
G1 X122.676 Y46.415 E1.02866
G1 X122.271 Y46.034 E1.03344
G1 X121.916 Y45.605 E1.03821
G1 X121.618 Y45.136 E1.04298
G1 X121.381 Y44.632 E1.04777
G1 X121.209 Y44.103 E1.05254
G1 X121.105 Y43.556 E1.05732
G1 X121.070 Y43.001 E1.06209
G1 X121.105 Y42.446 E1.06686
G1 X121.209 Y41.900 E1.07164
G1 X121.381 Y41.371 E1.07642
G1 X121.618 Y40.867 E1.08120
