; generated by Slic3r 1.1.7 on 2015-04-03 at 14:09:15

; perimeters extrusion width = 0.40mm
; infill extrusion width = 0.67mm
; solid infill extrusion width = 0.50mm
; top infill extrusion width = 0.30mm

G21 ; set units to millimeters
M107
M190 S70 ; wait for bed temperature to be reached
M104 S240 ; set temperature
G28 ; home all axes
M109 S240 ; wait for temperature to be reached
G90 ; use absolute coordinates
G92 E0
M82 ; use absolute distances for extrusion
M204 S500
G1 F1800.000 E-1.00000
G1 Z0.250 F12000.000
G92 E0
G1 X58.487 Y76.484 F12000.000
G1 Z0.200 F12000.000
G1 E1.00000 F1800.000
G1 X58.746 Y76.296 E1.00275 F600.000
G1 X59.942 Y75.513 E1.01502
G1 X61.505 Y74.733 E1.03001
G1 X61.803 Y74.615 E1.03276
G1 X63.154 Y74.155 E1.04502
G1 X64.472 Y73.846 E1.05664
G1 X181.015 Y53.788 E2.07187
G1 X181.333 Y53.748 E2.07462
G1 X182.755 Y53.638 E2.08687
G1 X184.500 Y53.708 E2.10186
G1 X184.818 Y53.748 E2.10461 F600.000
G1 X186.225 Y53.996 E2.11688
G1 X186.536 Y54.075 E2.11963
G1 X187.900 Y54.497 E2.13189
G1 X188.198 Y54.615 E2.13464
G1 X189.497 Y55.205 E2.14689
G1 X190.994 Y56.107 E2.16190
G1 X191.254 Y56.296 E2.16465
G1 X192.366 Y57.190 E2.17691
G1 X193.591 Y58.436 E2.19190
G1 X194.651 Y59.826 E2.20691
G1 X194.822 Y60.096 E2.20966
G1 X195.528 Y61.337 E2.22192
G1 X196.208 Y62.947 E2.23692
G1 X196.307 Y63.252 E2.23967
G1 X196.682 Y64.630 E2.25193
G1 X196.742 Y64.944 E2.25468
G1 X196.941 Y66.358 E2.26693
G1 X196.992 Y67.224 E2.27438
G1 X199.225 Y127.551 E2.79264
G1 X199.225 Y136.551 E2.86991
G1 X199.095 Y138.062 E2.88293
G1 X198.242 Y140.689 E2.90664
G1 X198.181 Y140.808 E2.90778
G1 X196.557 Y143.042 E2.93150
G1 X196.453 Y143.146 E2.93277
G1 X194.233 Y144.757 E2.95631
G1 X194.114 Y144.817 E2.95746
G1 X191.487 Y145.671 E2.98117
G1 X189.975 Y145.800 E2.99420
G1 X176.175 Y145.800 E3.11267
G1 X174.796 Y145.692 E3.12455
G1 X58.396 Y125.652 E4.13855
G1 X55.888 Y124.818 E4.16124
G1 X55.767 Y124.757 E4.16240
G1 X53.543 Y123.143 E4.18599
G1 X53.441 Y123.040 E4.18723
G1 X51.818 Y120.807 E4.21093
G1 X51.758 Y120.688 E4.21207
G1 X50.905 Y118.063 E4.23577
G1 X50.775 Y116.551 E4.24880
G1 X50.828 Y106.588 E4.33433
G1 X53.198 Y85.259 E4.51857
G1 X53.594 Y83.556 E4.53358
G1 X54.200 Y81.917 E4.54858
G1 X54.336 Y81.627 E4.55133
G1 X55.006 Y80.367 E4.56358
G1 X55.177 Y80.097 E4.56633
G1 X56.000 Y78.929 E4.57859
G1 X56.204 Y78.683 E4.58134
G1 X57.167 Y77.628 E4.59360
G1 X57.401 Y77.409 E4.59635
G1 X58.442 Y76.523 E4.60808
G1 X58.648 Y76.706 F12000.000
G1 X58.908 Y76.518 E4.61083 F600.000
G1 X60.074 Y75.753 E4.62281
G1 X61.606 Y74.988 E4.63751
G1 X61.904 Y74.870 E4.64026
G1 X63.222 Y74.421 E4.65222
G1 X64.518 Y74.117 E4.66364
G1 X181.049 Y54.060 E5.67877
G1 X181.367 Y54.020 E5.68152
G1 X182.755 Y53.913 E5.69348
G1 X184.466 Y53.980 E5.70817
G1 X184.784 Y54.020 E5.71093 F600.000
G1 X186.157 Y54.261 E5.72290
G1 X186.467 Y54.341 E5.72565
G1 X187.799 Y54.752 E5.73761
G1 X188.097 Y54.870 E5.74036
G1 X189.365 Y55.445 E5.75231
G1 X190.833 Y56.329 E5.76702
G1 X191.092 Y56.517 E5.76978
G1 X192.178 Y57.390 E5.78174
G1 X193.380 Y58.610 E5.79644
G1 X194.419 Y59.973 E5.81115
G1 X194.591 Y60.243 E5.81390
G1 X195.280 Y61.454 E5.82586
G1 X195.948 Y63.032 E5.84057
G1 X196.047 Y63.337 E5.84332
G1 X196.412 Y64.681 E5.85528
G1 X196.472 Y64.996 E5.85803
G1 X196.667 Y66.375 E5.86999
G1 X196.718 Y67.234 E5.87738
G1 X198.950 Y127.551 E6.39555
G1 X198.950 Y136.551 E6.47282
G1 X198.824 Y138.019 E6.48547
G1 X197.998 Y140.564 E6.50844
G1 X197.937 Y140.683 E6.50959
G1 X196.363 Y142.848 E6.53257
G1 X196.259 Y142.952 E6.53383
G1 X194.108 Y144.512 E6.55664
G1 X193.989 Y144.573 E6.55779
G1 X191.444 Y145.400 E6.58076
G1 X189.975 Y145.526 E6.59342
G1 X176.175 Y145.526 E6.71189
G1 X174.839 Y145.421 E6.72340
G1 X58.442 Y125.381 E7.73737
G1 X56.012 Y124.574 E7.75935
G1 X55.892 Y124.512 E7.76051
G1 X53.737 Y122.948 E7.78337
G1 X53.635 Y122.846 E7.78461
G1 X52.063 Y120.683 E7.80757
G1 X52.002 Y120.564 E7.80871
G1 X51.176 Y118.021 E7.83167
G1 X51.050 Y116.551 E7.84433
G1 X51.101 Y106.618 E7.92961
G1 X53.468 Y85.310 E8.11367
G1 X53.855 Y83.641 E8.12837
G1 X54.448 Y82.034 E8.14308
G1 X54.584 Y81.744 E8.14583
G1 X55.237 Y80.514 E8.15779
G1 X55.409 Y80.244 E8.16054
G1 X56.212 Y79.104 E8.17250
G1 X56.416 Y78.858 E8.17525
G1 X57.355 Y77.828 E8.18722
G1 X58.603 Y76.745 E8.20140
G1 X58.810 Y76.928 F12000.000
G1 X60.206 Y75.994 E8.21582 F600.000
G1 X61.707 Y75.243 E8.23023
G1 X63.291 Y74.686 E8.24464
G1 X64.565 Y74.387 E8.25588
G1 X181.083 Y54.332 E9.27090
G1 X182.755 Y54.187 E9.28530
G1 X184.432 Y54.252 E9.29971
G1 X186.089 Y54.527 E9.31413 F600.000
G1 X187.698 Y55.008 E9.32854
G1 X187.996 Y55.126 E9.33130
G1 X189.233 Y55.685 E9.34295
G1 X190.672 Y56.551 E9.35737
G1 X191.991 Y57.590 E9.37178
G1 X193.168 Y58.785 E9.38619
G1 X194.188 Y60.120 E9.40061
G1 X195.031 Y61.571 E9.41502
G1 X195.687 Y63.117 E9.42943
G1 X195.786 Y63.422 E9.43218
G1 X196.143 Y64.732 E9.44385
G1 X196.393 Y66.393 E9.45826
G1 X196.444 Y67.244 E9.46558
G1 X198.676 Y127.551 E9.98367
G1 X198.576 Y137.831 E10.07193
G1 X198.553 Y137.976 E10.07319
G1 X197.753 Y140.440 E10.09543
G1 X197.693 Y140.558 E10.09657
G1 X196.169 Y142.654 E10.11882
G1 X196.066 Y142.758 E10.12007
G1 X193.983 Y144.268 E10.14216
G1 X193.865 Y144.329 E10.14330
G1 X191.401 Y145.129 E10.16554
G1 X189.975 Y145.252 E10.17783
G1 X176.175 Y145.252 E10.29630
G1 X174.881 Y145.150 E10.30744
G1 X58.489 Y125.111 E11.32137
G1 X56.137 Y124.329 E11.34265
G1 X56.016 Y124.268 E11.34381
G1 X53.930 Y122.754 E11.36594
G1 X53.829 Y122.652 E11.36717
G1 X52.307 Y120.558 E11.38940
G1 X52.247 Y120.439 E11.39054
G1 X51.447 Y117.978 E11.41276
G1 X51.324 Y116.551 E11.42505
G1 X51.373 Y106.648 E11.51008
G1 X53.737 Y85.361 E11.69394
G1 X54.116 Y83.726 E11.70835
G1 X54.696 Y82.151 E11.72277
G1 X55.469 Y80.661 E11.73718
G1 X55.641 Y80.390 E11.73993
G1 X56.423 Y79.279 E11.75159
G1 X57.543 Y78.028 E11.76601
G1 X58.764 Y76.967 E11.77990
G1 F1800.000 E10.77990
G1 Z0.250 F12000.000
G92 E0
G1 X69.682 Y107.793 F12000.000
G1 Z0.200 F12000.000
G1 E1.00000 F1800.000
G1 X73.582 Y107.793 E1.03348 F600.000
G1 X73.582 Y116.309 E1.10659
G1 X71.186 Y116.309 E1.12715
G1 X71.393 Y115.673 E1.13290
G1 X71.499 Y115.116 E1.13776
G1 X71.535 Y114.551 E1.14262
G1 X71.503 Y114.051 E1.14692
G1 X71.535 Y113.551 E1.15122
G1 X71.503 Y113.051 E1.15552
G1 X71.535 Y112.551 E1.15982
G1 X71.499 Y111.986 E1.16469
G1 X71.393 Y111.429 E1.16955
G1 X71.218 Y110.891 E1.17441
G1 X70.977 Y110.378 E1.17927
G1 X70.674 Y109.900 E1.18414
G1 X70.312 Y109.464 E1.18900
G1 X69.900 Y109.076 E1.19386
G1 X69.441 Y108.743 E1.19872
G1 X68.945 Y108.470 E1.20359
G1 X68.526 Y108.304 E1.20746
G1 X67.870 Y108.121 E1.21331
G1 X67.308 Y108.050 E1.21817
G1 X66.741 Y108.050 E1.22303
G1 X66.180 Y108.121 E1.22789
G1 X65.631 Y108.262 E1.23276
G1 X65.050 Y108.500 E1.23815
G1 X64.608 Y108.743 E1.24248
G1 X64.150 Y109.076 E1.24734
G1 X63.737 Y109.464 E1.25220
G1 X63.376 Y109.900 E1.25706
G1 X63.072 Y110.378 E1.26193
G1 X62.831 Y110.891 E1.26679
G1 X62.656 Y111.429 E1.27165
G1 X62.550 Y111.986 E1.27651
G1 X62.514 Y112.551 E1.28138
G1 X62.546 Y113.051 E1.28568
G1 X62.514 Y113.551 E1.28998
G1 X62.546 Y114.051 E1.29428
G1 X62.514 Y114.551 E1.29858
G1 X62.550 Y115.116 E1.30344
G1 X62.656 Y115.673 E1.30831
G1 X62.863 Y116.309 E1.31405
G1 X60.267 Y116.309 E1.33633
G1 X60.267 Y107.793 E1.40943
G1 X64.167 Y107.793 E1.44292
G1 X64.167 Y103.793 E1.47726
G1 X69.682 Y103.793 E1.52460
G1 X69.682 Y107.733 E1.55843
G1 X69.957 Y107.519 F12000.000
G1 X73.857 Y107.519 E1.59191 F600.000
G1 X73.857 Y116.583 E1.66973
G1 X70.740 Y116.583 E1.69648
G1 X70.962 Y116.110 E1.70097
G1 X71.127 Y115.604 E1.70553
G1 X71.227 Y115.082 E1.71010
G1 X71.260 Y114.551 E1.71467
G1 X71.229 Y114.051 E1.71897
G1 X71.260 Y113.551 E1.72327
G1 X71.229 Y113.051 E1.72757
G1 X71.260 Y112.551 E1.73187
G1 X71.227 Y112.020 E1.73644
G1 X71.127 Y111.498 E1.74100
G1 X70.962 Y110.992 E1.74557
G1 X70.736 Y110.511 E1.75013
G1 X70.451 Y110.062 E1.75470
G1 X70.112 Y109.652 E1.75927
G1 X69.724 Y109.288 E1.76383
G1 X69.294 Y108.975 E1.76840
G1 X68.828 Y108.719 E1.77297
G1 X68.425 Y108.559 E1.77669
G1 X67.818 Y108.391 E1.78209
G1 X67.291 Y108.324 E1.78666
G1 X66.759 Y108.324 E1.79123
G1 X66.231 Y108.391 E1.79579
G1 X65.716 Y108.523 E1.80036
G1 X65.182 Y108.741 E1.80531
G1 X64.755 Y108.975 E1.80949
G1 X64.325 Y109.288 E1.81405
G1 X63.937 Y109.652 E1.81862
G1 X63.598 Y110.062 E1.82319
G1 X63.313 Y110.511 E1.82775
G1 X63.087 Y110.992 E1.83232
G1 X62.922 Y111.498 E1.83688
G1 X62.823 Y112.020 E1.84145
G1 X62.789 Y112.551 E1.84602
G1 X62.821 Y113.051 E1.85032
G1 X62.789 Y113.551 E1.85462
G1 X62.821 Y114.051 E1.85892
G1 X62.789 Y114.551 E1.86322
G1 X62.823 Y115.082 E1.86779
G1 X62.922 Y115.604 E1.87235
G1 X63.087 Y116.110 E1.87692
G1 X63.309 Y116.583 E1.88141
G1 X59.993 Y116.583 E1.90988
G1 X59.993 Y107.519 E1.98769
G1 X63.893 Y107.519 E2.02117
G1 X63.893 Y103.519 E2.05551
G1 X69.957 Y103.519 E2.10757
G1 X69.957 Y107.459 E2.14140
G1 X70.231 Y107.245 F12000.000
G1 X73.815 Y107.245 E2.17217 F600.000
G1 X73.919 Y107.261 E2.17307
G1 X74.004 Y107.305 E2.17389
G1 X74.071 Y107.372 E2.17471
G1 X74.115 Y107.457 E2.17553
G1 X74.131 Y107.560 E2.17643
G1 X74.131 Y116.542 E2.25353
G1 X74.115 Y116.645 E2.25443
G1 X74.071 Y116.730 E2.25525
G1 X74.004 Y116.798 E2.25607
G1 X73.919 Y116.841 E2.25689
G1 X73.815 Y116.857 E2.25779
G1 X70.242 Y116.857 E2.28846
G1 X70.495 Y116.459 E2.29251
G1 X70.707 Y116.009 E2.29678
G1 X70.861 Y115.536 E2.30105
G1 X70.954 Y115.047 E2.30532
G1 X70.985 Y114.551 E2.30959
G1 X70.954 Y114.051 E2.31389
G1 X70.985 Y113.551 E2.31819
G1 X70.954 Y113.051 E2.32249
G1 X70.985 Y112.551 E2.32679
G1 X70.954 Y112.055 E2.33106
G1 X70.876 Y111.646 E2.33463
G1 X70.707 Y111.093 E2.33960
G1 X70.495 Y110.643 E2.34387
G1 X70.229 Y110.223 E2.34814
G1 X69.912 Y109.840 E2.35241
G1 X69.549 Y109.500 E2.35668
G1 X69.147 Y109.207 E2.36095
G1 X68.711 Y108.968 E2.36522
G1 X68.324 Y108.814 E2.36879
G1 X67.767 Y108.661 E2.37375
G1 X67.273 Y108.598 E2.37802
G1 X66.776 Y108.598 E2.38229
G1 X66.283 Y108.661 E2.38656
G1 X65.725 Y108.814 E2.39152
G1 X65.338 Y108.968 E2.39509
G1 X64.903 Y109.207 E2.39936
G1 X64.500 Y109.500 E2.40363
G1 X64.138 Y109.840 E2.40790
G1 X63.821 Y110.223 E2.41217
G1 X63.554 Y110.643 E2.41644
G1 X63.342 Y111.093 E2.42071
G1 X63.189 Y111.566 E2.42498
G1 X63.095 Y112.055 E2.42925
G1 X63.064 Y112.551 E2.43352
G1 X63.096 Y113.051 E2.43782
G1 X63.064 Y113.551 E2.44213
G1 X63.096 Y114.051 E2.44643
G1 X63.064 Y114.551 E2.45073
G1 X63.095 Y115.047 E2.45500
G1 X63.189 Y115.536 E2.45927
G1 X63.342 Y116.009 E2.46354
G1 X63.554 Y116.459 E2.46781
G1 X63.807 Y116.857 E2.47186
G1 X60.034 Y116.857 E2.50425
G1 X59.930 Y116.841 E2.50515
G1 X59.845 Y116.798 E2.50597
G1 X59.778 Y116.730 E2.50678
G1 X59.735 Y116.645 E2.50760
G1 X59.718 Y116.542 E2.50850
G1 X59.718 Y107.561 E2.58561
G1 X59.735 Y107.457 E2.58651
G1 X59.778 Y107.372 E2.58733
G1 X59.845 Y107.305 E2.58815
G1 X59.930 Y107.261 E2.58896
G1 X60.034 Y107.245 E2.58987
G1 X63.618 Y107.245 E2.62064
G1 X63.618 Y103.561 E2.65227
G1 X63.635 Y103.457 E2.65317
G1 X63.678 Y103.372 E2.65398
G1 X63.745 Y103.305 E2.65480
G1 X63.830 Y103.261 E2.65562
G1 X63.934 Y103.245 E2.65652
G1 X69.915 Y103.245 E2.70787
G1 X70.019 Y103.261 E2.70877
G1 X70.104 Y103.305 E2.70959
G1 X70.171 Y103.372 E2.71041
G1 X70.215 Y103.457 E2.71123
G1 X70.231 Y103.560 E2.71213
G1 X70.231 Y107.185 E2.74324
G1 X70.231 Y107.645 F12000.000
G1 X69.201 Y108.407 F12000.000
G1 X64.767 Y103.972 E2.79708 F600.000
G1 X65.158 Y103.972 E2.80044
G1 X73.403 Y112.218 E2.90055
G1 X73.403 Y112.609 E2.90391
G1 X71.176 Y110.382 E2.93095
G1 X73.072 Y107.972 F12000.000
G1 X73.403 Y108.304 E2.93497 F600.000
G1 X73.403 Y108.695 E2.93833
G1 X72.681 Y107.972 E2.94711
G1 X72.289 Y107.972 E2.95047
G1 X73.403 Y109.087 E2.96399
G1 X73.403 Y109.478 E2.96735
G1 X71.898 Y107.972 E2.98563
G1 X71.506 Y107.972 E2.98899
G1 X73.403 Y109.869 E3.01202
G1 X73.403 Y110.261 E3.01538
G1 X71.115 Y107.972 E3.04317
G1 X70.724 Y107.972 E3.04653
G1 X73.403 Y110.652 E3.07906
G1 X73.403 Y111.043 E3.08242
G1 X70.332 Y107.972 E3.11971
G1 X69.941 Y107.972 E3.12307
G1 X73.403 Y111.435 E3.16511
G1 X73.403 Y111.826 E3.16847
G1 X65.550 Y103.972 E3.26382
G1 X65.941 Y103.972 E3.26718
G1 X69.503 Y107.535 E3.31043
G1 X69.503 Y107.143 E3.31380
G1 X66.332 Y103.972 E3.35230
G1 X66.724 Y103.972 E3.35566
G1 X69.503 Y106.752 E3.38940
G1 X69.503 Y106.361 E3.39276
G1 X67.115 Y103.972 E3.42176
G1 X67.506 Y103.972 E3.42512
G1 X69.503 Y105.969 E3.44937
G1 X69.503 Y105.578 E3.45273
G1 X67.898 Y103.972 E3.47222
G1 X68.289 Y103.972 E3.47558
G1 X69.503 Y105.187 E3.49032
G1 X69.503 Y104.795 E3.49368
G1 X68.681 Y103.972 E3.50367
G1 X69.072 Y103.972 E3.50703
G1 X69.503 Y104.404 E3.51227
G1 X69.503 Y104.012 E3.51563
G1 X69.463 Y103.972 E3.51611
G1 X68.520 Y108.117 F12000.000
G1 X64.381 Y103.978 E3.56637 F600.000
G1 X64.346 Y104.334 E3.56944
G1 X67.976 Y107.965 E3.61352
G1 X67.516 Y107.896 E3.61752
G1 X64.346 Y104.726 E3.65601
G1 X64.346 Y105.117 E3.65937
G1 X67.100 Y107.871 E3.69280
G1 X66.711 Y107.873 E3.69614
G1 X64.346 Y105.508 E3.72486
G1 X64.346 Y105.900 E3.72822
G1 X66.363 Y107.917 E3.75271
G1 X66.029 Y107.975 E3.75562
G1 X64.346 Y106.291 E3.77606
G1 X64.346 Y106.683 E3.77942
G1 X65.718 Y108.055 E3.79608
G1 X65.425 Y108.153 E3.79873
G1 X64.346 Y107.074 E3.81183
G1 X64.346 Y107.465 E3.81519
G1 X65.147 Y108.267 E3.82492
G1 X64.879 Y108.390 E3.82745
G1 X64.346 Y107.857 E3.83392
G1 X64.070 Y107.972 E3.83649
G1 X64.626 Y108.529 E3.84325
G1 X64.388 Y108.682 E3.84568
G1 X63.679 Y107.972 E3.85429
G1 X63.287 Y107.972 E3.85765
G1 X64.161 Y108.846 E3.86826
G1 X63.946 Y109.022 E3.87065
G1 X62.896 Y107.972 E3.88340
G1 X62.504 Y107.972 E3.88676
G1 X63.744 Y109.212 E3.90180
G1 X63.550 Y109.409 E3.90418
G1 X62.113 Y107.972 E3.92162
G1 X61.722 Y107.972 E3.92498
G1 X63.373 Y109.623 E3.94503
G1 X63.200 Y109.843 E3.94742
G1 X61.330 Y107.972 E3.97013
G1 X60.939 Y107.972 E3.97349
G1 X63.049 Y110.082 E3.99910
G1 X62.900 Y110.325 E4.00154
G1 X60.548 Y107.972 E4.03010
G1 X60.446 Y108.262 E4.03274
G1 X62.775 Y110.591 E4.06101
G1 X62.653 Y110.861 E4.06355
G1 X60.446 Y108.653 E4.09035
G1 X60.446 Y109.045 E4.09371
G1 X62.557 Y111.156 E4.11934
G1 X62.468 Y111.459 E4.12205
G1 X60.446 Y109.436 E4.14660
G1 X60.446 Y109.828 E4.14996
G1 X62.406 Y111.787 E4.17376
G1 X62.361 Y112.135 E4.17676
G1 X60.446 Y110.219 E4.20002
G1 X60.446 Y110.610 E4.20338
G1 X62.338 Y112.503 E4.22635
G1 X62.358 Y112.914 E4.22989
G1 X60.446 Y111.002 E4.25310
G1 X60.446 Y111.393 E4.25646
G1 X62.351 Y113.298 E4.27960
G1 X62.343 Y113.682 E4.28289
G1 X60.446 Y111.785 E4.30593
G1 X60.446 Y112.176 E4.30929
G1 X62.364 Y114.094 E4.33258
G1 X62.341 Y114.462 E4.33574
G1 X60.446 Y112.567 E4.35875
G1 X60.446 Y112.959 E4.36211
G1 X62.355 Y114.868 E4.38529
G1 X62.405 Y115.309 E4.38910
G1 X60.446 Y113.350 E4.41288
G1 X60.446 Y113.742 E4.41624
G1 X62.512 Y115.807 E4.44132
G1 X62.443 Y116.130 E4.44415
G1 X60.446 Y114.133 E4.46840
G1 X60.446 Y114.524 E4.47176
G1 X62.051 Y116.130 E4.49125
G1 X61.660 Y116.130 E4.49461
G1 X60.446 Y114.916 E4.50935
G1 X60.446 Y115.307 E4.51271
G1 X61.269 Y116.130 E4.52270
G1 X60.877 Y116.130 E4.52606
G1 X60.446 Y115.698 E4.53130
G1 X60.446 Y116.090 E4.53466
G1 X60.486 Y116.130 E4.53515
G1 F1800.000 E3.53515
G1 Z0.250 F12000.000
G92 E0
G1 X71.436 Y116.121 F12000.000
G1 Z0.200 F12000.000
G1 E1.00000 F1800.000
G1 X71.532 Y115.825 E1.00267 F600.000
G1 X71.836 Y116.130 E1.00636
G1 X72.228 Y116.130 E1.00972
G1 X71.607 Y115.509 E1.01726
G1 X71.669 Y115.180 E1.02014
G1 X72.619 Y116.130 E1.03167
G1 X73.010 Y116.130 E1.03503
G1 X71.697 Y114.817 E1.05097
G1 X71.707 Y114.435 E1.05425
G1 X73.383 Y116.111 E1.07459
G1 X73.403 Y115.740 E1.07778
G1 X71.685 Y114.021 E1.09865
G1 X71.708 Y113.653 E1.10182
G1 X73.403 Y115.349 E1.12241
G1 X73.403 Y114.957 E1.12577
G1 X71.695 Y113.249 E1.14651
G1 X71.695 Y112.857 E1.14987
G1 X73.403 Y114.566 E1.17061
G1 X73.403 Y114.175 E1.17397
G1 X71.710 Y112.481 E1.19454
G1 X71.683 Y112.063 E1.19813
G1 X73.403 Y113.783 E1.21901
G1 X73.403 Y113.392 E1.22237
G1 X71.607 Y111.595 E1.24418
G1 X71.460 Y111.057 E1.24897
