; generated by Slic3r 1.1.7 on 2015-04-03 at 11:43:57

; perimeters extrusion width = 0.40mm
; infill extrusion width = 0.67mm
; solid infill extrusion width = 0.50mm
; top infill extrusion width = 0.30mm

G21 ; set units to millimeters
M107
M190 S70 ; wait for bed temperature to be reached
M104 S240 ; set temperature
G28 ; home all axes
M109 S240 ; wait for temperature to be reached
G90 ; use absolute coordinates
G92 E0
M82 ; use absolute distances for extrusion
M204 S500
G1 F1800.000 E-1.00000
G1 Z0.250 F12000.000
G92 E0
G1 X109.868 Y74.223 F12000.000
G1 Z0.200 F12000.000
G1 E1.00000 F1800.000
G1 X111.488 Y71.994 E1.02366 F600.000
G1 X111.589 Y71.892 E1.02489
G1 X113.825 Y70.268 E1.04861
G1 X113.952 Y70.203 E1.04984
G1 X116.579 Y69.349 E1.07355
G1 X118.100 Y69.218 E1.08666
G1 X131.900 Y69.218 E1.20513
G1 X133.423 Y69.350 E1.21826 F600.000
G1 X136.049 Y70.203 E1.24196
G1 X136.177 Y70.269 E1.24319
G1 X138.408 Y71.890 E1.26687
G1 X138.510 Y71.992 E1.26811
G1 X140.131 Y74.223 E1.29179
G1 X140.197 Y74.351 E1.29302
G1 X141.051 Y76.979 E1.31674
G1 X141.182 Y78.500 E1.32985
G1 X141.182 Y121.500 E1.69900
G1 X141.073 Y122.879 E1.71088
G1 X141.051 Y123.021 E1.71211
G1 X140.197 Y125.648 E1.73583
G1 X140.132 Y125.776 E1.73706
G1 X138.511 Y128.007 E1.76074
G1 X138.406 Y128.112 E1.76201
G1 X136.176 Y129.732 E1.78567
G1 X136.048 Y129.797 E1.78690
G1 X133.425 Y130.650 E1.81058
G1 X131.900 Y130.782 E1.82373
G1 X118.100 Y130.782 E1.94220
G1 X116.578 Y130.651 E1.95531
G1 X113.953 Y129.798 E1.97901
G1 X113.825 Y129.732 E1.98024
G1 X111.591 Y128.110 E2.00394
G1 X111.490 Y128.008 E2.00518
G1 X109.868 Y125.775 E2.02887
G1 X109.803 Y125.647 E2.03010
G1 X108.950 Y123.022 E2.05380
G1 X108.818 Y121.500 E2.06692
G1 X108.818 Y78.500 E2.43607
G1 X108.950 Y76.978 E2.44919
G1 X109.803 Y74.351 E2.47290
G1 X109.841 Y74.277 E2.47361
G1 X110.113 Y74.348 F12000.000
G1 X111.682 Y72.188 E2.49654 F600.000
G1 X111.783 Y72.086 E2.49777
G1 X113.949 Y70.512 E2.52075
G1 X114.077 Y70.447 E2.52198
G1 X116.621 Y69.620 E2.54495
G1 X118.100 Y69.493 E2.55769
G1 X131.900 Y69.493 E2.67617
G1 X133.380 Y69.621 E2.68892 F600.000
G1 X135.924 Y70.448 E2.71189
G1 X136.052 Y70.513 E2.71312
G1 X138.214 Y72.084 E2.73606
G1 X138.316 Y72.186 E2.73730
G1 X139.887 Y74.348 E2.76024
G1 X139.952 Y74.475 E2.76147
G1 X140.780 Y77.022 E2.78446
G1 X140.907 Y78.500 E2.79720
G1 X140.907 Y121.500 E3.16635
G1 X140.802 Y122.836 E3.17786
G1 X140.780 Y122.978 E3.17909
G1 X139.953 Y125.523 E3.20207
G1 X139.888 Y125.651 E3.20330
G1 X138.317 Y127.813 E3.22624
G1 X138.212 Y127.918 E3.22751
G1 X136.052 Y129.487 E3.25044
G1 X135.924 Y129.552 E3.25167
G1 X133.382 Y130.379 E3.27461
G1 X131.900 Y130.507 E3.28739
G1 X118.100 Y130.507 E3.40586
G1 X116.621 Y130.380 E3.41860
G1 X114.078 Y129.553 E3.44156
G1 X113.950 Y129.488 E3.44279
G1 X111.785 Y127.916 E3.46576
G1 X111.684 Y127.814 E3.46699
G1 X110.112 Y125.651 E3.48995
G1 X110.047 Y125.523 E3.49118
G1 X109.220 Y122.979 E3.51414
G1 X109.093 Y121.500 E3.52689
G1 X109.093 Y78.500 E3.89605
G1 X109.220 Y77.021 E3.90879
G1 X110.048 Y74.476 E3.93177
G1 X110.086 Y74.401 E3.93248
G1 X110.357 Y74.473 F12000.000
G1 X111.876 Y72.382 E3.95467 F600.000
G1 X111.978 Y72.280 E3.95590
G1 X114.074 Y70.757 E3.97815
G1 X114.202 Y70.692 E3.97938
G1 X116.664 Y69.891 E4.00161
G1 X118.100 Y69.767 E4.01398
G1 X131.900 Y69.767 E4.13245
G1 X133.337 Y69.892 E4.14484 F600.000
G1 X135.800 Y70.692 E4.16707
G1 X135.928 Y70.757 E4.16830
G1 X138.020 Y72.278 E4.19051
G1 X138.122 Y72.380 E4.19174
G1 X139.643 Y74.472 E4.21395
G1 X139.708 Y74.600 E4.21518
G1 X140.509 Y77.064 E4.23743
G1 X140.633 Y78.500 E4.24980
G1 X140.633 Y121.500 E4.61895
G1 X140.531 Y122.793 E4.63009
G1 X140.509 Y122.935 E4.63132
G1 X139.708 Y125.399 E4.65356
G1 X139.643 Y125.527 E4.65479
G1 X138.123 Y127.619 E4.67700
G1 X138.018 Y127.724 E4.67827
G1 X135.927 Y129.243 E4.70046
G1 X135.799 Y129.308 E4.70169
G1 X133.339 Y130.108 E4.72390
G1 X131.900 Y130.233 E4.73630
G1 X118.100 Y130.233 E4.85477
G1 X116.664 Y130.109 E4.86715
G1 X114.202 Y129.309 E4.88937
G1 X114.074 Y129.244 E4.89060
G1 X111.979 Y127.722 E4.91283
G1 X111.878 Y127.620 E4.91406
G1 X110.357 Y125.526 E4.93629
G1 X110.291 Y125.398 E4.93752
G1 X109.491 Y122.936 E4.95974
G1 X109.367 Y121.500 E4.97212
G1 X109.367 Y78.500 E5.34127
G1 X109.491 Y77.064 E5.35365
G1 X110.292 Y74.600 E5.37589
G1 X110.330 Y74.526 E5.37660
G1 F1800.000 E4.37660
G1 Z0.250 F12000.000
G92 E0
G1 X128.290 Y112.710 F12000.000
G1 Z0.200 F12000.000
G1 E1.00000 F1800.000
G1 X131.690 Y112.710 E1.02919 F600.000
G1 X131.690 Y121.290 E1.10285
G1 X129.265 Y121.290 E1.12366
G1 X129.481 Y120.625 E1.12967
G1 X129.588 Y120.067 E1.13455
G1 X129.623 Y119.500 E1.13942
G1 X129.592 Y119.000 E1.14372
G1 X129.623 Y118.500 E1.14802
G1 X129.592 Y118.000 E1.15232
G1 X129.623 Y117.500 E1.15663
G1 X129.588 Y116.933 E1.16150
G1 X129.481 Y116.375 E1.16638
G1 X129.306 Y115.835 E1.17126
G1 X129.064 Y115.321 E1.17613
G1 X128.760 Y114.841 E1.18101
G1 X128.397 Y114.404 E1.18588
G1 X127.983 Y114.015 E1.19076
G1 X127.565 Y113.711 E1.19520
G1 X127.026 Y113.407 E1.20051
G1 X126.498 Y113.198 E1.20539
G1 X125.948 Y113.057 E1.21026
G1 X125.384 Y112.986 E1.21514
G1 X124.816 Y112.986 E1.22002
G1 X124.252 Y113.057 E1.22490
G1 X123.702 Y113.198 E1.22977
G1 X123.174 Y113.407 E1.23465
G1 X122.741 Y113.645 E1.23889
G1 X122.217 Y114.015 E1.24440
G1 X121.803 Y114.404 E1.24927
G1 X121.441 Y114.841 E1.25415
G1 X121.136 Y115.321 E1.25903
G1 X120.894 Y115.835 E1.26390
G1 X120.719 Y116.375 E1.26878
G1 X120.612 Y116.933 E1.27366
G1 X120.577 Y117.500 E1.27853
G1 X120.608 Y118.000 E1.28283
G1 X120.577 Y118.500 E1.28714
G1 X120.608 Y119.000 E1.29144
G1 X120.577 Y119.500 E1.29574
G1 X120.612 Y120.067 E1.30061
G1 X120.719 Y120.625 E1.30549
G1 X120.935 Y121.290 E1.31149
G1 X118.310 Y121.290 E1.33403
G1 X118.310 Y112.710 E1.40769
G1 X122.710 Y112.710 E1.44546
G1 X122.710 Y108.710 E1.47980
G1 X128.290 Y108.710 E1.52770
G1 X128.290 Y112.650 E1.56153
G1 X128.564 Y112.436 F12000.000
G1 X131.964 Y112.436 E1.59072 F600.000
G1 X131.964 Y121.564 E1.66908
G1 X128.815 Y121.564 E1.69612
G1 X129.050 Y121.064 E1.70087
G1 X129.215 Y120.557 E1.70545
G1 X129.315 Y120.032 E1.71003
G1 X129.348 Y119.500 E1.71461
G1 X129.317 Y119.000 E1.71891
G1 X129.348 Y118.500 E1.72321
G1 X129.317 Y118.000 E1.72751
G1 X129.348 Y117.500 E1.73181
G1 X129.315 Y116.968 E1.73639
G1 X129.215 Y116.443 E1.74097
G1 X129.050 Y115.936 E1.74556
G1 X128.823 Y115.453 E1.75014
G1 X128.537 Y115.003 E1.75472
G1 X128.197 Y114.592 E1.75930
G1 X127.808 Y114.227 E1.76388
G1 X127.404 Y113.933 E1.76817
G1 X126.909 Y113.656 E1.77303
G1 X126.413 Y113.459 E1.77761
G1 X125.896 Y113.327 E1.78219
G1 X125.367 Y113.260 E1.78678
G1 X124.833 Y113.260 E1.79136
G1 X124.304 Y113.327 E1.79594
G1 X123.787 Y113.459 E1.80052
G1 X123.291 Y113.656 E1.80510
G1 X122.874 Y113.885 E1.80919
G1 X122.392 Y114.227 E1.81425
G1 X122.003 Y114.592 E1.81883
G1 X121.663 Y115.003 E1.82341
G1 X121.377 Y115.453 E1.82799
G1 X121.150 Y115.936 E1.83257
G1 X120.985 Y116.443 E1.83716
G1 X120.885 Y116.968 E1.84174
G1 X120.852 Y117.500 E1.84632
G1 X120.883 Y118.000 E1.85062
G1 X120.852 Y118.500 E1.85492
G1 X120.883 Y119.000 E1.85922
G1 X120.852 Y119.500 E1.86352
G1 X120.885 Y120.032 E1.86810
G1 X120.985 Y120.557 E1.87268
G1 X121.150 Y121.064 E1.87726
G1 X121.385 Y121.564 E1.88201
G1 X118.036 Y121.564 E1.91076
G1 X118.036 Y112.436 E1.98913
G1 X122.436 Y112.436 E2.02690
G1 X122.436 Y108.436 E2.06124
G1 X128.564 Y108.436 E2.11386
G1 X128.564 Y112.376 E2.14768
G1 X128.839 Y112.161 F12000.000
G1 X131.891 Y112.161 E2.17388 F600.000
G1 X132.004 Y112.179 E2.17487
G1 X132.098 Y112.227 E2.17578
G1 X132.173 Y112.302 E2.17668
G1 X132.221 Y112.396 E2.17759
G1 X132.239 Y112.509 E2.17857
G1 X132.239 Y121.491 E2.25568
G1 X132.221 Y121.604 E2.25667
G1 X132.173 Y121.698 E2.25757
G1 X132.098 Y121.773 E2.25848
G1 X132.004 Y121.821 E2.25938
G1 X131.891 Y121.839 E2.26037
G1 X128.313 Y121.839 E2.29108
G1 X128.582 Y121.414 E2.29540
G1 X128.794 Y120.963 E2.29968
G1 X128.949 Y120.488 E2.30397
G1 X129.042 Y119.998 E2.30825
G1 X129.074 Y119.500 E2.31253
G1 X129.042 Y119.000 E2.31683
G1 X129.074 Y118.500 E2.32113
G1 X129.042 Y118.000 E2.32544
G1 X129.074 Y117.500 E2.32974
G1 X129.042 Y117.002 E2.33402
G1 X128.956 Y116.551 E2.33796
G1 X128.794 Y116.037 E2.34259
G1 X128.582 Y115.586 E2.34687
G1 X128.315 Y115.164 E2.35115
G1 X127.997 Y114.780 E2.35544
G1 X127.633 Y114.438 E2.35972
G1 X127.242 Y114.155 E2.36386
G1 X126.792 Y113.905 E2.36829
G1 X126.328 Y113.721 E2.37257
G1 X125.845 Y113.597 E2.37686
G1 X125.349 Y113.534 E2.38114
G1 X124.834 Y113.536 E2.38556
G1 X124.355 Y113.597 E2.38971
G1 X123.872 Y113.721 E2.39399
G1 X123.408 Y113.905 E2.39828
G1 X122.971 Y114.145 E2.40256
G1 X122.567 Y114.438 E2.40684
G1 X122.203 Y114.780 E2.41113
G1 X121.885 Y115.164 E2.41541
G1 X121.627 Y115.572 E2.41955
G1 X121.405 Y116.037 E2.42398
G1 X121.251 Y116.512 E2.42826
G1 X121.161 Y116.986 E2.43240
G1 X121.126 Y117.500 E2.43683
G1 X121.158 Y118.000 E2.44113
G1 X121.126 Y118.500 E2.44543
G1 X121.158 Y119.000 E2.44973
G1 X121.126 Y119.500 E2.45403
G1 X121.158 Y119.998 E2.45832
G1 X121.251 Y120.488 E2.46260
G1 X121.405 Y120.963 E2.46688
G1 X121.618 Y121.414 E2.47117
G1 X121.887 Y121.839 E2.47548
G1 X118.109 Y121.839 E2.50791
G1 X117.996 Y121.821 E2.50890
G1 X117.902 Y121.773 E2.50981
G1 X117.827 Y121.698 E2.51071
G1 X117.779 Y121.604 E2.51162
G1 X117.761 Y121.491 E2.51261
G1 X117.761 Y112.509 E2.58971
G1 X117.779 Y112.396 E2.59070
G1 X117.827 Y112.302 E2.59160
G1 X117.902 Y112.227 E2.59251
G1 X117.996 Y112.179 E2.59341
G1 X118.109 Y112.161 E2.59440
G1 X122.161 Y112.161 E2.62919
G1 X122.161 Y108.509 E2.66054
G1 X122.179 Y108.396 E2.66153
G1 X122.227 Y108.302 E2.66243
G1 X122.302 Y108.227 E2.66334
G1 X122.396 Y108.179 E2.66424
G1 X122.509 Y108.161 E2.66523
G1 X128.491 Y108.161 E2.71658
G1 X128.604 Y108.179 E2.71756
G1 X128.698 Y108.227 E2.71847
G1 X128.773 Y108.302 E2.71938
G1 X128.821 Y108.396 E2.72028
G1 X128.839 Y108.509 E2.72127
G1 X128.839 Y112.101 E2.75211
G1 X128.839 Y112.561 F12000.000
G1 X127.764 Y113.634 F12000.000
G1 X123.019 Y108.889 E2.80972 F600.000
G1 X122.889 Y109.148 E2.81220
G1 X126.910 Y113.169 E2.86102
G1 X126.320 Y112.968 F12000.000
G1 X122.889 Y109.537 E2.90268 F600.000
G1 X122.889 Y109.925 E2.90602
G1 X125.825 Y112.861 E2.94166
G1 X125.382 Y112.807 E2.94549
G1 X122.889 Y110.314 E2.97575
G1 X122.889 Y110.703 E2.97909
G1 X124.993 Y112.807 E3.00464
G1 X124.627 Y112.829 E3.00779
G1 X122.889 Y111.091 E3.02889
G1 X122.889 Y111.480 E3.03223
G1 X124.282 Y112.873 E3.04914
G1 X123.966 Y112.946 E3.05192
G1 X122.889 Y111.868 E3.06500
G1 X122.889 Y112.257 E3.06833
G1 X123.657 Y113.025 E3.07766
G1 X123.377 Y113.134 E3.08023
G1 X122.889 Y112.646 E3.08616
G1 X122.744 Y112.889 E3.08860
G1 X123.099 Y113.245 E3.09291
G1 X122.848 Y113.382 E3.09537
G1 X122.355 Y112.889 E3.10136
G1 X121.966 Y112.889 E3.10469
G1 X122.602 Y113.525 E3.11241
G1 X122.374 Y113.685 E3.11481
G1 X121.578 Y112.889 E3.12447
G1 X121.189 Y112.889 E3.12781
G1 X122.146 Y113.846 E3.13943
G1 X121.940 Y114.029 E3.14179
G1 X120.800 Y112.889 E3.15563
G1 X120.412 Y112.889 E3.15897
G1 X121.740 Y114.217 E3.17509
G1 X121.556 Y114.422 E3.17745
G1 X120.023 Y112.889 E3.19606
G1 X119.634 Y112.889 E3.19940
G1 X121.380 Y114.634 E3.22059
G1 X121.217 Y114.860 E3.22298
G1 X119.246 Y112.889 E3.24691
G1 X118.857 Y112.889 E3.25024
G1 X121.066 Y115.098 E3.27706
G1 X120.926 Y115.347 E3.27951
G1 X118.499 Y112.919 E3.30898
G1 X118.489 Y113.298 E3.31224
G1 X120.802 Y115.611 E3.34032
G1 X120.689 Y115.887 E3.34288
G1 X118.489 Y113.687 E3.36959
G1 X118.489 Y114.075 E3.37293
G1 X120.594 Y116.180 E3.39849
G1 X120.515 Y116.490 E3.40123
G1 X118.489 Y114.464 E3.42582
G1 X118.489 Y114.853 E3.42916
G1 X120.453 Y116.816 E3.45300
G1 X120.418 Y117.171 E3.45606
G1 X118.489 Y115.241 E3.47948
G1 X118.489 Y115.630 E3.48281
G1 X120.400 Y117.541 E3.50602
G1 X120.426 Y117.956 E3.50958
G1 X118.489 Y116.019 E3.53310
G1 X118.489 Y116.407 E3.53644
G1 X120.408 Y118.327 E3.55974
G1 X120.411 Y118.718 E3.56310
G1 X118.489 Y116.796 E3.58644
G1 X118.489 Y117.185 E3.58978
G1 X120.422 Y119.117 E3.61324
G1 X120.399 Y119.483 E3.61639
G1 X118.489 Y117.573 E3.63957
G1 X118.489 Y117.962 E3.64291
G1 X120.422 Y119.895 E3.66638
G1 X120.483 Y120.345 E3.67027
G1 X118.489 Y118.351 E3.69449
G1 X118.489 Y118.739 E3.69782
G1 X120.606 Y120.856 E3.72352
G1 X120.472 Y121.111 E3.72600
G1 X118.489 Y119.128 E3.75007
G1 X118.489 Y119.516 E3.75341
G1 X120.084 Y121.111 E3.77277
G1 X119.695 Y121.111 E3.77611
G1 X118.489 Y119.905 E3.79075
G1 X118.489 Y120.294 E3.79408
G1 X119.306 Y121.111 E3.80401
G1 X118.918 Y121.111 E3.80734
G1 X118.489 Y120.682 E3.81255
G1 X118.489 Y121.071 E3.81588
G1 X118.529 Y121.111 E3.81637
G1 F1800.000 E2.81637
G1 Z0.250 F12000.000
G92 E0
G1 X129.800 Y121.111 F12000.000
G1 Z0.200 F12000.000
G1 E1.00000 F1800.000
G1 X129.582 Y120.893 E1.00264 F600.000
G1 X129.670 Y120.592 E1.00533
G1 X130.188 Y121.111 E1.01163
G1 X130.577 Y121.111 E1.01497
G1 X129.732 Y120.266 E1.02523
G1 X129.776 Y119.921 E1.02821
G1 X130.966 Y121.111 E1.04265
G1 X131.354 Y121.111 E1.04599
G1 X129.799 Y119.556 E1.06487
G1 X129.780 Y119.149 E1.06837
G1 X131.511 Y120.879 E1.08938
G1 X131.511 Y120.491 E1.09272
G1 X129.786 Y118.765 E1.11366
G1 X129.795 Y118.386 E1.11692
G1 X131.511 Y120.102 E1.13775
G1 X131.511 Y119.713 E1.14109
G1 X129.773 Y117.975 E1.16219
G1 X129.796 Y117.609 E1.16534
G1 X131.511 Y119.325 E1.18616
G1 X131.511 Y118.936 E1.18950
G1 X129.784 Y117.209 E1.21046
G1 X129.740 Y116.776 E1.21420
G1 X131.511 Y118.547 E1.23571
G1 X131.511 Y118.159 E1.23904
G1 X129.641 Y116.289 E1.26174
G1 X129.439 Y115.698 F12000.000
G1 X131.511 Y117.770 E1.28690 F600.000
G1 X131.511 Y117.381 E1.29024
G1 X128.972 Y114.842 E1.32106
G1 X131.511 Y113.106 F12000.000
G1 X131.294 Y112.889 E1.32370 F600.000
G1 X130.905 Y112.889 E1.32704
G1 X131.511 Y113.495 E1.33440
G1 X131.511 Y113.884 E1.33773
G1 X130.516 Y112.889 E1.34981
G1 X130.128 Y112.889 E1.35314
G1 X131.511 Y114.272 E1.36994
G1 X131.511 Y114.661 E1.37327
G1 X129.739 Y112.889 E1.39479
G1 X129.351 Y112.889 E1.39812
G1 X131.511 Y115.050 E1.42435
G1 X131.511 Y115.438 E1.42769
G1 X128.962 Y112.889 E1.45864
G1 X128.573 Y112.889 E1.46198
G1 X131.511 Y115.827 E1.49764
G1 X131.511 Y116.215 E1.50098
G1 X124.185 Y108.889 E1.58993
G1 X124.573 Y108.889 E1.59327
G1 X128.111 Y112.427 E1.63622
G1 X128.111 Y112.038 E1.63956
G1 X124.962 Y108.889 E1.67779
G1 X125.351 Y108.889 E1.68113
G1 X128.111 Y111.650 E1.71464
G1 X128.111 Y111.261 E1.71798
G1 X125.739 Y108.889 E1.74678
G1 X126.128 Y108.889 E1.75011
G1 X128.111 Y110.872 E1.77419
G1 X128.111 Y110.484 E1.77753
G1 X126.516 Y108.889 E1.79689
G1 X126.905 Y108.889 E1.80022
G1 X128.111 Y110.095 E1.81486
G1 X128.111 Y109.706 E1.81820
G1 X127.294 Y108.889 E1.82812
G1 X127.682 Y108.889 E1.83146
G1 X128.111 Y109.318 E1.83666
G1 X128.111 Y108.929 E1.84000
G1 X128.071 Y108.889 E1.84049
G1 F1800.000 E0.84049
G1 Z0.250 F12000.000
G92 E0
G1 X131.511 Y116.604 F12000.000
G1 Z0.200 F12000.000
G1 E1.00000 F1800.000
G1 X123.796 Y108.889 E1.09367 F600.000
G1 X123.407 Y108.889 E1.09701
G1 X131.511 Y116.993 E1.19539
G1 F1800.000 E0.19539
G1 Z0.250 F12000.000
G92 E0
G1 X128.290 Y87.290 F12000.000
G1 Z0.200 F12000.000
G1 E1.00000 F1800.000
G1 X128.290 Y91.290 E1.03434 F600.000
G1 X122.710 Y91.290 E1.08224
G1 X122.710 Y87.290 E1.11658
G1 X118.310 Y87.290 E1.15436
G1 X118.310 Y78.710 E1.22801
G1 X119.139 Y78.710 E1.23513
G1 X120.935 Y78.710 E1.25055
G1 X120.719 Y79.375 E1.25655
G1 X120.612 Y79.933 E1.26143
G1 X120.577 Y80.500 E1.26630
G1 X120.608 Y81.000 E1.27061
G1 X120.577 Y81.500 E1.27491
G1 X120.608 Y82.000 E1.27921
G1 X120.577 Y82.500 E1.28351
G1 X120.612 Y83.067 E1.28838
G1 X120.719 Y83.625 E1.29326
G1 X120.894 Y84.165 E1.29814
G1 X121.136 Y84.679 E1.30301
G1 X121.441 Y85.159 E1.30789
G1 X121.803 Y85.597 E1.31277
G1 X122.217 Y85.985 E1.31764
G1 X122.676 Y86.319 E1.32252
G1 X123.174 Y86.593 E1.32740
G1 X123.702 Y86.802 E1.33228
G1 X124.252 Y86.943 E1.33715
G1 X124.816 Y87.014 E1.34203
G1 X125.384 Y87.014 E1.34690
G1 X125.948 Y86.943 E1.35178
