; generated by Slic3r 1.1.7 on 2015-04-04 at 18:13:54

; perimeters extrusion width = 0.40mm
; infill extrusion width = 0.67mm
; solid infill extrusion width = 0.50mm
; top infill extrusion width = 0.30mm

G21 ; set units to millimeters
M107
M190 S70 ; wait for bed temperature to be reached
M104 S240 ; set temperature
G28 ; home all axes
M109 S240 ; wait for temperature to be reached
G90 ; use absolute coordinates
G92 E0
M82 ; use absolute distances for extrusion
M204 S500
G1 F1800.000 E-1.00000
G1 Z0.250 F12000.000
G92 E0
G1 X112.934 Y72.343 F12000.000
G1 Z0.200 F12000.000
G1 E1.00000 F1800.000
G1 X113.785 Y71.138 E1.01738 F600.000
G1 X113.989 Y70.891 E1.02116
G1 X114.985 Y69.802 E1.03855
G1 X115.218 Y69.583 E1.04232
G1 X116.341 Y68.628 E1.05969
G1 X117.836 Y67.632 E1.08086
G1 X118.116 Y67.477 E1.08463
G1 X119.441 Y66.832 E1.10200
G1 X119.739 Y66.714 E1.10578
G1 X121.136 Y66.239 E1.12316
G1 X121.446 Y66.159 E1.12694
G1 X122.892 Y65.863 E1.14433
G1 X123.210 Y65.823 E1.14811
G1 X124.680 Y65.710 E1.16548
G1 X126.472 Y65.782 E1.18662
G1 X126.790 Y65.823 E1.19040 F600.000
G1 X128.244 Y66.079 E1.20779
G1 X129.963 Y66.596 E1.22894
G1 X130.261 Y66.714 E1.23272
G1 X131.603 Y67.323 E1.25009
G1 X131.884 Y67.477 E1.25386
G1 X133.141 Y68.251 E1.27126
G1 X134.548 Y69.364 E1.29240
G1 X135.807 Y70.645 E1.31356
G1 X136.011 Y70.891 E1.31734
G1 X136.894 Y72.073 E1.33472
G1 X137.066 Y72.343 E1.33850
G1 X137.794 Y73.626 E1.35587
G1 X138.492 Y75.280 E1.37703
G1 X138.977 Y77.008 E1.39818
G1 X139.037 Y77.322 E1.40195
G1 X139.242 Y78.783 E1.41933
G1 X139.300 Y80.000 E1.43369
G1 X139.282 Y120.578 E1.91188
G1 X139.097 Y122.363 E1.93302
G1 X138.689 Y124.111 E1.95418
G1 X138.590 Y124.416 E1.95795
G1 X138.066 Y125.795 E1.97534
G1 X137.237 Y127.386 E1.99649
G1 X136.215 Y128.862 E2.01764
G1 X136.011 Y129.109 E2.02142
G1 X135.016 Y130.198 E2.03880
G1 X133.658 Y131.373 E2.05995
G1 X132.165 Y132.368 E2.08110
G1 X131.884 Y132.522 E2.08488
G1 X130.558 Y133.169 E2.10226
G1 X128.864 Y133.761 E2.12342
G1 X127.109 Y134.137 E2.14456
G1 X126.791 Y134.177 E2.14834
G1 X125.320 Y134.290 E2.16572
G1 X123.527 Y134.217 E2.18688
G1 X123.209 Y134.177 E2.19065
G1 X121.757 Y133.921 E2.20803
G1 X120.037 Y133.404 E2.22919
G1 X118.396 Y132.677 E2.25034
G1 X118.116 Y132.522 E2.25411
G1 X116.860 Y131.749 E2.27149
G1 X115.451 Y130.636 E2.29265
G1 X114.194 Y129.356 E2.31380
G1 X113.989 Y129.109 E2.31758
G1 X113.106 Y127.927 E2.33496
G1 X112.935 Y127.657 E2.33873
G1 X112.206 Y126.374 E2.35611
G1 X111.508 Y124.720 E2.37727
G1 X111.023 Y122.992 E2.39842
G1 X110.758 Y121.217 E2.41957
G1 X110.700 Y120.000 E2.43393
G1 X110.718 Y79.422 E2.91211
G1 X110.903 Y77.637 E2.93326
G1 X110.963 Y77.322 E2.93704
G1 X111.311 Y75.889 E2.95442
G1 X111.934 Y74.205 E2.97557
G1 X112.070 Y73.916 E2.97935
G1 X112.763 Y72.614 E2.99672
G1 X112.902 Y72.394 E2.99979
G1 X113.272 Y72.558 F12000.000
G1 X114.093 Y71.393 E3.01658 F600.000
G1 X114.298 Y71.146 E3.02036
G1 X115.258 Y70.094 E3.03715
G1 X115.492 Y69.874 E3.04093
G1 X116.576 Y68.951 E3.05771
G1 X118.028 Y67.982 E3.07828
G1 X118.309 Y67.828 E3.08206
G1 X119.589 Y67.204 E3.09884
G1 X119.886 Y67.086 E3.10261
G1 X121.235 Y66.626 E3.11940
G1 X121.545 Y66.546 E3.12318
G1 X122.942 Y66.260 E3.13998
G1 X123.260 Y66.219 E3.14376
G1 X124.680 Y66.110 E3.16054
G1 X126.422 Y66.179 E3.18108
G1 X126.740 Y66.219 E3.18486 F600.000
G1 X128.144 Y66.467 E3.20166
G1 X129.816 Y66.968 E3.22223
G1 X130.114 Y67.086 E3.22600
G1 X131.410 Y67.674 E3.24278
G1 X131.691 Y67.828 E3.24655
G1 X132.906 Y68.575 E3.26336
G1 X134.275 Y69.655 E3.28391
G1 X135.498 Y70.899 E3.30447
G1 X135.703 Y71.146 E3.30825
G1 X136.556 Y72.287 E3.32504
G1 X136.728 Y72.558 E3.32882
G1 X137.432 Y73.796 E3.34560
G1 X138.111 Y75.403 E3.36616
G1 X138.584 Y77.083 E3.38673
G1 X138.644 Y77.397 E3.39050
G1 X138.842 Y78.808 E3.40729
G1 X138.900 Y80.000 E3.42135
G1 X138.883 Y120.553 E3.89924
G1 X138.704 Y122.288 E3.91980
G1 X138.309 Y123.988 E3.94036
G1 X138.210 Y124.292 E3.94413
G1 X137.704 Y125.624 E3.96092
G1 X136.899 Y127.172 E3.98148
G1 X135.907 Y128.607 E4.00204
G1 X135.702 Y128.854 E4.00582
G1 X134.742 Y129.906 E4.02261
G1 X133.423 Y131.049 E4.04317
G1 X131.972 Y132.018 E4.06373
G1 X131.691 Y132.172 E4.06751
G1 X130.411 Y132.797 E4.08430
G1 X128.764 Y133.374 E4.10486
G1 X127.059 Y133.740 E4.12542
G1 X126.741 Y133.780 E4.12919
G1 X125.320 Y133.890 E4.14598
G1 X123.577 Y133.821 E4.16655
G1 X123.259 Y133.780 E4.17032
G1 X121.856 Y133.533 E4.18711
G1 X120.185 Y133.032 E4.20767
G1 X118.589 Y132.326 E4.22823
G1 X118.308 Y132.172 E4.23201
G1 X117.095 Y131.425 E4.24880
G1 X115.725 Y130.345 E4.26936
G1 X114.502 Y129.101 E4.28992
G1 X114.298 Y128.854 E4.29369
G1 X113.444 Y127.713 E4.31048
G1 X113.272 Y127.442 E4.31426
G1 X112.568 Y126.204 E4.33105
G1 X111.889 Y124.597 E4.35161
G1 X111.416 Y122.917 E4.37217
G1 X111.158 Y121.192 E4.39273
G1 X111.100 Y120.000 E4.40679
G1 X111.117 Y79.447 E4.88468
G1 X111.296 Y77.712 E4.90524
G1 X111.356 Y77.397 E4.90901
G1 X111.691 Y76.012 E4.92580
G1 X112.296 Y74.376 E4.94636
G1 X112.432 Y74.086 E4.95014
G1 X113.101 Y72.828 E4.96692
G1 X113.240 Y72.608 E4.96999
G1 X113.610 Y72.772 F12000.000
G1 X114.402 Y71.648 E4.98619 F600.000
G1 X114.606 Y71.401 E4.98997
G1 X115.532 Y70.385 E5.00617
G1 X115.766 Y70.166 E5.00994
G1 X116.811 Y69.275 E5.02613
G1 X118.221 Y68.333 E5.04612
G1 X118.502 Y68.178 E5.04989
G1 X119.736 Y67.575 E5.06608
G1 X120.034 Y67.457 E5.06985
G1 X121.335 Y67.014 E5.08605
G1 X121.645 Y66.934 E5.08982
G1 X122.992 Y66.656 E5.10604
G1 X123.310 Y66.616 E5.10981
G1 X124.680 Y66.510 E5.12600
G1 X126.372 Y66.576 E5.14596
G1 X126.690 Y66.616 E5.14973 F600.000
G1 X128.045 Y66.854 E5.16594
G1 X129.668 Y67.340 E5.18591
G1 X129.966 Y67.458 E5.18969
G1 X131.218 Y68.024 E5.20588
G1 X131.498 Y68.178 E5.20965
G1 X132.671 Y68.898 E5.22586
G1 X134.001 Y69.947 E5.24582
G1 X135.190 Y71.154 E5.26580
G1 X135.394 Y71.401 E5.26957
G1 X136.218 Y72.502 E5.28577
G1 X136.390 Y72.772 E5.28955
G1 X137.070 Y73.967 E5.30574
G1 X137.731 Y75.527 E5.32571
G1 X138.191 Y77.158 E5.34568
G1 X138.251 Y77.472 E5.34945
G1 X138.443 Y78.833 E5.36565
G1 X138.500 Y80.000 E5.37942
G1 X138.483 Y120.528 E5.85701
G1 X138.311 Y122.213 E5.87697
G1 X137.929 Y123.864 E5.89695
G1 X137.830 Y124.169 E5.90072
G1 X137.342 Y125.454 E5.91692
G1 X136.562 Y126.958 E5.93688
G1 X135.598 Y128.352 E5.95685
G1 X135.394 Y128.599 E5.96063
G1 X134.468 Y129.614 E5.97683
G1 X133.188 Y130.725 E5.99680
G1 X131.779 Y131.667 E6.01677
G1 X131.499 Y131.821 E6.02054
G1 X130.264 Y132.425 E6.03674
G1 X128.665 Y132.987 E6.05671
G1 X127.009 Y133.343 E6.07668
G1 X126.691 Y133.384 E6.08045
G1 X125.320 Y133.490 E6.09665
G1 X123.627 Y133.424 E6.11662
G1 X123.309 Y133.384 E6.12040
G1 X121.955 Y133.146 E6.13659
G1 X120.332 Y132.660 E6.15656
G1 X118.782 Y131.976 E6.17653
G1 X118.501 Y131.821 E6.18031
G1 X117.330 Y131.102 E6.19650
G1 X115.999 Y130.053 E6.21647
G1 X114.810 Y128.846 E6.23644
G1 X114.606 Y128.599 E6.24022
G1 X113.782 Y127.499 E6.25642
G1 X113.610 Y127.228 E6.26019
G1 X112.930 Y126.034 E6.27639
G1 X112.269 Y124.473 E6.29636
G1 X111.809 Y122.842 E6.31633
G1 X111.557 Y121.167 E6.33629
G1 X111.500 Y120.000 E6.35006
G1 X111.517 Y79.472 E6.82765
G1 X111.689 Y77.787 E6.84762
G1 X111.749 Y77.472 E6.85139
G1 X112.071 Y76.136 E6.86759
G1 X112.658 Y74.546 E6.88756
G1 X112.794 Y74.256 E6.89134
G1 X113.438 Y73.042 E6.90753
G1 X113.578 Y72.823 E6.91060
G1 F1800.000 E5.91060
G1 Z0.250 F12000.000
G92 E0
G1 X128.591 Y121.974 F12000.000
G1 Z0.200 F12000.000
G1 E1.00000 F1800.000
G1 X128.315 Y122.409 E1.00606 F600.000
G1 X127.987 Y122.805 E1.01213
G1 X127.612 Y123.158 E1.01819
G1 X127.196 Y123.460 E1.02426
G1 X126.970 Y123.584 E1.02729
G1 X126.745 Y123.708 E1.03032
G1 X126.266 Y123.897 E1.03639
G1 X125.768 Y124.025 E1.04245
G1 X125.257 Y124.090 E1.04852
G1 X124.743 Y124.090 E1.05458
G1 X124.232 Y124.025 E1.06065
G1 X123.734 Y123.897 E1.06671
G1 X123.255 Y123.708 E1.07278
G1 X122.804 Y123.460 E1.07884
G1 X122.388 Y123.158 E1.08490
G1 X122.013 Y122.805 E1.09097
G1 X121.685 Y122.409 E1.09703
G1 X121.409 Y121.974 E1.10310
G1 X121.190 Y121.509 E1.10916
G1 X121.031 Y121.019 E1.11523
G1 X120.934 Y120.514 E1.12129
G1 X120.902 Y120.000 E1.12736
G1 X120.934 Y119.486 E1.13342
G1 X121.031 Y118.981 E1.13949
G1 X121.190 Y118.491 E1.14555
G1 X121.409 Y118.026 E1.15162
G1 X121.685 Y117.591 E1.15768
G1 X122.013 Y117.195 E1.16374
G1 X122.388 Y116.842 E1.16981
G1 X122.804 Y116.540 E1.17587
G1 X123.255 Y116.292 E1.18194
G1 X123.734 Y116.103 E1.18800
G1 X124.232 Y115.975 E1.19407
G1 X124.743 Y115.910 E1.20013
G1 X125.257 Y115.910 E1.20620
G1 X125.513 Y115.942 E1.20923
G1 X125.768 Y115.975 E1.21226 F600.000
G1 X126.266 Y116.103 E1.21833
G1 X126.745 Y116.292 E1.22439
G1 X127.196 Y116.540 E1.23046
G1 X127.612 Y116.842 E1.23652
G1 X127.987 Y117.195 E1.24258
G1 X128.315 Y117.591 E1.24865
G1 X128.591 Y118.026 E1.25471
G1 X128.810 Y118.491 E1.26078
G1 X128.969 Y118.981 E1.26684
G1 X129.066 Y119.486 E1.27291
G1 X129.098 Y120.000 E1.27897
G1 X129.066 Y120.514 E1.28504
G1 X128.969 Y121.019 E1.29110
G1 X128.810 Y121.509 E1.29717
G1 X128.617 Y121.920 E1.30252
G1 X128.953 Y122.145 F12000.000
G1 X128.640 Y122.644 E1.30948 F600.000
G1 X128.280 Y123.080 E1.31613
G1 X127.868 Y123.466 E1.32279
G1 X127.411 Y123.798 E1.32945
G1 X126.916 Y124.071 E1.33611
G1 X126.390 Y124.279 E1.34276
G1 X125.843 Y124.419 E1.34942
G1 X125.282 Y124.490 E1.35608
G1 X124.718 Y124.490 E1.36274
G1 X124.157 Y124.419 E1.36940
G1 X123.610 Y124.279 E1.37605
G1 X123.085 Y124.071 E1.38271
G1 X122.589 Y123.798 E1.38937
G1 X122.132 Y123.466 E1.39603
G1 X121.721 Y123.080 E1.40268
G1 X121.360 Y122.644 E1.40934
G1 X121.058 Y122.167 E1.41600
G1 X120.817 Y121.656 E1.42266
G1 X120.643 Y121.119 E1.42932
G1 X120.537 Y120.564 E1.43597
G1 X120.501 Y120.000 E1.44263
G1 X120.537 Y119.436 E1.44929
G1 X120.643 Y118.881 E1.45595
G1 X120.817 Y118.344 E1.46260
G1 X121.058 Y117.833 E1.46926
G1 X121.360 Y117.356 E1.47592
G1 X121.721 Y116.920 E1.48258
G1 X122.132 Y116.534 E1.48924
G1 X122.361 Y116.368 E1.49256
G1 X122.589 Y116.202 E1.49589
G1 X123.085 Y115.929 E1.50255
G1 X123.610 Y115.721 E1.50921
G1 X124.157 Y115.581 E1.51587
G1 X124.718 Y115.510 E1.52252
G1 X125.282 Y115.510 E1.52918 F600.000
G1 X125.843 Y115.581 E1.53584
G1 X126.390 Y115.721 E1.54250
G1 X126.916 Y115.929 E1.54916
G1 X127.411 Y116.202 E1.55581
G1 X127.868 Y116.534 E1.56247
G1 X128.280 Y116.920 E1.56913
G1 X128.640 Y117.356 E1.57579
G1 X128.942 Y117.833 E1.58244
G1 X129.183 Y118.344 E1.58910
G1 X129.357 Y118.881 E1.59576
G1 X129.463 Y119.436 E1.60242
G1 X129.499 Y120.000 E1.60907
G1 X129.463 Y120.564 E1.61573
G1 X129.357 Y121.119 E1.62239
G1 X129.183 Y121.656 E1.62905
G1 X128.979 Y122.090 E1.63470
G1 X129.315 Y122.315 F12000.000
G1 X128.964 Y122.880 E1.64254 F600.000
G1 X128.572 Y123.354 E1.64979
G1 X128.123 Y123.775 E1.65704
G1 X127.625 Y124.137 E1.66429
G1 X127.086 Y124.433 E1.67155
G1 X126.514 Y124.660 E1.67880
G1 X125.918 Y124.813 E1.68605
G1 X125.308 Y124.890 E1.69330
G1 X124.692 Y124.890 E1.70055
G1 X124.082 Y124.813 E1.70780
G1 X123.486 Y124.660 E1.71505
G1 X122.914 Y124.433 E1.72230
G1 X122.644 Y124.285 E1.72593
G1 X122.375 Y124.137 E1.72955
G1 X121.877 Y123.775 E1.73680
G1 X121.428 Y123.354 E1.74405
G1 X121.036 Y122.880 E1.75131
G1 X120.706 Y122.360 E1.75856
G1 X120.444 Y121.804 E1.76581
G1 X120.254 Y121.218 E1.77306
G1 X120.139 Y120.614 E1.78031
G1 X120.100 Y120.000 E1.78756
G1 X120.139 Y119.386 E1.79481
G1 X120.254 Y118.781 E1.80206
G1 X120.444 Y118.196 E1.80931
G1 X120.706 Y117.640 E1.81656
G1 X121.036 Y117.120 E1.82381
G1 X121.428 Y116.646 E1.83106
G1 X121.877 Y116.225 E1.83832
G1 X122.375 Y115.863 E1.84557
G1 X122.914 Y115.567 E1.85282
G1 X123.486 Y115.340 E1.86007
G1 X124.082 Y115.187 E1.86732
G1 X124.692 Y115.110 E1.87457
G1 X125.308 Y115.110 E1.88182
G1 X125.613 Y115.149 E1.88545
G1 X125.918 Y115.187 E1.88907 F600.000
G1 X126.514 Y115.340 E1.89632
G1 X127.086 Y115.567 E1.90357
G1 X127.625 Y115.863 E1.91082
G1 X128.123 Y116.225 E1.91808
G1 X128.572 Y116.646 E1.92533
G1 X128.964 Y117.120 E1.93258
G1 X129.294 Y117.640 E1.93983
G1 X129.556 Y118.196 E1.94708
G1 X129.746 Y118.781 E1.95433
G1 X129.861 Y119.386 E1.96158
G1 X129.900 Y120.000 E1.96883
G1 X129.861 Y120.614 E1.97608
G1 X129.746 Y121.218 E1.98333
G1 X129.556 Y121.804 E1.99058
G1 X129.341 Y122.261 E1.99653
G1 F1800.000 E0.99653
G1 Z0.250 F12000.000
G92 E0
G1 X125.893 Y115.277 F12000.000
G1 X127.380 Y117.071 F12000.000
G1 Z0.200 F12000.000
G1 E1.00000 F1800.000
G1 X127.888 Y117.579 E1.01013 F600.000
G1 X128.655 Y119.054 F12000.000
G1 X125.956 Y116.355 E1.06394 F600.000
G1 X125.125 Y116.231 E1.07579
G1 X128.768 Y119.875 E1.14843
G1 X128.732 Y120.547 E1.15792
G1 X124.456 Y116.270 E1.24318
G1 X123.876 Y116.398 E1.25156
G1 X128.598 Y121.121 E1.34572
G1 X128.399 Y121.629 E1.35342
G1 X123.367 Y116.597 E1.45373
G1 X122.917 Y116.855 E1.46105
G1 X128.143 Y122.081 E1.56524
G1 X127.832 Y122.478 E1.57235
G1 X122.522 Y117.168 E1.67820
G1 X122.168 Y117.522 E1.68526
G1 X127.478 Y122.832 E1.79111
G1 X127.083 Y123.145 E1.79821
G1 X121.857 Y117.919 E1.90240
G1 X121.601 Y118.371 E1.90973
G1 X126.633 Y123.403 E2.01005
G1 X126.124 Y123.602 E2.01775
G1 X121.402 Y118.879 E2.11191
G1 X121.268 Y119.453 E2.12022
G1 X125.544 Y123.730 E2.20549
G1 X124.875 Y123.769 E2.21493
G1 X121.232 Y120.125 E2.28757
G1 X121.345 Y120.946 E2.29926
G1 X124.044 Y123.645 E2.35307
G1 X122.620 Y122.929 F12000.000
G1 X122.112 Y122.421 E2.36320 F600.000
G1 F1800.000 E1.36320
G1 Z0.250 F12000.000
G92 E0
G1 X125.257 Y84.090 F12000.000
G1 Z0.200 F12000.000
G1 E1.00000 F1800.000
G1 X124.743 Y84.090 E1.00607 F600.000
G1 X124.232 Y84.025 E1.01213
G1 X123.734 Y83.897 E1.01819
G1 X123.255 Y83.708 E1.02426
G1 X122.804 Y83.460 E1.03032
G1 X122.388 Y83.158 E1.03639
G1 X122.013 Y82.805 E1.04245
G1 X121.685 Y82.409 E1.04852
G1 X121.409 Y81.974 E1.05458
G1 X121.190 Y81.509 E1.06065
G1 X121.031 Y81.019 E1.06671
G1 X120.934 Y80.514 E1.07278
G1 X120.902 Y80.000 E1.07884
G1 X120.934 Y79.486 E1.08491
G1 X121.031 Y78.981 E1.09097
G1 X121.190 Y78.491 E1.09703
G1 X121.409 Y78.026 E1.10310
G1 X121.685 Y77.591 E1.10916
G1 X122.013 Y77.195 E1.11523
G1 X122.388 Y76.842 E1.12129
G1 X122.804 Y76.540 E1.12736
G1 X123.255 Y76.292 E1.13342
G1 X123.734 Y76.103 E1.13949
G1 X124.232 Y75.975 E1.14555
G1 X124.743 Y75.910 E1.15162
G1 X125.257 Y75.910 E1.15768
G1 X125.513 Y75.942 E1.16071
G1 X125.768 Y75.975 E1.16375 F600.000
G1 X126.266 Y76.103 E1.16981
G1 X126.745 Y76.292 E1.17587
G1 X127.196 Y76.540 E1.18194
G1 X127.612 Y76.842 E1.18800
G1 X127.987 Y77.195 E1.19407
G1 X128.315 Y77.591 E1.20013
G1 X128.591 Y78.026 E1.20620
G1 X128.810 Y78.491 E1.21226
G1 X128.969 Y78.981 E1.21833
G1 X129.066 Y79.486 E1.22439
G1 X129.098 Y80.000 E1.23046
G1 X129.066 Y80.514 E1.23652
G1 X128.969 Y81.019 E1.24259
G1 X128.810 Y81.509 E1.24865
G1 X128.591 Y81.974 E1.25471
G1 X128.315 Y82.409 E1.26078
G1 X127.987 Y82.805 E1.26684
G1 X127.612 Y83.158 E1.27291
G1 X127.196 Y83.460 E1.27897
G1 X126.745 Y83.708 E1.28504
G1 X126.266 Y83.897 E1.29110
G1 X125.768 Y84.025 E1.29717
G1 X125.317 Y84.082 E1.30252
G1 X125.307 Y84.487 F12000.000
G1 X124.717 Y84.490 E1.30948 F600.000
G1 X124.157 Y84.419 E1.31613
G1 X123.610 Y84.279 E1.32279
G1 X123.085 Y84.071 E1.32945
G1 X122.589 Y83.798 E1.33611
G1 X122.132 Y83.466 E1.34276
G1 X121.720 Y83.080 E1.34942
G1 X121.540 Y82.862 E1.35275
G1 X121.360 Y82.644 E1.35608
G1 X121.058 Y82.167 E1.36274
G1 X120.817 Y81.656 E1.36940
G1 X120.643 Y81.119 E1.37605
G1 X120.537 Y80.564 E1.38271
G1 X120.501 Y80.000 E1.38937
G1 X120.537 Y79.436 E1.39603
G1 X120.643 Y78.881 E1.40268
G1 X120.817 Y78.344 E1.40934
G1 X121.058 Y77.833 E1.41600
G1 X121.360 Y77.356 E1.42266
G1 X121.720 Y76.920 E1.42932
G1 X122.132 Y76.534 E1.43597
G1 X122.589 Y76.201 E1.44263
G1 X123.084 Y75.929 E1.44929
G1 X123.610 Y75.721 E1.45595
G1 X124.157 Y75.581 E1.46260
G1 X124.717 Y75.510 E1.46926
G1 X125.283 Y75.510 E1.47592 F600.000
G1 X125.843 Y75.581 E1.48258
G1 X126.390 Y75.721 E1.48924
G1 X126.916 Y75.929 E1.49589
G1 X127.411 Y76.201 E1.50255
G1 X127.868 Y76.534 E1.50921
G1 X128.280 Y76.920 E1.51587
